; generated by SuperSlicer 2.3.57 on 2022-03-19 at 13:45:02 UTC

; 

; external perimeters extrusion width = 0.45mm
; perimeters extrusion width = 0.45mm
; infill extrusion width = 0.45mm
; solid infill extrusion width = 0.45mm
; top infill extrusion width = 0.40mm
; first layer extrusion width = 0.42mm

; object:{"name":"Black - Zip Tie Mount","id":"Black - Zip Tie Mount.stl id:0 copy 0","object_center":[125.000000,118.000000,0.000000],"boundingbox_center":[125.000000,118.000000,4.999998],"boundingbox_size":[20.000000,20.000000,9.999996]}
; object:{"name":"Black - Zip Tie Mount","id":"Black - Zip Tie Mount.stl id:0 copy 1","object_center":[99.000000,118.000000,0.000000],"boundingbox_center":[99.000000,118.000000,4.999998],"boundingbox_size":[20.000000,20.000000,9.999996]}
; object:{"name":"Black - Zip Tie Mount","id":"Black - Zip Tie Mount.stl id:0 copy 2","object_center":[125.000000,92.000000,0.000000],"boundingbox_center":[125.000000,92.000000,4.999998],"boundingbox_size":[20.000000,20.000000,9.999996]}
; object:{"name":"Black - Zip Tie Mount","id":"Black - Zip Tie Mount.stl id:0 copy 3","object_center":[99.000000,92.000000,0.000000],"boundingbox_center":[99.000000,92.000000,4.999998],"boundingbox_size":[20.000000,20.000000,9.999996]}
; object:{"name":"Black - Zip Tie Mount","id":"Black - Zip Tie Mount.stl id:0 copy 4","object_center":[151.000000,118.000000,0.000000],"boundingbox_center":[151.000000,118.000000,4.999998],"boundingbox_size":[20.000000,20.000000,9.999996]}
; object:{"name":"Black - Zip Tie Mount","id":"Black - Zip Tie Mount.stl id:0 copy 5","object_center":[151.000000,92.000000,0.000000],"boundingbox_center":[151.000000,92.000000,4.999998],"boundingbox_size":[20.000000,20.000000,9.999996]}
; Total objects to print: 6
M486 T6
; plater:{"center":[125.000000,105.000000,0.000000],"boundingbox_center":[125.000000,105.000000,4.999998],"boundingbox_size":[72.000000,46.000000,9.999996]}

M73 P0 R62
M73 Q0 S63
;TYPE:Custom
M862.3 P "MK3S" ; printer model check
M862.1 P0.4 ; nozzle diameter check
M115 U3.10.0 ; tell printer latest fw version
G90 ; use absolute coordinates
M83 ; extruder relative mode
M104 S255 ; set extruder temp
M140 S100 ; set bed temp
M190 S100 ; wait for bed temp
M109 S255 ; wait for extruder temp
G28 W ; home all without mesh bed level
G80 ; mesh bed leveling
G1 Y-3.0 F1000.0 ; go outside print area
G92 E0.0
G1 X60.0 E9.0 F1000.0 ; intro line
G1 X100.0 E12.5 F1000.0 ; intro line
G92 E0.0
M221 S95

; Don't change E values below. Excessive value can damage the printer.
M907 E430 ; set extruder motor current
M107
G21 ; set units to millimeters
G90 ; use absolute coordinates
M83 ; use relative distances for extrusion
M900 K0.04 ; Filament gcode LA 1.5
M900 K20 ; Filament gcode LA 1.0
;LAYER_CHANGE
;Z:0.2
;HEIGHT:0.2
;BEFORE_LAYER_CHANGE
G92 E0.0
;0.2


G1 E-0.8 F2100
G1 Z0.4 F10800
;AFTER_LAYER_CHANGE
;0.2
G1 Z0.6
M204 P1500
G1 X114.878 Y108.352
G1 Z0.2
G1 E0.8 F2100
;TYPE:Skirt
;WIDTH:0.42
G1 F1200
G1 X115.295 Y107.931 E0.01859
G1 X115.955 Y107.363 E0.02729
G1 X116.433 Y107.013 E0.01858
G1 X117.173 Y106.555 E0.02728
G1 X117.7 Y106.284 E0.01858
G1 X118.502 Y105.948 E0.02728
G1 X119.065 Y105.762 E0.01858
G1 X119.91 Y105.556 E0.02729
G1 X120.496 Y105.46 E0.01859
G1 X121.227 Y105.4 E0.02302
G1 X121.539 Y105.387 E0.00977
G1 X128.454 Y105.387 E0.21682
G1 X128.75 Y105.398 E0.00929
G1 X129.451 Y105.454 E0.02206
G1 X130.021 Y105.543 E0.01809
G1 X130.86 Y105.74 E0.02704
G1 X131.425 Y105.921 E0.01858
G1 X132.23 Y106.251 E0.02728
G1 X132.759 Y106.518 E0.01858
G1 X133.503 Y106.969 E0.02728
G1 X133.984 Y107.316 E0.01858
G1 X134.648 Y107.878 E0.02729
G1 X135.069 Y108.295 E0.01859
G1 X135.637 Y108.955 E0.02729
G1 X135.987 Y109.433 E0.01858
G1 X136.445 Y110.173 E0.02728
G1 X136.716 Y110.7 E0.01858
G1 X137.052 Y111.502 E0.02728
M73 Q0 S62
G1 X137.238 Y112.065 E0.01858
G1 X137.444 Y112.91 E0.02729
G1 X137.54 Y113.496 E0.01859
G1 X137.6 Y114.227 E0.02301
G1 X137.613 Y114.538 E0.00977
G1 X137.613 Y121.444 E0.21652
G1 X137.602 Y121.736 E0.00917
G1 X137.547 Y122.445 E0.02229
G1 X137.458 Y123.019 E0.01821
G1 X137.259 Y123.86 E0.0271
G1 X137.079 Y124.424 E0.01858
G1 X136.749 Y125.23 E0.02728
G1 X136.482 Y125.759 E0.01858
G1 X136.031 Y126.503 E0.02729
G1 X135.684 Y126.984 E0.01858
G1 X135.122 Y127.648 E0.02728
G1 X134.705 Y128.069 E0.01858
G1 X134.045 Y128.637 E0.02728
G1 X133.567 Y128.987 E0.01858
G1 X132.827 Y129.445 E0.02729
G1 X132.3 Y129.716 E0.01858
G1 X131.498 Y130.052 E0.02728
G1 X130.935 Y130.238 E0.01858
G1 X130.09 Y130.444 E0.02729
G1 X129.504 Y130.54 E0.01859
G1 X128.773 Y130.6 E0.02301
G1 X128.462 Y130.613 E0.00977
G1 X121.556 Y130.613 E0.21652
M73 P0 R61
G1 X121.264 Y130.602 E0.00917
G1 X120.555 Y130.547 E0.02229
G1 X119.981 Y130.458 E0.01821
G1 X119.14 Y130.259 E0.0271
G1 X118.576 Y130.079 E0.01858
G1 X117.77 Y129.749 E0.02728
G1 X117.241 Y129.482 E0.01858
G1 X116.497 Y129.031 E0.02729
G1 X116.016 Y128.684 E0.01858
G1 X115.352 Y128.122 E0.02728
G1 X114.931 Y127.705 E0.01858
G1 X114.363 Y127.045 E0.02728
G1 X114.013 Y126.567 E0.01858
G1 X113.555 Y125.827 E0.02729
G1 X113.284 Y125.3 E0.01858
G1 X112.948 Y124.498 E0.02728
G1 X112.762 Y123.935 E0.01858
G1 X112.556 Y123.09 E0.02729
G1 X112.46 Y122.504 E0.01859
G1 X112.4 Y121.773 E0.02302
G1 X112.387 Y121.462 E0.00977
G1 X112.387 Y114.556 E0.21652
G1 X112.398 Y114.264 E0.00917
G1 X112.453 Y113.555 E0.02229
G1 X112.542 Y112.981 E0.01821
G1 X112.74 Y112.14 E0.0271
G1 X112.921 Y111.575 E0.01858
G1 X113.251 Y110.77 E0.02728
G1 X113.518 Y110.241 E0.01858
G1 X113.969 Y109.497 E0.02728
G1 X114.316 Y109.016 E0.01858
G1 X114.839 Y108.398 E0.0254
G1 X114.983 Y108.52 F10800
M204 P1000
G1 X115.127 Y108.642
G1 F1200
G1 X115.156 Y108.607 E0.00142
G1 X115.553 Y108.207 E0.01766
G1 X116.19 Y107.659 E0.02636
G1 X116.644 Y107.326 E0.01765
G1 X117.358 Y106.884 E0.02636
G1 X117.859 Y106.626 E0.01765
G1 X118.634 Y106.301 E0.02635
G1 X119.169 Y106.125 E0.01765
G1 X119.985 Y105.925 E0.02636
G1 X120.541 Y105.835 E0.01766
G1 X121.25 Y105.776 E0.02231
G1 X121.546 Y105.764 E0.00929
G1 X128.446 Y105.764 E0.21634
G1 X128.727 Y105.775 E0.00882
G1 X129.407 Y105.828 E0.02137
G1 X129.948 Y105.913 E0.01718
G1 X130.759 Y106.104 E0.02612
G1 X131.295 Y106.276 E0.01765
G1 X132.073 Y106.594 E0.02635
G1 X132.576 Y106.848 E0.01765
G1 X133.294 Y107.284 E0.02635
G1 X133.751 Y107.613 E0.01765
G1 X134.393 Y108.156 E0.02636
G1 X134.793 Y108.553 E0.01766
G1 X135.341 Y109.19 E0.02636
G1 X135.674 Y109.644 E0.01765
G1 X136.116 Y110.358 E0.02635
G1 X136.374 Y110.859 E0.01765
G1 X136.699 Y111.634 E0.02635
G1 X136.875 Y112.169 E0.01765
G1 X137.075 Y112.986 E0.02636
G1 X137.165 Y113.541 E0.01766
G1 X137.224 Y114.25 E0.02231
G1 X137.236 Y114.546 E0.00928
G1 X137.236 Y121.437 E0.21605
G1 X137.226 Y121.714 E0.00871
G1 X137.172 Y122.401 E0.02161
G1 X137.087 Y122.947 E0.0173
G1 X136.896 Y123.759 E0.02618
G1 X136.724 Y124.295 E0.01765
G1 X136.406 Y125.073 E0.02635
G1 X136.152 Y125.576 E0.01765
G1 X135.716 Y126.295 E0.02636
G1 X135.387 Y126.751 E0.01765
G1 X134.844 Y127.393 E0.02635
G1 X134.447 Y127.793 E0.01765
G1 X133.811 Y128.341 E0.02636
G1 X133.356 Y128.674 E0.01765
G1 X132.642 Y129.116 E0.02636
G1 X132.141 Y129.374 E0.01765
G1 X131.366 Y129.699 E0.02635
G1 X130.831 Y129.875 E0.01765
G1 X130.014 Y130.075 E0.02636
G1 X129.459 Y130.165 E0.01766
G1 X128.75 Y130.224 E0.02231
G1 X128.454 Y130.236 E0.00928
G1 X121.563 Y130.236 E0.21605
G1 X121.286 Y130.226 E0.00871
G1 X120.599 Y130.172 E0.02161
G1 X120.053 Y130.087 E0.0173
G1 X119.241 Y129.896 E0.02618
G1 X118.705 Y129.724 E0.01765
G1 X117.927 Y129.406 E0.02635
G1 X117.424 Y129.152 E0.01765
G1 X116.705 Y128.716 E0.02636
G1 X116.249 Y128.387 E0.01765
G1 X115.607 Y127.844 E0.02636
G1 X115.207 Y127.447 E0.01765
G1 X114.659 Y126.811 E0.02635
G1 X114.326 Y126.356 E0.01765
G1 X113.884 Y125.642 E0.02636
G1 X113.626 Y125.141 E0.01765
G1 X113.301 Y124.366 E0.02635
G1 X113.125 Y123.831 E0.01765
G1 X112.925 Y123.015 E0.02636
G1 X112.835 Y122.459 E0.01766
G1 X112.776 Y121.75 E0.02231
G1 X112.764 Y121.454 E0.00928
G1 X112.764 Y114.563 E0.21605
G1 X112.774 Y114.286 E0.00871
G1 X112.828 Y113.599 E0.02161
G1 X112.913 Y113.053 E0.0173
G1 X113.104 Y112.241 E0.02618
G1 X113.276 Y111.705 E0.01765
G1 X113.594 Y110.927 E0.02635
G1 X113.848 Y110.424 E0.01765
G1 X114.284 Y109.706 E0.02635
G1 X114.613 Y109.249 E0.01765
G1 X115.088 Y108.687 E0.02306
M204 P1500
G1 X115.232 Y108.809 F10800
M204 P1000
G1 X115.376 Y108.931
G1 F1200
G1 X115.434 Y108.862 E0.00283
G1 X115.81 Y108.483 E0.01673
G1 X116.424 Y107.954 E0.02543
G1 X116.855 Y107.639 E0.01672
G1 X117.544 Y107.212 E0.02543
G1 X118.018 Y106.968 E0.01672
G1 X118.766 Y106.655 E0.02543
G1 X119.273 Y106.488 E0.01672
G1 X120.061 Y106.295 E0.02543
G1 X120.587 Y106.209 E0.01673
G1 X121.274 Y106.153 E0.0216
G1 X121.554 Y106.141 E0.0088
G1 X128.439 Y106.141 E0.21586
G1 X128.705 Y106.151 E0.00836
G1 X129.363 Y106.203 E0.02069
G1 X129.876 Y106.283 E0.01628
G1 X130.658 Y106.468 E0.0252
G1 X131.166 Y106.63 E0.01672
G1 X131.917 Y106.938 E0.02543
G1 X132.393 Y107.178 E0.01672
G1 X133.086 Y107.599 E0.02543
G1 X133.519 Y107.91 E0.01672
G1 X134.138 Y108.434 E0.02543
G1 X134.517 Y108.81 E0.01673
G1 X135.046 Y109.424 E0.02543
G1 X135.361 Y109.855 E0.01672
G1 X135.788 Y110.544 E0.02543
G1 X136.032 Y111.018 E0.01672
G1 X136.345 Y111.766 E0.02543
G1 X136.512 Y112.273 E0.01672
G1 X136.705 Y113.061 E0.02543
G1 X136.791 Y113.587 E0.01673
G1 X136.847 Y114.274 E0.0216
G1 X136.859 Y114.554 E0.00879
G1 X136.859 Y121.429 E0.21557
G1 X136.849 Y121.692 E0.00825
G1 X136.797 Y122.358 E0.02092
G1 X136.717 Y122.874 E0.01639
G1 X136.532 Y123.658 E0.02526
G1 X136.37 Y124.166 E0.01672
G1 X136.062 Y124.917 E0.02543
G1 X135.822 Y125.393 E0.01672
G1 X135.401 Y126.086 E0.02543
G1 X135.09 Y126.519 E0.01672
G1 X134.566 Y127.138 E0.02543
G1 X134.19 Y127.517 E0.01672
G1 X133.576 Y128.046 E0.02543
G1 X133.145 Y128.361 E0.01672
G1 X132.456 Y128.788 E0.02543
G1 X131.982 Y129.032 E0.01672
G1 X131.234 Y129.345 E0.02543
G1 X130.727 Y129.512 E0.01672
G1 X129.939 Y129.705 E0.02543
G1 X129.413 Y129.791 E0.01673
G1 X128.726 Y129.847 E0.0216
G1 X128.446 Y129.859 E0.00879
G1 X121.571 Y129.859 E0.21557
G1 X121.308 Y129.849 E0.00825
G1 X120.642 Y129.797 E0.02092
G1 X120.126 Y129.717 E0.01639
G1 X119.342 Y129.532 E0.02526
G1 X118.834 Y129.37 E0.01672
G1 X118.083 Y129.062 E0.02543
G1 X117.607 Y128.822 E0.01672
G1 X116.914 Y128.401 E0.02543
G1 X116.481 Y128.09 E0.01673
G1 X115.862 Y127.566 E0.02543
G1 X115.483 Y127.19 E0.01672
G1 X114.954 Y126.576 E0.02543
G1 X114.639 Y126.145 E0.01672
G1 X114.212 Y125.456 E0.02543
G1 X113.968 Y124.982 E0.01672
G1 X113.655 Y124.234 E0.02543
G1 X113.488 Y123.727 E0.01672
G1 X113.295 Y122.939 E0.02543
G1 X113.209 Y122.413 E0.01673
G1 X113.153 Y121.726 E0.0216
G1 X113.141 Y121.446 E0.00879
G1 X113.141 Y114.571 E0.21557
G1 X113.151 Y114.308 E0.00825
G1 X113.203 Y113.642 E0.02092
G1 X113.283 Y113.126 E0.01639
G1 X113.468 Y112.342 E0.02526
G1 X113.63 Y111.834 E0.01672
G1 X113.938 Y111.083 E0.02543
G1 X114.178 Y110.607 E0.01672
G1 X114.599 Y109.914 E0.02543
G1 X114.91 Y109.481 E0.01672
G1 X115.337 Y108.977 E0.02071
M204 P1500
G1 X115.481 Y109.099 F10800
M204 P1000
G1 X115.625 Y109.221
G1 F1200
G1 X115.712 Y109.117 E0.00425
G1 X116.067 Y108.759 E0.0158
G1 X116.659 Y108.25 E0.0245
G1 X117.066 Y107.952 E0.01579
G1 X117.73 Y107.541 E0.0245
G1 X118.178 Y107.31 E0.0158
G1 X118.898 Y107.008 E0.0245
G1 X119.377 Y106.851 E0.01579
G1 X120.136 Y106.665 E0.0245
G1 X120.633 Y106.584 E0.0158
G1 X121.297 Y106.529 E0.02089
G1 X121.562 Y106.518 E0.00831
G1 X128.431 Y106.518 E0.21539
G1 X128.683 Y106.528 E0.00789
G1 X129.319 Y106.578 E0.02
G1 X129.803 Y106.654 E0.01537
G1 X130.557 Y106.831 E0.02429
G1 X131.037 Y106.985 E0.01579
G1 X131.76 Y107.281 E0.0245
G1 X132.21 Y107.508 E0.01579
G1 X132.878 Y107.913 E0.0245
G1 X133.287 Y108.208 E0.01579
G1 X133.883 Y108.712 E0.0245
G1 X134.241 Y109.067 E0.0158
G1 X134.75 Y109.659 E0.0245
G1 X135.048 Y110.066 E0.01579
G1 X135.459 Y110.73 E0.0245
G1 X135.69 Y111.178 E0.01579
G1 X135.992 Y111.898 E0.0245
G1 X136.149 Y112.377 E0.01579
G1 X136.335 Y113.136 E0.0245
G1 X136.416 Y113.633 E0.0158
G1 X136.471 Y114.297 E0.02089
G1 X136.482 Y114.562 E0.0083
G1 X136.482 Y121.422 E0.2151
G1 X136.473 Y121.67 E0.00779
G1 X136.423 Y122.314 E0.02024
G1 X136.347 Y122.802 E0.01548
G1 X136.169 Y123.557 E0.02434
G1 X136.015 Y124.037 E0.01579
G1 X135.719 Y124.76 E0.0245
G1 X135.492 Y125.21 E0.0158
G1 X135.087 Y125.878 E0.0245
G1 X134.792 Y126.287 E0.01579
G1 X134.287 Y126.883 E0.0245
G1 X133.933 Y127.24 E0.01579
G1 X133.341 Y127.75 E0.0245
G1 X132.935 Y128.048 E0.0158
G1 X132.27 Y128.459 E0.0245
G1 X131.822 Y128.69 E0.01579
G1 X131.102 Y128.992 E0.0245
G1 X130.623 Y129.149 E0.01579
G1 X129.864 Y129.335 E0.0245
G1 X129.367 Y129.416 E0.0158
G1 X128.703 Y129.471 E0.02089
G1 X128.438 Y129.482 E0.0083
G1 X121.578 Y129.482 E0.2151
G1 X121.33 Y129.473 E0.00779
G1 X120.686 Y129.423 E0.02024
G1 X120.198 Y129.347 E0.01548
G1 X119.443 Y129.169 E0.02434
G1 X118.963 Y129.015 E0.01579
G1 X118.24 Y128.719 E0.0245
G1 X117.79 Y128.492 E0.0158
G1 X117.122 Y128.087 E0.0245
G1 X116.713 Y127.792 E0.0158
G1 X116.117 Y127.287 E0.0245
G1 X115.759 Y126.933 E0.01579
G1 X115.25 Y126.341 E0.0245
G1 X114.952 Y125.935 E0.0158
G1 X114.541 Y125.27 E0.0245
G1 X114.31 Y124.822 E0.0158
G1 X114.008 Y124.102 E0.0245
G1 X113.851 Y123.623 E0.01579
G1 X113.665 Y122.864 E0.0245
G1 X113.584 Y122.367 E0.0158
G1 X113.529 Y121.703 E0.02089
G1 X113.518 Y121.438 E0.0083
G1 X113.518 Y114.578 E0.2151
G1 X113.527 Y114.33 E0.00779
G1 X113.577 Y113.686 E0.02024
G1 X113.653 Y113.198 E0.01548
G1 X113.831 Y112.443 E0.02434
G1 X113.985 Y111.963 E0.01579
G1 X114.281 Y111.24 E0.0245
G1 X114.508 Y110.79 E0.01579
G1 X114.913 Y110.122 E0.0245
G1 X115.208 Y109.713 E0.01579
G1 X115.586 Y109.266 E0.01837
M204 P1500
G1 X115.73 Y109.388 F10800
M204 P1000
G1 X115.874 Y109.51
G1 F1200
G1 X115.991 Y109.372 E0.00567
G1 X116.325 Y109.035 E0.01487
G1 X116.894 Y108.545 E0.02357
G1 X117.277 Y108.265 E0.01486
G1 X117.916 Y107.869 E0.02357
G1 X118.337 Y107.652 E0.01487
G1 X119.031 Y107.362 E0.02357
G1 X119.481 Y107.213 E0.01486
G1 X120.211 Y107.035 E0.02357
G1 X120.679 Y106.959 E0.01487
G1 X121.321 Y106.905 E0.02018
G1 X121.57 Y106.895 E0.00782
G1 X128.424 Y106.895 E0.21491
G1 X128.661 Y106.904 E0.00743
G1 X129.275 Y106.953 E0.01932
G1 X129.731 Y107.024 E0.01447
G1 X130.456 Y107.195 E0.02337
G1 X130.908 Y107.34 E0.01487
G1 X131.604 Y107.624 E0.02357
G1 X132.027 Y107.838 E0.01486
G1 X132.669 Y108.228 E0.02357
G1 X133.054 Y108.505 E0.01486
G1 X133.628 Y108.991 E0.02357
G1 X133.965 Y109.325 E0.01487
G1 X134.455 Y109.894 E0.02357
G1 X134.735 Y110.277 E0.01486
G1 X135.131 Y110.916 E0.02357
G1 X135.348 Y111.337 E0.01486
G1 X135.638 Y112.03 E0.02357
G1 X135.787 Y112.481 E0.01486
G1 X135.965 Y113.211 E0.02357
G1 X136.041 Y113.679 E0.01487
G1 X136.095 Y114.321 E0.02018
G1 X136.105 Y114.57 E0.00782
G1 X136.105 Y121.415 E0.21463
G1 X136.096 Y121.648 E0.00733
G1 X136.048 Y122.27 E0.01956
G1 X135.976 Y122.73 E0.01457
G1 X135.805 Y123.457 E0.02342
G1 X135.66 Y123.908 E0.01486
G1 X135.376 Y124.604 E0.02357
G1 X135.162 Y125.027 E0.01487
G1 X134.772 Y125.67 E0.02357
G1 X134.495 Y126.054 E0.01487
G1 X134.009 Y126.628 E0.02357
G1 X133.675 Y126.964 E0.01486
G1 X133.106 Y127.455 E0.02357
G1 X132.724 Y127.735 E0.01487
G1 X132.084 Y128.131 E0.02357
G1 X131.663 Y128.348 E0.01486
G1 X130.97 Y128.638 E0.02357
G1 X130.519 Y128.787 E0.01486
G1 X129.789 Y128.965 E0.02357
G1 X129.321 Y129.041 E0.01487
G1 X128.679 Y129.095 E0.02018
G1 X128.43 Y129.105 E0.00782
G1 X121.585 Y129.105 E0.21463
G1 X121.352 Y129.096 E0.00733
G1 X120.73 Y129.048 E0.01956
G1 X120.27 Y128.976 E0.01457
G1 X119.543 Y128.805 E0.02342
G1 X119.092 Y128.66 E0.01486
G1 X118.396 Y128.376 E0.02357
G1 X117.973 Y128.162 E0.01487
G1 X117.33 Y127.772 E0.02357
G1 X116.946 Y127.495 E0.01487
G1 X116.372 Y127.009 E0.02357
G1 X116.036 Y126.675 E0.01486
G1 X115.545 Y126.106 E0.02357
G1 X115.265 Y125.724 E0.01487
G1 X114.869 Y125.084 E0.02357
G1 X114.652 Y124.663 E0.01487
G1 X114.362 Y123.969 E0.02357
