; generated by SuperSlicer 2.3.57 on 2022-03-19 at 13:43:09 UTC

; 

; external perimeters extrusion width = 0.45mm
; perimeters extrusion width = 0.45mm
; infill extrusion width = 0.45mm
; solid infill extrusion width = 0.45mm
; top infill extrusion width = 0.40mm
; first layer extrusion width = 0.42mm

; object:{"name":"Black - Y End Stop Cover","id":"Black - Y End Stop Cover.stl id:0 copy 0","object_center":[125.000000,105.000000,0.000000],"boundingbox_center":[125.000000,105.000000,13.414215],"boundingbox_size":[9.400000,29.000000,26.828430]}
; Total objects to print: 1
M486 T1
; plater:{"center":[125.000000,105.000000,0.000000],"boundingbox_center":[125.000000,105.000000,13.414215],"boundingbox_size":[9.400000,29.000000,26.828430]}

M73 P0 R44
M73 Q0 S44
;TYPE:Custom
M862.3 P "MK3S" ; printer model check
M862.1 P0.4 ; nozzle diameter check
M115 U3.10.0 ; tell printer latest fw version
G90 ; use absolute coordinates
M83 ; extruder relative mode
M104 S255 ; set extruder temp
M140 S100 ; set bed temp
M190 S100 ; wait for bed temp
M109 S255 ; wait for extruder temp
G28 W ; home all without mesh bed level
G80 ; mesh bed leveling
G1 Y-3.0 F1000.0 ; go outside print area
G92 E0.0
G1 X60.0 E9.0 F1000.0 ; intro line
G1 X100.0 E12.5 F1000.0 ; intro line
G92 E0.0
M221 S95

; Don't change E values below. Excessive value can damage the printer.
M907 E430 ; set extruder motor current
M107
G21 ; set units to millimeters
G90 ; use absolute coordinates
M83 ; use relative distances for extrusion
M900 K0.04 ; Filament gcode LA 1.5
M900 K20 ; Filament gcode LA 1.0
;LAYER_CHANGE
;Z:0.2
;HEIGHT:0.2
;BEFORE_LAYER_CHANGE
G92 E0.0
;0.2


G1 E-0.8 F2100
G1 Z0.4 F10800
;AFTER_LAYER_CHANGE
;0.2
G1 Z0.6
M204 P1500
G1 X113.918 Y86.35
G1 Z0.2
G1 E0.8 F2100
;TYPE:Skirt
;WIDTH:0.42
G1 F1200
G1 X116.15 Y84.118 E0.09897
G1 X118.922 Y82.97 E0.09407
G1 X129.397 Y82.97 E0.32846
G1 X130.855 Y83.26 E0.04658
G1 X132.296 Y83.857 E0.04893
G1 X133.531 Y84.682 E0.04658
G1 X134.358 Y85.509 E0.03665
G1 X135.518 Y86.669 E0.05143
G1 X136.343 Y87.904 E0.04658
G1 X136.94 Y89.346 E0.04893
G1 X137.23 Y90.803 E0.04658
G1 X137.23 Y119.197 E0.8903
G1 X136.94 Y120.654 E0.04658
G1 X136.343 Y122.096 E0.04893
G1 X135.518 Y123.331 E0.04658
G1 X133.531 Y125.318 E0.08808
G1 X132.296 Y126.143 E0.04658
G1 X130.854 Y126.74 E0.04893
G1 X129.397 Y127.03 E0.04658
G1 X118.922 Y127.03 E0.32846
G1 X116.15 Y125.882 E0.09407
G1 X113.918 Y123.65 E0.09897
G1 X112.77 Y120.878 E0.09407
G1 X112.77 Y109.622 E0.35294
G1 X113.918 Y106.85 E0.09407
G1 X115.768 Y105. E0.08203
G1 X113.918 Y103.15 E0.08203
G1 X112.77 Y100.378 E0.09407
G1 X112.77 Y89.122 E0.35294
G1 X113.895 Y86.405 E0.09219
G1 X114.066 Y86.484 F10800
M204 P1000
G1 X114.238 Y86.564
G1 F1200
G1 X116.364 Y84.438 E0.09426
G1 X118.997 Y83.347 E0.08937
G1 X129.36 Y83.347 E0.32494
G1 X130.745 Y83.622 E0.04425
G1 X132.118 Y84.191 E0.0466
G1 X133.291 Y84.975 E0.04425
G1 X134.091 Y85.775 E0.03548
G1 X135.225 Y86.909 E0.05026
G1 X136.009 Y88.082 E0.04425
G1 X136.578 Y89.456 E0.0466
G1 X136.853 Y90.84 E0.04425
G1 X136.853 Y119.16 E0.88797
G1 X136.578 Y120.544 E0.04425
G1 X136.009 Y121.918 E0.0466
G1 X135.225 Y123.091 E0.04425
G1 X133.291 Y125.025 E0.08575
G1 X132.118 Y125.809 E0.04425
G1 X130.744 Y126.378 E0.0466
G1 X129.36 Y126.653 E0.04425
G1 X118.997 Y126.653 E0.32494
G1 X116.364 Y125.562 E0.08937
G1 X114.238 Y123.436 E0.09426
G1 X113.147 Y120.803 E0.08937
G1 X113.147 Y109.697 E0.34823
G1 X114.238 Y107.064 E0.08937
G1 X116.301 Y105. E0.0915
G1 X114.238 Y102.936 E0.0915
G1 X113.147 Y100.303 E0.08937
G1 X113.147 Y89.197 E0.34823
G1 X114.215 Y86.619 E0.08749
M204 P1500
G1 X114.386 Y86.698 F10800
M204 P1000
G1 X114.557 Y86.777
G1 F1200
G1 X116.577 Y84.757 E0.08956
G1 X119.072 Y83.724 E0.08466
G1 X129.323 Y83.724 E0.32143
G1 X130.635 Y83.985 E0.04192
G1 X131.939 Y84.525 E0.04427
G1 X133.051 Y85.268 E0.04192
G1 X133.825 Y86.042 E0.03432
G1 X134.932 Y87.149 E0.0491
G1 X135.675 Y88.261 E0.04192
G1 X136.215 Y89.566 E0.04427
G1 X136.476 Y90.877 E0.04192
G1 X136.476 Y119.123 E0.88564
G1 X136.215 Y120.434 E0.04192
G1 X135.675 Y121.739 E0.04427
G1 X134.932 Y122.851 E0.04192
G1 X133.051 Y124.732 E0.08342
G1 X131.939 Y125.475 E0.04192
G1 X130.634 Y126.015 E0.04427
G1 X129.323 Y126.276 E0.04192
G1 X119.072 Y126.276 E0.32142
G1 X116.577 Y125.243 E0.08466
G1 X114.557 Y123.223 E0.08956
G1 X113.524 Y120.728 E0.08466
G1 X113.524 Y109.772 E0.34353
G1 X114.557 Y107.277 E0.08466
G1 X116.577 Y105.257 E0.08956
G1 X117.198 Y105 E0.02109
G1 X116.577 Y104.743 E0.02108
G1 X114.557 Y102.723 E0.08956
G1 X113.524 Y100.228 E0.08466
G1 X113.524 Y89.272 E0.34353
G1 X114.534 Y86.833 E0.08278
M204 P1500
G1 X114.706 Y86.912 F10800
M204 P1000
G1 X114.877 Y86.991
G1 F1200
G1 X116.791 Y85.077 E0.08486
G1 X119.147 Y84.101 E0.07996
G1 X129.286 Y84.101 E0.31791
M73 P1 R44
M73 Q1 S44
G1 X130.525 Y84.347 E0.03959
G1 X131.76 Y84.859 E0.04194
G1 X132.81 Y85.561 E0.03959
G1 X133.558 Y86.309 E0.03315
G1 X134.639 Y87.39 E0.04794
G1 X135.341 Y88.44 E0.03959
G1 X135.853 Y89.676 E0.04194
G1 X136.099 Y90.914 E0.03959
G1 X136.099 Y119.086 E0.88331
G1 X135.853 Y120.324 E0.03959
G1 X135.341 Y121.56 E0.04194
G1 X134.639 Y122.61 E0.03959
G1 X132.81 Y124.439 E0.08109
G1 X131.76 Y125.141 E0.03959
G1 X130.524 Y125.653 E0.04194
G1 X129.286 Y125.899 E0.03959
G1 X119.147 Y125.899 E0.31791
G1 X116.791 Y124.923 E0.07996
G1 X114.877 Y123.009 E0.08486
G1 X113.901 Y120.653 E0.07996
G1 X113.901 Y109.847 E0.33883
G1 X114.877 Y107.491 E0.07996
G1 X116.791 Y105.577 E0.08486
G1 X118.184 Y105. E0.04728
G1 X116.791 Y104.423 E0.04728
G1 X114.877 Y102.509 E0.08486
G1 X113.901 Y100.153 E0.07996
G1 X113.901 Y89.347 E0.33883
M73 P1 R43
G1 X114.854 Y87.046 E0.07808
M204 P1500
G1 X115.025 Y87.125 F10800
M204 P1000
G1 X115.197 Y87.204
G1 F1200
G1 X117.004 Y85.397 E0.08015
G1 X119.222 Y84.478 E0.07526
G1 X129.249 Y84.478 E0.31439
G1 X130.415 Y84.71 E0.03726
G1 X131.582 Y85.194 E0.03961
G1 X132.57 Y85.854 E0.03726
G1 X133.291 Y86.575 E0.03199
G1 X134.346 Y87.63 E0.04677
G1 X135.006 Y88.618 E0.03726
G1 X135.49 Y89.786 E0.03961
G1 X135.722 Y90.951 E0.03726
G1 X135.722 Y119.049 E0.88099
G1 X135.49 Y120.214 E0.03726
G1 X135.006 Y121.382 E0.03961
G1 X134.346 Y122.37 E0.03726
G1 X132.57 Y124.146 E0.07876
G1 X131.582 Y124.806 E0.03726
G1 X130.414 Y125.29 E0.03961
G1 X129.249 Y125.522 E0.03726
G1 X119.222 Y125.522 E0.31439
G1 X117.004 Y124.603 E0.07526
G1 X115.197 Y122.796 E0.08015
G1 X114.278 Y120.578 E0.07526
G1 X114.278 Y109.922 E0.33412
G1 X115.197 Y107.704 E0.07526
G1 X117.004 Y105.897 E0.08015
G1 X119.169 Y105. E0.07347
G1 X117.004 Y104.103 E0.07347
G1 X115.197 Y102.296 E0.08015
G1 X114.278 Y100.078 E0.07526
G1 X114.278 Y89.422 E0.33412
G1 X115.174 Y87.26 E0.07337
M204 P1500
G1 X115.345 Y87.339 F10800
M204 P1000
G1 X115.516 Y87.418
G1 F1200
G1 X117.218 Y85.716 E0.07545
G1 X119.297 Y84.855 E0.07055
G1 X129.212 Y84.855 E0.31088
G1 X130.305 Y85.073 E0.03493
G1 X131.403 Y85.528 E0.03729
G1 X132.33 Y86.147 E0.03493
G1 X133.025 Y86.842 E0.03083
G1 X134.053 Y87.87 E0.04561
G1 X134.672 Y88.797 E0.03493
G1 X135.127 Y89.896 E0.03729
G1 X135.345 Y90.988 E0.03493
G1 X135.345 Y119.012 E0.87866
G1 X135.127 Y120.104 E0.03493
G1 X134.672 Y121.203 E0.03729
G1 X134.053 Y122.13 E0.03493
G1 X132.33 Y123.853 E0.07643
G1 X131.403 Y124.472 E0.03493
G1 X130.304 Y124.927 E0.03729
G1 X129.212 Y125.145 E0.03493
G1 X119.297 Y125.145 E0.31088
G1 X117.218 Y124.284 E0.07055
G1 X115.516 Y122.582 E0.07545
G1 X114.655 Y120.503 E0.07055
G1 X114.655 Y109.997 E0.32942
G1 X115.516 Y107.918 E0.07055
G1 X117.218 Y106.216 E0.07545
G1 X119.297 Y105.355 E0.07055
G1 X122.555 Y105.355 E0.10217
G1 X122.555 Y104.645 E0.02228
G1 X119.297 Y104.645 E0.10217
G1 X117.218 Y103.784 E0.07055
G1 X115.516 Y102.082 E0.07545
G1 X114.655 Y100.003 E0.07055
G1 X114.655 Y89.497 E0.32942
G1 X115.493 Y87.473 E0.06867
M204 P1500
G1 X115.665 Y87.552 F10800
M204 P1000
G1 X115.836 Y87.632
G1 F1200
G1 X117.432 Y86.036 E0.07075
G1 X119.372 Y85.232 E0.06585
G1 X129.175 Y85.232 E0.30736
G1 X130.195 Y85.435 E0.03261
G1 X131.225 Y85.862 E0.03496
G1 X132.089 Y86.44 E0.0326
G1 X132.758 Y87.109 E0.02966
G1 X133.76 Y88.111 E0.04444
G1 X134.338 Y88.975 E0.03261
G1 X134.765 Y90.005 E0.03496
G1 X134.968 Y91.025 E0.0326
G1 X134.968 Y118.975 E0.87633
G1 X134.765 Y119.995 E0.0326
G1 X134.338 Y121.025 E0.03496
G1 X133.76 Y121.889 E0.03261
G1 X132.089 Y123.56 E0.0741
G1 X131.225 Y124.138 E0.03261
G1 X130.195 Y124.565 E0.03496
G1 X129.175 Y124.768 E0.0326
G1 X119.372 Y124.768 E0.30736
G1 X117.432 Y123.964 E0.06585
G1 X115.836 Y122.368 E0.07075
G1 X115.032 Y120.428 E0.06585
G1 X115.032 Y110.072 E0.32472
G1 X115.836 Y108.132 E0.06585
G1 X117.432 Y106.536 E0.07075
G1 X119.372 Y105.732 E0.06585
G1 X122.932 Y105.732 E0.11164
G1 X122.932 Y104.268 E0.04592
G1 X119.372 Y104.268 E0.11164
G1 X117.432 Y103.464 E0.06585
G1 X115.836 Y101.868 E0.07075
G1 X115.032 Y99.928 E0.06585
G1 X115.032 Y89.572 E0.32472
G1 X115.813 Y87.687 E0.06397
M204 P1500
G1 X115.984 Y87.766 F10800
M204 P1000
G1 X116.156 Y87.845
G1 F1200
G1 X117.645 Y86.356 E0.06604
G1 X119.447 Y85.609 E0.06115
G1 X129.137 Y85.609 E0.30384
G1 X130.085 Y85.798 E0.03028
G1 X131.046 Y86.196 E0.03263
G1 X131.849 Y86.733 E0.03028
G1 X132.491 Y87.375 E0.0285
G1 X133.468 Y88.351 E0.04328
G1 X134.004 Y89.154 E0.03028
G1 X134.402 Y90.115 E0.03263
G1 X134.591 Y91.063 E0.03028
G1 X134.591 Y118.937 E0.874
G1 X134.402 Y119.885 E0.03028
G1 X134.004 Y120.846 E0.03263
G1 X133.468 Y121.649 E0.03028
G1 X131.849 Y123.268 E0.07178
G1 X131.046 Y123.804 E0.03028
G1 X130.085 Y124.202 E0.03263
G1 X129.137 Y124.391 E0.03028
G1 X119.447 Y124.391 E0.30384
M73 P2 R43
M73 Q2 S44
G1 X117.645 Y123.644 E0.06115
G1 X116.156 Y122.155 E0.06604
G1 X115.409 Y120.353 E0.06115
G1 X115.409 Y110.147 E0.32001
G1 X116.156 Y108.345 E0.06115
G1 X117.645 Y106.856 E0.06604
G1 X119.447 Y106.109 E0.06115
G1 X123.309 Y106.109 E0.12111
G1 X123.309 Y103.891 E0.06957
G1 X119.447 Y103.891 E0.12111
G1 X117.645 Y103.144 E0.06115
G1 X116.156 Y101.655 E0.06604
G1 X115.409 Y99.853 E0.06115
G1 X115.409 Y89.647 E0.32001
G1 X116.133 Y87.901 E0.05926
M204 P1500
G1 X116.304 Y87.98 F10800
M204 P1000
G1 X116.475 Y88.059
G1 F1200
G1 X117.859 Y86.675 E0.06134
G1 X119.522 Y85.987 E0.05644
G1 X129.1 Y85.987 E0.30033
G1 X129.975 Y86.16 E0.02795
G1 X130.867 Y86.53 E0.0303
G1 X131.608 Y87.025 E0.02795
G1 X132.225 Y87.642 E0.02733
G1 X133.175 Y88.592 E0.04211
G1 X133.67 Y89.333 E0.02795
G1 X134.04 Y90.225 E0.0303
G1 X134.213 Y91.1 E0.02795
G1 X134.213 Y118.9 E0.87167
M73 Q2 S43
G1 X134.04 Y119.775 E0.02795
G1 X133.67 Y120.667 E0.0303
G1 X133.175 Y121.408 E0.02795
G1 X131.608 Y122.975 E0.06945
G1 X130.867 Y123.47 E0.02795
G1 X129.975 Y123.84 E0.0303
G1 X129.1 Y124.013 E0.02795
G1 X119.522 Y124.013 E0.30033
G1 X117.859 Y123.325 E0.05644
G1 X116.475 Y121.941 E0.06134
G1 X115.787 Y120.278 E0.05644
G1 X115.787 Y110.222 E0.31531
G1 X116.475 Y108.559 E0.05644
G1 X117.859 Y107.175 E0.06134
G1 X119.522 Y106.487 E0.05644
G1 X123.687 Y106.487 E0.13058
G1 X123.687 Y103.513 E0.09322
G1 X119.522 Y103.513 E0.13058
G1 X117.859 Y102.825 E0.05644
G1 X116.475 Y101.441 E0.06134
G1 X115.787 Y99.778 E0.05644
G1 X115.787 Y89.722 E0.31531
G1 X116.452 Y88.114 E0.05456
M204 P1500
G1 X116.624 Y88.193 F10800
M204 P1000
G1 X116.795 Y88.272
G1 F1200
G1 X118.072 Y86.995 E0.05664
G1 X119.597 Y86.364 E0.05174
G1 X129.063 Y86.364 E0.29681
G1 X129.865 Y86.523 E0.02562
G1 X130.689 Y86.864 E0.02797
G1 X131.368 Y87.318 E0.02562
G1 X131.958 Y87.908 E0.02617
G1 X132.882 Y88.832 E0.04095
G1 X133.336 Y89.511 E0.02562
G1 X133.677 Y90.335 E0.02797
G1 X133.836 Y91.137 E0.02562
G1 X133.836 Y118.863 E0.86934
G1 X133.677 Y119.665 E0.02562
G1 X133.336 Y120.489 E0.02797
G1 X132.882 Y121.168 E0.02562
G1 X131.368 Y122.682 E0.06712
G1 X130.689 Y123.136 E0.02562
G1 X129.865 Y123.477 E0.02797
G1 X129.063 Y123.636 E0.02562
G1 X119.597 Y123.636 E0.29681
G1 X118.072 Y123.005 E0.05174
G1 X116.795 Y121.728 E0.05664
G1 X116.164 Y120.203 E0.05174
G1 X116.164 Y110.297 E0.31061
G1 X116.795 Y108.772 E0.05174
G1 X118.072 Y107.495 E0.05664
G1 X119.597 Y106.864 E0.05174
G1 X124.064 Y106.864 E0.14005
G1 X124.064 Y103.136 E0.11686
G1 X119.597 Y103.136 E0.14005
G1 X118.072 Y102.505 E0.05174
G1 X116.795 Y101.228 E0.05664
G1 X116.164 Y99.703 E0.05174
G1 X116.164 Y89.797 E0.31061
G1 X116.772 Y88.328 E0.04986
M204 P1500
G1 X116.943 Y88.407 F10800
M204 P1000
G1 X117.115 Y88.486
G1 F1200
G1 X118.286 Y87.315 E0.05193
G1 X119.672 Y86.741 E0.04704
G1 X129.026 Y86.741 E0.2933
G1 X129.755 Y86.886 E0.02329
G1 X130.51 Y87.199 E0.02564
G1 X131.128 Y87.611 E0.02329
G1 X131.692 Y88.175 E0.025
G1 X132.589 Y89.072 E0.03978
G1 X133.001 Y89.69 E0.02329
G1 X133.314 Y90.445 E0.02564
G1 X133.459 Y91.174 E0.02329
G1 X133.459 Y118.826 E0.86701
G1 X133.314 Y119.555 E0.02329
G1 X133.001 Y120.31 E0.02564
G1 X132.589 Y120.928 E0.02329
G1 X131.128 Y122.389 E0.06479
G1 X130.51 Y122.801 E0.02329
G1 X129.755 Y123.114 E0.02564
G1 X129.026 Y123.259 E0.02329
G1 X119.672 Y123.259 E0.29329
G1 X118.286 Y122.685 E0.04703
G1 X117.115 Y121.514 E0.05193
G1 X116.541 Y120.128 E0.04704
G1 X116.541 Y110.372 E0.3059
G1 X117.115 Y108.986 E0.04704
G1 X118.286 Y107.815 E0.05193
G1 X119.672 Y107.241 E0.04704
G1 X124.441 Y107.241 E0.14952
G1 X124.441 Y102.759 E0.14051
G1 X119.672 Y102.759 E0.14952
G1 X118.286 Y102.185 E0.04703
G1 X117.115 Y101.014 E0.05193
G1 X116.541 Y99.628 E0.04704
G1 X116.541 Y89.872 E0.3059
G1 X117.092 Y88.541 E0.04515
M204 P1500
G1 X117.263 Y88.62 F10800
M204 P1000
G1 X117.434 Y88.7
G1 F1200
G1 X118.5 Y87.634 E0.04723
G1 X119.747 Y87.118 E0.04233
G1 X128.989 Y87.118 E0.28978
G1 X129.645 Y87.248 E0.02096
G1 X130.332 Y87.533 E0.02331
G1 X130.887 Y87.904 E0.02096
G1 X131.425 Y88.442 E0.02384
G1 X132.296 Y89.313 E0.03862
G1 X132.667 Y89.869 E0.02096
G1 X132.952 Y90.555 E0.02331
G1 X133.082 Y91.211 E0.02096
G1 X133.082 Y118.789 E0.86468
G1 X132.952 Y119.445 E0.02096
G1 X132.667 Y120.131 E0.02331
G1 X132.296 Y120.687 E0.02096
G1 X130.887 Y122.096 E0.06246
G1 X130.331 Y122.467 E0.02096
G1 X129.645 Y122.752 E0.02331
G1 X128.989 Y122.882 E0.02096
G1 X119.747 Y122.882 E0.28978
G1 X118.5 Y122.366 E0.04233
G1 X117.434 Y121.3 E0.04723
G1 X116.918 Y120.053 E0.04233
G1 X116.918 Y110.447 E0.3012
G1 X117.434 Y109.2 E0.04233
G1 X118.5 Y108.134 E0.04723
G1 X119.747 Y107.618 E0.04233
G1 X124.818 Y107.618 E0.15899
G1 X124.818 Y102.382 E0.16415
G1 X119.747 Y102.382 E0.15899
G1 X118.5 Y101.866 E0.04233
G1 X117.434 Y100.8 E0.04723
G1 X116.918 Y99.553 E0.04233
G1 X116.918 Y89.947 E0.3012
G1 X117.411 Y88.755 E0.04045
M204 P1500
G1 X117.583 Y88.834 F10800
M204 P1000
G1 X117.754 Y88.913
G1 F1200
G1 X118.713 Y87.954 E0.04253
G1 X119.822 Y87.495 E0.03763
G1 X128.952 Y87.495 E0.28626
G1 X129.535 Y87.611 E0.01863
G1 X130.153 Y87.867 E0.02098
G1 X130.647 Y88.197 E0.01863
M73 P3 R43
G1 X131.158 Y88.708 E0.02267
G1 X132.003 Y89.553 E0.03746
G1 X132.333 Y90.047 E0.01863
G1 X132.589 Y90.665 E0.02098
G1 X132.705 Y91.248 E0.01863
G1 X132.705 Y118.752 E0.86235
M73 Q3 S43
G1 X132.589 Y119.335 E0.01863
G1 X132.333 Y119.953 E0.02098
G1 X132.003 Y120.447 E0.01863
G1 X130.647 Y121.803 E0.06013
G1 X130.153 Y122.133 E0.01863
G1 X129.535 Y122.389 E0.02098
G1 X128.952 Y122.505 E0.01863
G1 X119.822 Y122.505 E0.28626
G1 X118.713 Y122.046 E0.03763
G1 X117.754 Y121.087 E0.04253
G1 X117.295 Y119.978 E0.03763
G1 X117.295 Y110.522 E0.2965
G1 X117.754 Y109.413 E0.03763
G1 X118.713 Y108.454 E0.04253
G1 X119.822 Y107.995 E0.03763
G1 X125.195 Y107.995 E0.16847
G1 X125.195 Y102.005 E0.1878
G1 X119.822 Y102.005 E0.16847
G1 X118.713 Y101.546 E0.03763
G1 X117.754 Y100.587 E0.04253
G1 X117.295 Y99.478 E0.03763
G1 X117.295 Y90.022 E0.2965
G1 X117.731 Y88.969 E0.03575
M204 P1500
G1 X117.902 Y89.048 F10800
M204 P1000
G1 X118.074 Y89.127
G1 F1200
G1 X118.927 Y88.274 E0.03782
G1 X119.897 Y87.872 E0.03292
G1 X128.915 Y87.872 E0.28275
G1 X129.425 Y87.973 E0.0163
G1 X129.974 Y88.201 E0.01865
G1 X130.407 Y88.49 E0.0163
G1 X130.892 Y88.975 E0.02151
G1 X131.71 Y89.793 E0.03629
G1 X131.999 Y90.226 E0.0163
G1 X132.227 Y90.775 E0.01865
G1 X132.328 Y91.285 E0.0163
G1 X132.328 Y118.715 E0.86003
