; generated by SuperSlicer 2.3.57 on 2022-03-18 at 20:49:21 UTC

; 

; external perimeters extrusion width = 0.45mm
; perimeters extrusion width = 0.45mm
; infill extrusion width = 0.45mm
; solid infill extrusion width = 0.45mm
; top infill extrusion width = 0.40mm
; support material extrusion width = 0.35mm
; first layer extrusion width = 0.42mm

; object:{"name":"Black - Small Knob","id":"Black - Small Knob.stl id:0 copy 0","object_center":[125.000000,105.000000,0.000000],"boundingbox_center":[125.000000,105.000000,6.974998],"boundingbox_size":[24.000000,24.000000,13.949997]}
; Total objects to print: 1
M486 T1
; plater:{"center":[125.000000,105.000000,0.000000],"boundingbox_center":[125.000000,105.000000,6.974998],"boundingbox_size":[24.000000,24.000000,13.949997]}

M73 P0 R34
M73 Q0 S34
;TYPE:Custom
M862.3 P "MK3S" ; printer model check
M862.1 P0.4 ; nozzle diameter check
M115 U3.10.0 ; tell printer latest fw version
G90 ; use absolute coordinates
M83 ; extruder relative mode
M104 S255 ; set extruder temp
M140 S100 ; set bed temp
M190 S100 ; wait for bed temp
M109 S255 ; wait for extruder temp
G28 W ; home all without mesh bed level
G80 ; mesh bed leveling
G1 Y-3.0 F1000.0 ; go outside print area
G92 E0.0
G1 X60.0 E9.0 F1000.0 ; intro line
M73 P0 R33
G1 X100.0 E12.5 F1000.0 ; intro line
G92 E0.0
M221 S95

; Don't change E values below. Excessive value can damage the printer.
M907 E430 ; set extruder motor current
M107
G21 ; set units to millimeters
G90 ; use absolute coordinates
M83 ; use relative distances for extrusion
M900 K0.04 ; Filament gcode LA 1.5
M900 K20 ; Filament gcode LA 1.0
;LAYER_CHANGE
;Z:0.2
;HEIGHT:0.2
;BEFORE_LAYER_CHANGE
G92 E0.0
;0.2


G1 E-0.8 F2100
G1 Z0.4 F10800
;AFTER_LAYER_CHANGE
;0.2
G1 Z0.6
M204 P1500
G1 X109.406 Y90.311
G1 Z0.2
G1 E0.8 F2100
;TYPE:Skirt
;WIDTH:0.42
G1 F1200
G1 X110.279 Y89.436 E0.03875
G1 X113.739 Y86.776 E0.13686
G1 X114.809 Y86.157 E0.03875
G1 X118.84 Y84.482 E0.13686
G1 X120.033 Y84.161 E0.03875
G1 X124.346 Y83.589 E0.13641
G1 X125.553 Y83.584 E0.03785
G1 X126.623 Y83.717 E0.03381
G1 X126.656 Y83.721 E0.00104
G1 X129.931 Y84.152 E0.10357
G1 X131.12 Y84.47 E0.03859
G1 X135.152 Y86.136 E0.13678
G1 X136.223 Y86.752 E0.03875
G1 X139.689 Y89.406 E0.13686
G1 X140.564 Y90.279 E0.03875
G1 X143.224 Y93.739 E0.13686
G1 X143.843 Y94.809 E0.03875
G1 X145.518 Y98.84 E0.13686
G1 X145.839 Y100.033 E0.03875
G1 X146.413 Y104.36 E0.13686
G1 X146.414 Y105.596 E0.03875
G1 X145.849 Y109.924 E0.13686
G1 X145.531 Y111.118 E0.03875
G1 X143.864 Y115.152 E0.13686
G1 X143.248 Y116.223 E0.03875
G1 X140.594 Y119.689 E0.13686
G1 X139.721 Y120.564 E0.03875
G1 X136.261 Y123.224 E0.13686
G1 X135.191 Y123.843 E0.03875
G1 X131.16 Y125.518 E0.13686
G1 X129.967 Y125.839 E0.03875
G1 X125.64 Y126.413 E0.13686
G1 X124.404 Y126.414 E0.03875
G1 X120.076 Y125.849 E0.13686
G1 X118.882 Y125.531 E0.03875
G1 X114.848 Y123.864 E0.13686
G1 X113.777 Y123.248 E0.03875
G1 X110.311 Y120.594 E0.13686
G1 X109.436 Y119.721 E0.03875
G1 X106.776 Y116.261 E0.13686
M73 Q0 S33
G1 X106.157 Y115.191 E0.03875
G1 X104.482 Y111.16 E0.13686
G1 X104.161 Y109.967 E0.03875
G1 X103.587 Y105.64 E0.13686
G1 X103.586 Y104.404 E0.03875
G1 X104.151 Y100.076 E0.13686
G1 X104.469 Y98.882 E0.03875
G1 X106.136 Y94.848 E0.13686
G1 X106.752 Y93.777 E0.03875
G1 X109.37 Y90.359 E0.13498
G1 X109.519 Y90.473 F10800
M204 P1000
G1 X109.669 Y90.588
G1 F1200
G1 X109.69 Y90.56 E0.00111
G1 X110.528 Y89.72 E0.0372
G1 X113.949 Y87.09 E0.13531
G1 X114.976 Y86.495 E0.0372
G1 X118.962 Y84.84 E0.13531
G1 X120.107 Y84.532 E0.0372
G1 X124.372 Y83.966 E0.13488
G1 X125.531 Y83.961 E0.03634
G1 X126.576 Y84.091 E0.03303
G1 X126.608 Y84.095 E0.001
G1 X129.857 Y84.523 E0.10278
G1 X130.999 Y84.828 E0.03705
G1 X134.986 Y86.475 E0.13524
G1 X136.014 Y87.067 E0.0372
G1 X139.44 Y89.69 E0.13531
G1 X140.28 Y90.528 E0.0372
G1 X142.91 Y93.949 E0.13531
G1 X143.505 Y94.976 E0.0372
G1 X145.16 Y98.962 E0.13531
G1 X145.468 Y100.107 E0.0372
G1 X146.036 Y104.385 E0.13531
G1 X146.037 Y105.571 E0.0372
G1 X145.478 Y109.851 E0.13531
G1 X145.173 Y110.997 E0.0372
G1 X143.525 Y114.986 E0.13531
G1 X142.933 Y116.014 E0.0372
G1 X140.31 Y119.44 E0.13531
G1 X139.472 Y120.28 E0.0372
G1 X136.051 Y122.91 E0.13531
G1 X135.024 Y123.505 E0.0372
G1 X131.038 Y125.16 E0.13531
G1 X129.893 Y125.468 E0.0372
G1 X125.615 Y126.036 E0.13531
G1 X124.429 Y126.037 E0.0372
G1 X120.149 Y125.478 E0.13531
G1 X119.003 Y125.173 E0.0372
G1 X115.014 Y123.525 E0.13531
G1 X113.986 Y122.933 E0.0372
G1 X110.56 Y120.31 E0.13531
G1 X109.72 Y119.472 E0.0372
G1 X107.09 Y116.051 E0.13531
G1 X106.495 Y115.024 E0.0372
G1 X104.84 Y111.038 E0.13531
G1 X104.532 Y109.893 E0.0372
G1 X103.964 Y105.615 E0.13531
G1 X103.963 Y104.429 E0.0372
G1 X104.522 Y100.149 E0.13531
M73 Q1 S33
G1 X104.827 Y99.003 E0.0372
G1 X106.475 Y95.014 E0.13531
M73 P1 R33
G1 X107.067 Y93.986 E0.0372
G1 X109.633 Y90.636 E0.13232
M204 P1500
G1 X109.782 Y90.75 F10800
M204 P1000
G1 X109.932 Y90.865
G1 F1200
G1 X109.975 Y90.809 E0.00221
G1 X110.778 Y90.004 E0.03565
G1 X114.16 Y87.404 E0.13376
G1 X115.144 Y86.834 E0.03565
G1 X119.083 Y85.198 E0.13376
G1 X120.181 Y84.902 E0.03565
G1 X124.397 Y84.343 E0.13335
G1 X125.508 Y84.338 E0.03483
G1 X126.529 Y84.465 E0.03225
G1 X126.559 Y84.469 E0.00096
G1 X129.784 Y84.894 E0.10198
G1 X130.878 Y85.186 E0.03551
G1 X134.819 Y86.814 E0.13369
G1 X135.804 Y87.381 E0.03565
G1 X139.191 Y89.975 E0.13376
G1 X139.996 Y90.778 E0.03565
G1 X142.596 Y94.16 E0.13376
G1 X143.166 Y95.144 E0.03565
G1 X144.802 Y99.083 E0.13376
G1 X145.098 Y100.181 E0.03565
G1 X145.659 Y104.41 E0.13376
G1 X145.66 Y105.547 E0.03565
G1 X145.108 Y109.777 E0.13376
G1 X144.815 Y110.876 E0.03565
G1 X143.186 Y114.819 E0.13376
G1 X142.619 Y115.804 E0.03565
G1 X140.025 Y119.191 E0.13376
G1 X139.222 Y119.996 E0.03565
G1 X135.84 Y122.596 E0.13376
G1 X134.856 Y123.166 E0.03565
G1 X130.917 Y124.802 E0.13376
G1 X129.819 Y125.098 E0.03565
G1 X125.59 Y125.659 E0.13376
G1 X124.453 Y125.66 E0.03565
G1 X120.223 Y125.108 E0.13376
G1 X119.124 Y124.815 E0.03565
G1 X115.181 Y123.186 E0.13376
G1 X114.196 Y122.619 E0.03565
G1 X110.809 Y120.025 E0.13376
G1 X110.004 Y119.222 E0.03565
G1 X107.404 Y115.84 E0.13376
G1 X106.834 Y114.856 E0.03565
G1 X105.198 Y110.917 E0.13376
G1 X104.902 Y109.819 E0.03565
G1 X104.341 Y105.59 E0.13376
G1 X104.34 Y104.453 E0.03565
G1 X104.892 Y100.223 E0.13376
G1 X105.185 Y99.124 E0.03565
G1 X106.814 Y95.181 E0.13376
G1 X107.381 Y94.196 E0.03565
G1 X109.895 Y90.913 E0.12967
M204 P1500
G1 X110.045 Y91.027 F10800
M204 P1000
G1 X110.195 Y91.142
G1 F1200
G1 X110.259 Y91.058 E0.00332
G1 X111.027 Y90.288 E0.0341
G1 X114.37 Y87.718 E0.13221
G1 X115.311 Y87.173 E0.0341
G1 X119.205 Y85.555 E0.13221
G1 X120.255 Y85.273 E0.0341
G1 X124.423 Y84.72 E0.13182
G1 X125.485 Y84.715 E0.03331
G1 X126.482 Y84.839 E0.03148
G1 X126.511 Y84.843 E0.00092
G1 X129.71 Y85.264 E0.10119
G1 X130.757 Y85.544 E0.03396
G1 X134.652 Y87.153 E0.13214
G1 X135.594 Y87.696 E0.0341
G1 X138.942 Y90.259 E0.13221
G1 X139.712 Y91.027 E0.0341
G1 X142.282 Y94.37 E0.13221
G1 X142.827 Y95.311 E0.0341
G1 X144.445 Y99.205 E0.13221
G1 X144.727 Y100.255 E0.0341
G1 X145.282 Y104.435 E0.13221
G1 X145.283 Y105.523 E0.0341
G1 X144.737 Y109.704 E0.13221
G1 X144.457 Y110.755 E0.0341
G1 X142.847 Y114.652 E0.13221
G1 X142.304 Y115.594 E0.0341
G1 X139.741 Y118.942 E0.13221
G1 X138.973 Y119.712 E0.0341
G1 X135.63 Y122.282 E0.13221
G1 X134.689 Y122.827 E0.0341
G1 X130.795 Y124.445 E0.13221
G1 X129.745 Y124.727 E0.0341
G1 X125.565 Y125.282 E0.13221
G1 X124.477 Y125.283 E0.0341
G1 X120.296 Y124.737 E0.13221
G1 X119.245 Y124.457 E0.0341
G1 X115.348 Y122.847 E0.13221
G1 X114.406 Y122.304 E0.0341
G1 X111.058 Y119.741 E0.13221
G1 X110.288 Y118.973 E0.0341
G1 X107.718 Y115.63 E0.13221
G1 X107.173 Y114.689 E0.0341
G1 X105.555 Y110.795 E0.13221
G1 X105.273 Y109.745 E0.0341
G1 X104.718 Y105.565 E0.13221
G1 X104.717 Y104.477 E0.0341
G1 X105.263 Y100.296 E0.13221
G1 X105.543 Y99.245 E0.0341
G1 X107.153 Y95.348 E0.13221
G1 X107.696 Y94.406 E0.0341
G1 X110.158 Y91.189 E0.12701
M204 P1500
G1 X110.308 Y91.304 F10800
M204 P1000
G1 X110.458 Y91.419
G1 F1200
G1 X110.544 Y91.307 E0.00443
G1 X111.277 Y90.572 E0.03255
G1 X114.58 Y88.032 E0.13066
G1 X115.479 Y87.512 E0.03255
G1 X119.327 Y85.913 E0.13066
G1 X120.329 Y85.643 E0.03255
G1 X124.449 Y85.097 E0.13029
G1 X125.463 Y85.093 E0.0318
G1 X126.434 Y85.213 E0.0307
G1 X126.462 Y85.217 E0.00087
G1 X129.637 Y85.635 E0.1004
G1 X130.635 Y85.902 E0.03242
G1 X134.485 Y87.492 E0.1306
G1 X135.385 Y88.01 E0.03255
G1 X138.693 Y90.544 E0.13066
G1 X139.428 Y91.277 E0.03255
G1 X141.968 Y94.58 E0.13066
G1 X142.488 Y95.479 E0.03255
G1 X144.087 Y99.327 E0.13066
G1 X144.357 Y100.329 E0.03255
G1 X144.905 Y104.46 E0.13066
G1 X144.906 Y105.498 E0.03255
G1 X144.366 Y109.631 E0.13066
G1 X144.099 Y110.634 E0.03255
G1 X142.508 Y114.485 E0.13066
G1 X141.99 Y115.385 E0.03255
G1 X139.456 Y118.693 E0.13066
G1 X138.723 Y119.428 E0.03255
G1 X135.42 Y121.968 E0.13066
G1 X134.521 Y122.488 E0.03255
G1 X130.673 Y124.087 E0.13066
G1 X129.671 Y124.357 E0.03255
G1 X125.54 Y124.905 E0.13066
G1 X124.502 Y124.906 E0.03255
G1 X120.369 Y124.366 E0.13066
G1 X119.366 Y124.099 E0.03255
G1 X115.515 Y122.508 E0.13066
G1 X114.615 Y121.99 E0.03255
G1 X111.307 Y119.456 E0.13066
G1 X110.572 Y118.723 E0.03255
G1 X108.032 Y115.42 E0.13066
G1 X107.512 Y114.521 E0.03255
G1 X105.913 Y110.673 E0.13066
G1 X105.643 Y109.671 E0.03255
G1 X105.095 Y105.54 E0.13066
G1 X105.094 Y104.502 E0.03255
G1 X105.634 Y100.369 E0.13066
G1 X105.901 Y99.366 E0.03255
G1 X107.492 Y95.515 E0.13066
G1 X108.01 Y94.615 E0.03255
G1 X110.421 Y91.466 E0.12435
M204 P1500
G1 X110.571 Y91.581 F10800
M204 P1000
G1 X110.721 Y91.696
G1 F1200
G1 X110.828 Y91.555 E0.00553
G1 X111.526 Y90.856 E0.031
G1 X114.791 Y88.346 E0.12911
G1 X115.646 Y87.85 E0.031
G1 X119.449 Y86.271 E0.12911
M73 P2 R33
M73 Q2 S33
G1 X120.404 Y86.014 E0.031
G1 X124.474 Y85.474 E0.12875
G1 X125.44 Y85.47 E0.03028
G1 X126.387 Y85.588 E0.02992
G1 X126.413 Y85.591 E0.00083
G1 X129.563 Y86.006 E0.09961
G1 X130.514 Y86.26 E0.03087
G1 X134.318 Y87.831 E0.12905
G1 X135.175 Y88.325 E0.031
G1 X138.445 Y90.828 E0.12911
G1 X139.144 Y91.526 E0.031
G1 X141.654 Y94.791 E0.12911
G1 X142.15 Y95.646 E0.031
G1 X143.729 Y99.449 E0.12911
G1 X143.986 Y100.404 E0.031
G1 X144.528 Y104.486 E0.12911
G1 X144.529 Y105.474 E0.031
G1 X143.996 Y109.557 E0.12911
G1 X143.741 Y110.512 E0.031
G1 X142.169 Y114.318 E0.12911
G1 X141.675 Y115.175 E0.031
G1 X139.172 Y118.445 E0.12911
G1 X138.474 Y119.144 E0.031
G1 X135.209 Y121.654 E0.12911
G1 X134.354 Y122.15 E0.031
G1 X130.551 Y123.729 E0.12911
G1 X129.596 Y123.986 E0.031
G1 X125.514 Y124.528 E0.12911
G1 X124.526 Y124.529 E0.031
G1 X120.443 Y123.996 E0.12911
G1 X119.488 Y123.741 E0.031
G1 X115.682 Y122.169 E0.12911
G1 X114.825 Y121.675 E0.031
G1 X111.555 Y119.172 E0.12911
G1 X110.856 Y118.474 E0.031
G1 X108.346 Y115.209 E0.12911
G1 X107.85 Y114.354 E0.031
G1 X106.271 Y110.551 E0.12911
G1 X106.014 Y109.596 E0.031
G1 X105.472 Y105.514 E0.12911
G1 X105.471 Y104.526 E0.031
G1 X106.004 Y100.443 E0.12911
G1 X106.259 Y99.488 E0.031
G1 X107.831 Y95.682 E0.12911
G1 X108.325 Y94.825 E0.031
G1 X110.684 Y91.743 E0.1217
M204 P1500
G1 X110.834 Y91.858 F10800
M204 P1000
G1 X110.984 Y91.972
G1 F1200
G1 X111.112 Y91.804 E0.00664
G1 X111.776 Y91.14 E0.02945
G1 X115.001 Y88.66 E0.12756
G1 X115.814 Y88.189 E0.02945
G1 X119.571 Y86.628 E0.12756
G1 X120.478 Y86.384 E0.02945
G1 X124.5 Y85.851 E0.12722
G1 X125.417 Y85.847 E0.02877
G1 X126.34 Y85.962 E0.02914
G1 X126.365 Y85.965 E0.00079
G1 X129.489 Y86.376 E0.09881
G1 X130.393 Y86.618 E0.02933
G1 X134.152 Y88.17 E0.1275
G1 X134.965 Y88.639 E0.02945
G1 X138.196 Y91.112 E0.12756
G1 X138.86 Y91.776 E0.02945
G1 X141.34 Y95.001 E0.12756
G1 X141.811 Y95.814 E0.02945
G1 X143.372 Y99.571 E0.12756
G1 X143.616 Y100.478 E0.02945
G1 X144.151 Y104.511 E0.12756
G1 X144.152 Y105.45 E0.02945
G1 X143.625 Y109.484 E0.12756
G1 X143.383 Y110.391 E0.02945
G1 X141.83 Y114.152 E0.12756
G1 X141.361 Y114.965 E0.02945
G1 X138.888 Y118.196 E0.12756
G1 X138.224 Y118.86 E0.02945
G1 X134.999 Y121.34 E0.12756
G1 X134.186 Y121.811 E0.02945
G1 X130.429 Y123.372 E0.12756
G1 X129.522 Y123.616 E0.02945
G1 X125.489 Y124.151 E0.12756
G1 X124.55 Y124.152 E0.02945
G1 X120.516 Y123.625 E0.12756
G1 X119.609 Y123.383 E0.02945
G1 X115.848 Y121.83 E0.12756
G1 X115.035 Y121.361 E0.02945
G1 X111.804 Y118.888 E0.12756
G1 X111.14 Y118.224 E0.02945
G1 X108.66 Y114.999 E0.12756
G1 X108.189 Y114.186 E0.02945
G1 X106.628 Y110.429 E0.12756
G1 X106.384 Y109.522 E0.02945
G1 X105.849 Y105.489 E0.12756
G1 X105.848 Y104.55 E0.02945
G1 X106.375 Y100.516 E0.12756
G1 X106.617 Y99.609 E0.02945
G1 X108.17 Y95.848 E0.12756
G1 X108.639 Y95.035 E0.02945
G1 X110.947 Y92.02 E0.11904
M204 P1500
G1 X111.097 Y92.135 F10800
M204 P1000
G1 X111.247 Y92.249
G1 F1200
G1 X111.397 Y92.053 E0.00774
G1 X112.025 Y91.423 E0.0279
G1 X115.211 Y88.974 E0.12601
G1 X115.981 Y88.528 E0.0279
G1 X119.693 Y86.986 E0.12601
G1 X120.552 Y86.755 E0.0279
G1 X124.526 Y86.228 E0.12569
G1 X125.395 Y86.224 E0.02725
G1 X126.293 Y86.336 E0.02836
G1 X126.316 Y86.339 E0.00075
G1 X129.416 Y86.747 E0.09802
G1 X130.272 Y86.976 E0.02779
G1 X133.985 Y88.509 E0.12596
G1 X134.756 Y88.953 E0.0279
G1 X137.947 Y91.397 E0.12601
G1 X138.577 Y92.025 E0.0279
G1 X141.026 Y95.211 E0.12601
G1 X141.472 Y95.981 E0.0279
G1 X143.014 Y99.693 E0.12601
G1 X143.245 Y100.552 E0.0279
G1 X143.774 Y104.536 E0.12601
G1 X143.775 Y105.426 E0.0279
G1 X143.254 Y109.411 E0.12601
G1 X143.025 Y110.27 E0.0279
G1 X141.491 Y113.985 E0.12601
G1 X141.047 Y114.756 E0.0279
G1 X138.603 Y117.947 E0.12601
G1 X137.975 Y118.577 E0.0279
G1 X134.789 Y121.026 E0.12601
G1 X134.019 Y121.472 E0.0279
G1 X130.307 Y123.014 E0.12601
G1 X129.448 Y123.245 E0.0279
G1 X125.464 Y123.774 E0.12601
G1 X124.574 Y123.775 E0.0279
G1 X120.589 Y123.254 E0.12601
G1 X119.73 Y123.025 E0.0279
G1 X116.015 Y121.491 E0.12601
G1 X115.244 Y121.047 E0.0279
G1 X112.053 Y118.603 E0.12601
G1 X111.423 Y117.975 E0.0279
G1 X108.974 Y114.789 E0.12601
G1 X108.528 Y114.019 E0.0279
G1 X106.986 Y110.307 E0.12601
G1 X106.755 Y109.448 E0.0279
G1 X106.226 Y105.464 E0.12601
G1 X106.225 Y104.574 E0.0279
G1 X106.746 Y100.589 E0.12601
G1 X106.975 Y99.73 E0.0279
G1 X108.509 Y96.015 E0.12601
G1 X108.953 Y95.244 E0.0279
G1 X111.21 Y92.297 E0.11639
M204 P1500
G1 X111.36 Y92.412 F10800
M204 P1000
G1 X111.509 Y92.526
G1 F1200
G1 X111.681 Y92.302 E0.00885
G1 X112.275 Y91.707 E0.02635
G1 X115.421 Y89.288 E0.12446
G1 X116.149 Y88.867 E0.02635
G1 X119.814 Y87.344 E0.12446
G1 X120.626 Y87.125 E0.02635
G1 X124.551 Y86.605 E0.12416
G1 X125.372 Y86.601 E0.02574
G1 X126.245 Y86.71 E0.02759
G1 X126.268 Y86.713 E0.00071
G1 X129.342 Y87.118 E0.09723
G1 X130.151 Y87.334 E0.02624
G1 X133.818 Y88.848 E0.12441
G1 X134.546 Y89.268 E0.02635
G1 X137.698 Y91.681 E0.12446
G1 X138.293 Y92.275 E0.02635
G1 X140.712 Y95.421 E0.12446
G1 X141.133 Y96.149 E0.02635
G1 X142.656 Y99.814 E0.12446
G1 X142.875 Y100.626 E0.02635
G1 X143.397 Y104.561 E0.12446
G1 X143.398 Y105.401 E0.02635
G1 X142.884 Y109.337 E0.12446
G1 X142.667 Y110.149 E0.02635
G1 X141.152 Y113.818 E0.12446
M73 P3 R33
M73 Q3 S33
G1 X140.732 Y114.546 E0.02635
G1 X138.319 Y117.698 E0.12446
G1 X137.725 Y118.293 E0.02635
G1 X134.579 Y120.712 E0.12446
G1 X133.851 Y121.133 E0.02635
G1 X130.186 Y122.656 E0.12446
G1 X129.374 Y122.875 E0.02635
G1 X125.439 Y123.397 E0.12446
G1 X124.599 Y123.398 E0.02635
G1 X120.663 Y122.884 E0.12446
G1 X119.851 Y122.667 E0.02635
G1 X116.182 Y121.152 E0.12446
G1 X115.454 Y120.732 E0.02635
G1 X112.302 Y118.319 E0.12446
G1 X111.707 Y117.725 E0.02635
M73 P3 R32
G1 X109.288 Y114.579 E0.12446
G1 X108.867 Y113.851 E0.02635
G1 X107.344 Y110.186 E0.12446
G1 X107.125 Y109.374 E0.02635
G1 X106.603 Y105.439 E0.12446
G1 X106.602 Y104.599 E0.02635
G1 X107.116 Y100.663 E0.12446
G1 X107.333 Y99.851 E0.02635
G1 X108.848 Y96.182 E0.12446
G1 X109.268 Y95.454 E0.02635
G1 X111.473 Y92.574 E0.11373
M204 P1500
G1 X111.623 Y92.688 F10800
M204 P1000
G1 X111.772 Y92.803
G1 F1200
G1 X111.965 Y92.551 E0.00996
G1 X112.524 Y91.991 E0.0248
