; generated by SuperSlicer 2.3.57 on 2022-03-18 at 20:37:05 UTC

; 

; external perimeters extrusion width = 0.45mm
; perimeters extrusion width = 0.45mm
; infill extrusion width = 0.45mm
; solid infill extrusion width = 0.45mm
; top infill extrusion width = 0.40mm
; support material extrusion width = 0.35mm
; first layer extrusion width = 0.42mm

; object:{"name":"Black - Clamp Knob","id":"Black - Clamp Knob.stl id:0 copy 0","object_center":[136.891073,91.269372,0.000000],"boundingbox_center":[136.891073,91.269372,3.000000],"boundingbox_size":[22.804712,20.821257,6.000000]}
; object:{"name":"Black - Clamp Knob","id":"Black - Clamp Knob.stl id:0 copy 1","object_center":[136.891073,118.730628,0.000000],"boundingbox_center":[136.891073,118.730628,3.000000],"boundingbox_size":[22.804712,20.821257,6.000000]}
; object:{"name":"Black - Clamp Knob","id":"Black - Clamp Knob.stl id:0 copy 2","object_center":[113.108928,105.000000,0.000000],"boundingbox_center":[113.108928,105.000000,3.000000],"boundingbox_size":[22.804712,20.821257,6.000000]}
; Total objects to print: 3
M486 T3
; plater:{"center":[125.000000,105.000000,0.000000],"boundingbox_center":[125.000000,105.000000,3.000000],"boundingbox_size":[46.586857,48.282513,6.000000]}

M73 P0 R31
M73 Q0 S32
;TYPE:Custom
M862.3 P "MK3S" ; printer model check
M862.1 P0.4 ; nozzle diameter check
M115 U3.10.0 ; tell printer latest fw version
G90 ; use absolute coordinates
M83 ; extruder relative mode
M104 S255 ; set extruder temp
M140 S100 ; set bed temp
M190 S100 ; wait for bed temp
M109 S255 ; wait for extruder temp
G28 W ; home all without mesh bed level
G80 ; mesh bed leveling
G1 Y-3.0 F1000.0 ; go outside print area
G92 E0.0
G1 X60.0 E9.0 F1000.0 ; intro line
G1 X100.0 E12.5 F1000.0 ; intro line
G92 E0.0
M221 S95

; Don't change E values below. Excessive value can damage the printer.
M907 E430 ; set extruder motor current
M107
G21 ; set units to millimeters
G90 ; use absolute coordinates
M83 ; use relative distances for extrusion
M900 K0.04 ; Filament gcode LA 1.5
M900 K20 ; Filament gcode LA 1.0
;LAYER_CHANGE
;Z:0.2
;HEIGHT:0.2
;BEFORE_LAYER_CHANGE
G92 E0.0
;0.2


G1 E-0.8 F2100
G1 Z0.4 F10800
;AFTER_LAYER_CHANGE
;0.2
G1 Z0.6
M204 P1500
G1 X103.795 Y90.22
G1 Z0.2
G1 E0.8 F2100
;TYPE:Skirt
;WIDTH:0.42
G1 F1200
G1 X104.666 Y89.343 E0.03875
G1 X106.279 Y88.095 E0.06395
G1 X107.346 Y87.473 E0.03875
G1 X109.236 Y86.681 E0.06425
G1 X110.448 Y86.354 E0.03934
G1 X112.503 Y86.083 E0.06501
G1 X113.739 Y86.083 E0.03875
G1 X114.738 Y86.215 E0.03159
G1 X115.728 Y86.345 E0.03129
G1 X116.903 Y86.658 E0.03815
G1 X118.782 Y87.427 E0.06365
G1 X119.855 Y88.041 E0.03875
G1 X120.755 Y88.726 E0.03549
G1 X121.048 Y88.432 E0.013
G1 X122.396 Y87.389 E0.05346
G1 X122.703 Y87.171 E0.0118
G1 X124.292 Y86.132 E0.05952
G1 X124.396 Y84.254 E0.05898
G1 X124.429 Y83.897 E0.01124
G1 X124.646 Y82.242 E0.05233
G1 X124.959 Y81.065 E0.0382
G1 X125.729 Y79.186 E0.06367
G1 X126.342 Y78.113 E0.03875
G1 X127.577 Y76.49 E0.06395
G1 X128.448 Y75.613 E0.03875
G1 X130.061 Y74.364 E0.06395
G1 X131.128 Y73.742 E0.03875
G1 X133.018 Y72.951 E0.06425
G1 X134.23 Y72.623 E0.03934
G1 X136.286 Y72.353 E0.06501
G1 X137.521 Y72.353 E0.03875
G1 X138.52 Y72.484 E0.03159
G1 X139.51 Y72.614 E0.03129
G1 X140.686 Y72.927 E0.03815
G1 X142.564 Y73.696 E0.06365
G1 X143.637 Y74.31 E0.03875
G1 X145.26 Y75.545 E0.06395
G1 X146.137 Y76.415 E0.03875
G1 X147.385 Y78.028 E0.06395
G1 X148.008 Y79.096 E0.03875
G1 X148.796 Y80.978 E0.06398
G1 X149.121 Y82.173 E0.03881
G1 X149.349 Y83.862 E0.05346
G1 X149.385 Y84.237 E0.0118
G1 X149.49 Y86.132 E0.05952
G1 X151.065 Y87.161 E0.05898
G1 X151.357 Y87.368 E0.01124
G1 X152.682 Y88.384 E0.05233
G1 X153.545 Y89.244 E0.0382
G1 X154.788 Y90.85 E0.06367
G1 X155.41 Y91.917 E0.03875
G1 X156.198 Y93.799 E0.06395
G1 X156.523 Y94.991 E0.03875
G1 X156.797 Y97.012 E0.06395
G1 X156.802 Y98.248 E0.03875
G1 X156.544 Y100.271 E0.06395
G1 X156.229 Y101.466 E0.03875
G1 X155.456 Y103.353 E0.06395
G1 X154.842 Y104.426 E0.03875
G1 X153.607 Y106.049 E0.06395
G1 X152.737 Y106.926 E0.03875
G1 X151.124 Y108.174 E0.06395
G1 X150.056 Y108.796 E0.03875
G1 X149.012 Y109.234 E0.03549
G1 X149.121 Y109.634 E0.013
G1 X149.349 Y111.323 E0.05346
G1 X149.385 Y111.698 E0.0118
G1 X149.49 Y113.593 E0.05952
G1 X151.065 Y114.623 E0.05898
G1 X151.357 Y114.83 E0.01124
G1 X152.682 Y115.845 E0.05233
G1 X153.545 Y116.705 E0.0382
G1 X154.788 Y118.311 E0.06367
G1 X155.41 Y119.379 E0.03875
G1 X156.198 Y121.26 E0.06395
G1 X156.523 Y122.452 E0.03875
G1 X156.797 Y124.473 E0.06395
G1 X156.802 Y125.709 E0.03875
G1 X156.544 Y127.732 E0.06395
G1 X156.229 Y128.927 E0.03875
G1 X155.456 Y130.814 E0.06395
G1 X154.842 Y131.887 E0.03875
G1 X153.607 Y133.51 E0.06395
G1 X152.737 Y134.387 E0.03875
G1 X151.124 Y135.636 E0.06395
G1 X150.056 Y136.258 E0.03875
G1 X148.175 Y137.046 E0.06395
G1 X146.983 Y137.37 E0.03875
G1 X144.961 Y137.645 E0.06395
G1 X143.726 Y137.65 E0.03875
G1 X141.702 Y137.391 E0.06398
G1 X140.505 Y137.076 E0.03881
G1 X138.927 Y136.429 E0.05346
M73 Q0 S31
G1 X138.585 Y136.272 E0.0118
G1 X136.891 Y135.416 E0.05952
G1 X135.213 Y136.265 E0.05898
G1 X134.887 Y136.415 E0.01124
G1 X133.345 Y137.054 E0.05233
G1 X132.169 Y137.372 E0.0382
G1 X130.157 Y137.645 E0.06367
G1 X128.921 Y137.65 E0.03875
G1 X126.898 Y137.392 E0.06395
G1 X125.703 Y137.077 E0.03875
G1 X123.816 Y136.304 E0.06395
G1 X122.743 Y135.69 E0.03875
G1 X121.12 Y134.455 E0.06395
G1 X120.243 Y133.585 E0.03875
G1 X118.994 Y131.972 E0.06395
G1 X118.372 Y130.904 E0.03875
G1 X117.584 Y129.023 E0.06395
G1 X117.26 Y127.83 E0.03875
G1 X116.985 Y125.809 E0.06395
G1 X116.98 Y124.574 E0.03875
G1 X117.124 Y123.451 E0.03549
G1 X116.723 Y123.345 E0.013
G1 X115.145 Y122.698 E0.05346
G1 X114.803 Y122.542 E0.0118
G1 X113.109 Y121.685 E0.05952
G1 X111.43 Y122.534 E0.05898
G1 X111.105 Y122.684 E0.01124
G1 X109.563 Y123.323 E0.05233
G1 X108.387 Y123.641 E0.0382
G1 X106.375 Y123.914 E0.06367
G1 X105.139 Y123.919 E0.03875
G1 X103.116 Y123.661 E0.06395
G1 X101.921 Y123.346 E0.03875
G1 X100.033 Y122.573 E0.06395
G1 X98.961 Y121.959 E0.03875
G1 X97.338 Y120.724 E0.06395
G1 X96.46 Y119.854 E0.03875
G1 X95.212 Y118.241 E0.06395
G1 X94.59 Y117.173 E0.03875
G1 X93.802 Y115.292 E0.06395
G1 X93.477 Y114.1 E0.03875
G1 X93.203 Y112.079 E0.06395
G1 X93.198 Y110.843 E0.03875
G1 X93.456 Y108.82 E0.06395
G1 X93.771 Y107.625 E0.03875
G1 X94.544 Y105.737 E0.06395
G1 X95.158 Y104.665 E0.03875
G1 X96.393 Y103.041 E0.06398
G1 X97.265 Y102.162 E0.03881
G1 X98.614 Y101.12 E0.05346
G1 X98.921 Y100.902 E0.0118
G1 X100.51 Y99.863 E0.05952
G1 X100.614 Y97.985 E0.05898
G1 X100.647 Y97.628 E0.01124
G1 X100.864 Y95.973 E0.05233
G1 X101.177 Y94.795 E0.0382
G1 X101.947 Y92.916 E0.06367
G1 X102.56 Y91.844 E0.03875
G1 X103.759 Y90.268 E0.06207
G1 X103.909 Y90.382 F10800
M204 P1000
G1 X104.059 Y90.497
G1 F1200
G1 X104.08 Y90.468 E0.00111
G1 X104.916 Y89.626 E0.0372
G1 X106.49 Y88.408 E0.0624
M73 Q1 S31
G1 X107.515 Y87.811 E0.0372
G1 X109.359 Y87.039 E0.06269
G1 X110.522 Y86.725 E0.03777
M73 P1 R31
G1 X112.528 Y86.46 E0.06345
G1 X113.714 Y86.46 E0.0372
G1 X114.689 Y86.589 E0.03081
G1 X115.654 Y86.716 E0.03053
G1 X116.783 Y87.016 E0.03662
G1 X118.616 Y87.767 E0.06211
G1 X119.646 Y88.356 E0.0372
G1 X120.79 Y89.226 E0.04508
G1 X121.298 Y88.715 E0.02259
G1 X122.621 Y87.692 E0.05244
G1 X122.915 Y87.483 E0.01133
G1 X124.511 Y86.441 E0.05974
G1 X124.589 Y86.373 E0.00323
G1 X124.624 Y86.324 E0.0019
G1 X124.649 Y86.268 E0.00191
G1 X124.669 Y86.168 E0.00321
G1 X124.772 Y84.282 E0.05923
G1 X124.804 Y83.939 E0.01079
G1 X125.017 Y82.316 E0.05134
G1 X125.317 Y81.185 E0.03667
G1 X126.068 Y79.351 E0.06214
G1 X126.657 Y78.322 E0.0372
G1 X127.862 Y76.738 E0.0624
G1 X128.698 Y75.896 E0.0372
G1 X130.272 Y74.678 E0.0624
G1 X131.297 Y74.081 E0.0372
G1 X133.141 Y73.308 E0.06269
G1 X134.304 Y72.994 E0.03777
G1 X136.31 Y72.73 E0.06345
G1 X137.497 Y72.73 E0.0372
G1 X138.471 Y72.858 E0.03081
G1 X139.436 Y72.985 E0.03053
G1 X140.565 Y73.285 E0.03662
G1 X142.398 Y74.036 E0.06211
G1 X143.428 Y74.625 E0.0372
G1 X145.012 Y75.83 E0.0624
G1 X145.854 Y76.666 E0.0372
G1 X147.072 Y78.24 E0.0624
G1 X147.669 Y79.265 E0.0372
G1 X148.439 Y81.101 E0.06243
G1 X148.751 Y82.248 E0.03726
G1 X148.975 Y83.905 E0.05244
G1 X149.009 Y84.265 E0.01133
G1 X149.113 Y86.167 E0.05974
G1 X149.133 Y86.268 E0.00323
G1 X149.158 Y86.324 E0.00191
G1 X149.194 Y86.373 E0.0019
G1 X149.271 Y86.441 E0.00321
G1 X150.853 Y87.473 E0.05923
G1 X151.134 Y87.672 E0.01079
G1 X152.433 Y88.668 E0.05134
G1 X153.262 Y89.494 E0.03667
G1 X154.474 Y91.061 E0.06214
G1 X155.072 Y92.086 E0.0372
G1 X155.841 Y93.921 E0.0624
G1 X156.152 Y95.066 E0.0372
G1 X156.42 Y97.038 E0.0624
G1 X156.425 Y98.224 E0.0372
G1 X156.173 Y100.199 E0.0624
G1 X155.87 Y101.346 E0.0372
G1 X155.116 Y103.187 E0.0624
G1 X154.527 Y104.217 E0.0372
G1 X153.322 Y105.801 E0.0624
G1 X152.487 Y106.643 E0.0372
G1 X150.913 Y107.861 E0.0624
G1 X149.888 Y108.458 E0.0372
G1 X148.561 Y109.014 E0.04508
G1 X148.751 Y109.709 E0.02259
G1 X148.975 Y111.366 E0.05244
G1 X149.009 Y111.726 E0.01133
G1 X149.113 Y113.629 E0.05974
G1 X149.133 Y113.73 E0.00323
G1 X149.158 Y113.785 E0.00191
G1 X149.194 Y113.834 E0.0019
G1 X149.271 Y113.902 E0.00321
G1 X150.853 Y114.934 E0.05923
G1 X151.134 Y115.133 E0.01079
G1 X152.433 Y116.13 E0.05134
G1 X153.262 Y116.955 E0.03667
G1 X154.474 Y118.522 E0.06214
G1 X155.072 Y119.547 E0.0372
G1 X155.841 Y121.383 E0.0624
G1 X156.152 Y122.527 E0.0372
G1 X156.42 Y124.499 E0.0624
G1 X156.425 Y125.686 E0.0372
G1 X156.173 Y127.66 E0.0624
G1 X155.87 Y128.807 E0.0372
G1 X155.116 Y130.649 E0.0624
G1 X154.527 Y131.678 E0.0372
G1 X153.322 Y133.262 E0.0624
G1 X152.487 Y134.104 E0.0372
G1 X150.913 Y135.322 E0.0624
G1 X149.888 Y135.919 E0.0372
G1 X148.052 Y136.688 E0.0624
G1 X146.907 Y137. E0.0372
G1 X144.935 Y137.268 E0.0624
G1 X143.749 Y137.273 E0.0372
G1 X141.774 Y137.021 E0.06243
G1 X140.625 Y136.717 E0.03726
G1 X139.077 Y136.083 E0.05244
G1 X138.749 Y135.933 E0.01133
G1 X137.049 Y135.071 E0.05974
G1 X136.952 Y135.038 E0.00323
G1 X136.891 Y135.032 E0.0019
G1 X136.831 Y135.038 E0.0019
G1 X136.734 Y135.071 E0.00321
G1 X135.048 Y135.925 E0.05923
G1 X134.736 Y136.069 E0.01079
G1 X133.223 Y136.696 E0.05134
G1 X132.094 Y137.001 E0.03667
G1 X130.131 Y137.268 E0.06214
G1 X128.944 Y137.273 E0.0372
G1 X126.97 Y137.021 E0.0624
G1 X125.823 Y136.718 E0.0372
G1 X123.981 Y135.964 E0.0624
G1 X122.952 Y135.375 E0.0372
G1 X121.368 Y134.17 E0.0624
G1 X120.526 Y133.334 E0.0372
G1 X119.308 Y131.76 E0.0624
G1 X118.71 Y130.735 E0.0372
G1 X117.942 Y128.9 E0.0624
G1 X117.63 Y127.755 E0.0372
G1 X117.362 Y125.783 E0.0624
G1 X117.357 Y124.597 E0.0372
G1 X117.539 Y123.171 E0.04508
G1 X116.843 Y122.987 E0.02259
G1 X115.295 Y122.352 E0.05244
G1 X114.967 Y122.202 E0.01133
G1 X113.267 Y121.341 E0.05974
G1 X113.169 Y121.308 E0.00323
G1 X113.109 Y121.302 E0.0019
G1 X113.048 Y121.308 E0.0019
G1 X112.951 Y121.341 E0.00321
G1 X111.266 Y122.195 E0.05923
G1 X110.954 Y122.338 E0.01079
G1 X109.441 Y122.965 E0.05134
G1 X108.312 Y123.271 E0.03667
G1 X106.348 Y123.537 E0.06214
G1 X105.162 Y123.542 E0.0372
G1 X103.188 Y123.29 E0.0624
G1 X102.041 Y122.988 E0.0372
G1 X100.199 Y122.233 E0.0624
G1 X99.169 Y121.644 E0.0372
G1 X97.586 Y120.439 E0.0624
G1 X96.743 Y119.604 E0.0372
G1 X95.526 Y118.03 E0.0624
G1 X94.928 Y117.005 E0.0372
G1 X94.159 Y115.169 E0.0624
G1 X93.848 Y114.024 E0.0372
G1 X93.58 Y112.052 E0.0624
G1 X93.575 Y110.866 E0.0372
G1 X93.827 Y108.892 E0.0624
G1 X94.13 Y107.745 E0.0372
G1 X94.884 Y105.903 E0.0624
G1 X95.473 Y104.873 E0.0372
G1 X96.679 Y103.289 E0.06243
G1 X97.516 Y102.446 E0.03726
G1 X98.839 Y101.423 E0.05244
G1 X99.133 Y101.213 E0.01133
G1 X100.729 Y100.172 E0.05974
G1 X100.806 Y100.104 E0.00323
G1 X100.842 Y100.054 E0.0019
G1 X100.867 Y99.999 E0.00191
G1 X100.887 Y99.899 E0.00321
G1 X100.99 Y98.012 E0.05923
G1 X101.022 Y97.67 E0.01079
G1 X101.235 Y96.046 E0.05134
G1 X101.535 Y94.916 E0.03667
G1 X102.286 Y93.082 E0.06214
G1 X102.875 Y92.052 E0.0372
G1 X104.023 Y90.544 E0.05941
M204 P1500
G1 X104.173 Y90.658 F10800
M204 P1000
G1 X104.323 Y90.773
G1 F1200
G1 X104.365 Y90.717 E0.00221
G1 X105.166 Y89.909 E0.03565
G1 X106.701 Y88.722 E0.06085
G1 X107.683 Y88.149 E0.03565
G1 X109.481 Y87.396 E0.06112
G1 X110.596 Y87.095 E0.03619
G1 X112.553 Y86.837 E0.06189
G1 X113.69 Y86.837 E0.03565
G1 X114.64 Y86.963 E0.03004
G1 X115.581 Y87.086 E0.02977
G1 X116.663 Y87.374 E0.0351
G1 X118.451 Y88.106 E0.06058
G1 X119.437 Y88.671 E0.03565
G1 X120.825 Y89.727 E0.05467
G1 X121.548 Y88.998 E0.03218
G1 X122.846 Y87.995 E0.05143
G1 X123.128 Y87.794 E0.01086
G1 X124.74 Y86.742 E0.06035
G1 X124.87 Y86.628 E0.00542
G1 X124.952 Y86.513 E0.00444
G1 X125.01 Y86.384 E0.00444
G1 X125.044 Y86.215 E0.0054
G1 X125.148 Y84.309 E0.05985
G1 X125.179 Y83.981 E0.01034
G1 X125.388 Y82.389 E0.05035
G1 X125.675 Y81.306 E0.03514
G1 X126.408 Y79.517 E0.0606
G1 X126.972 Y78.53 E0.03565
G1 X128.148 Y76.986 E0.06085
G1 X128.948 Y76.179 E0.03565
G1 X130.483 Y74.991 E0.06085
G1 X131.465 Y74.419 E0.03565
G1 X133.264 Y73.666 E0.06112
G1 X134.378 Y73.365 E0.03619
G1 X136.335 Y73.107 E0.06189
G1 X137.472 Y73.107 E0.03565
G1 X138.422 Y73.232 E0.03004
G1 X139.363 Y73.356 E0.02977
G1 X140.445 Y73.643 E0.0351
G1 X142.233 Y74.376 E0.06058
G1 X143.22 Y74.94 E0.03565
G1 X144.764 Y76.115 E0.06085
G1 X145.571 Y76.916 E0.03565
G1 X146.759 Y78.451 E0.06085
G1 X147.331 Y79.433 E0.03565
G1 X148.081 Y81.224 E0.06088
G1 X148.38 Y82.323 E0.0357
G1 X148.6 Y83.948 E0.05143
G1 X148.633 Y84.293 E0.01086
G1 X148.738 Y86.215 E0.06035
G1 X148.772 Y86.384 E0.00542
G1 X148.83 Y86.513 E0.00444
G1 X148.913 Y86.628 E0.00444
G1 X149.042 Y86.742 E0.0054
G1 X150.641 Y87.785 E0.05985
G1 X150.91 Y87.976 E0.01034
G1 X152.184 Y88.953 E0.05035
G1 X152.978 Y89.744 E0.03514
G1 X154.161 Y91.272 E0.0606
G1 X154.733 Y92.254 E0.03565
G1 X155.483 Y94.044 E0.06085
G1 X155.782 Y95.141 E0.03565
G1 X156.043 Y97.064 E0.06085
G1 X156.048 Y98.201 E0.03565
G1 X155.802 Y100.126 E0.06085
G1 X155.512 Y101.226 E0.03565
G1 X154.777 Y103.022 E0.06085
G1 X154.212 Y104.008 E0.03565
G1 X153.037 Y105.553 E0.06085
G1 X152.236 Y106.36 E0.03565
G1 X150.701 Y107.548 E0.06085
G1 X149.719 Y108.12 E0.03565
G1 X148.111 Y108.794 E0.05467
G1 X148.38 Y109.784 E0.03218
G1 X148.6 Y111.41 E0.05143
G1 X148.633 Y111.754 E0.01086
G1 X148.738 Y113.676 E0.06035
G1 X148.772 Y113.846 E0.00542
G1 X148.83 Y113.975 E0.00444
G1 X148.913 Y114.089 E0.00444
G1 X149.042 Y114.203 E0.0054
G1 X150.641 Y115.246 E0.05985
G1 X150.91 Y115.437 E0.01034
G1 X152.184 Y116.414 E0.05035
G1 X152.978 Y117.205 E0.03514
G1 X154.161 Y118.733 E0.0606
G1 X154.733 Y119.716 E0.03565
G1 X155.483 Y121.506 E0.06085
G1 X155.782 Y122.603 E0.03565
G1 X156.043 Y124.526 E0.06085
G1 X156.048 Y125.663 E0.03565
G1 X155.802 Y127.588 E0.06085
G1 X155.512 Y128.687 E0.03565
G1 X154.777 Y130.483 E0.06085
G1 X154.212 Y131.47 E0.03565
G1 X153.037 Y133.014 E0.06085
G1 X152.236 Y133.821 E0.03565
G1 X150.701 Y135.009 E0.06085
G1 X149.719 Y135.581 E0.03565
G1 X147.929 Y136.331 E0.06085
G1 X146.832 Y136.63 E0.03565
G1 X144.909 Y136.891 E0.06085
G1 X143.772 Y136.895 E0.03565
G1 X141.846 Y136.65 E0.06088
G1 X140.745 Y136.359 E0.0357
G1 X139.227 Y135.737 E0.05143
G1 X138.912 Y135.593 E0.01086
G1 X137.196 Y134.723 E0.06035
G1 X137.032 Y134.667 E0.00542
G1 X136.891 Y134.653 E0.00444
G1 X136.75 Y134.667 E0.00444
G1 X136.587 Y134.723 E0.0054
G1 X134.884 Y135.586 E0.05985
G1 X134.585 Y135.723 E0.01034
G1 X133.101 Y136.338 E0.05035
G1 X132.019 Y136.631 E0.03514
G1 X130.104 Y136.891 E0.0606
G1 X128.967 Y136.895 E0.03565
G1 X127.042 Y136.65 E0.06085
G1 X125.943 Y136.36 E0.03565
G1 X124.147 Y135.624 E0.06085
G1 X123.16 Y135.06 E0.03565
G1 X121.616 Y133.885 E0.06085
G1 X120.809 Y133.084 E0.03565
G1 X119.621 Y131.549 E0.06085
G1 X119.049 Y130.567 E0.03565
M73 Q2 S31
G1 X118.299 Y128.777 E0.06085
M73 P2 R31
G1 X118. Y127.68 E0.03565
G1 X117.739 Y125.757 E0.06085
G1 X117.735 Y124.62 E0.03565
G1 X117.955 Y122.89 E0.05467
G1 X116.963 Y122.628 E0.03218
G1 X115.445 Y122.006 E0.05143
G1 X115.13 Y121.862 E0.01086
G1 X113.413 Y120.992 E0.06035
G1 X113.25 Y120.937 E0.00542
