; generated by SuperSlicer 2.3.57 on 2022-03-18 at 20:40:02 UTC

; 

; external perimeters extrusion width = 0.45mm
; perimeters extrusion width = 0.45mm
; infill extrusion width = 0.45mm
; solid infill extrusion width = 0.45mm
; top infill extrusion width = 0.40mm
; support material extrusion width = 0.35mm
; first layer extrusion width = 0.42mm

; object:{"name":"Black - Control Cover","id":"Black - Control Cover.stl id:0 copy 0","object_center":[125.000000,105.000000,0.000000],"boundingbox_center":[125.000000,105.000000,8.424999],"boundingbox_size":[113.739998,25.117512,16.849998]}
; Total objects to print: 1
M486 T1
; plater:{"center":[125.000000,105.000000,0.000000],"boundingbox_center":[125.000000,105.000000,8.424999],"boundingbox_size":[113.739998,25.117512,16.849998]}

M73 P0 R103
M73 Q0 S105
;TYPE:Custom
M862.3 P "MK3S" ; printer model check
M862.1 P0.4 ; nozzle diameter check
M115 U3.10.0 ; tell printer latest fw version
G90 ; use absolute coordinates
M83 ; extruder relative mode
M104 S255 ; set extruder temp
M140 S100 ; set bed temp
M190 S100 ; wait for bed temp
M109 S255 ; wait for extruder temp
G28 W ; home all without mesh bed level
G80 ; mesh bed leveling
G1 Y-3.0 F1000.0 ; go outside print area
G92 E0.0
G1 X60.0 E9.0 F1000.0 ; intro line
G1 X100.0 E12.5 F1000.0 ; intro line
G92 E0.0
M221 S95

; Don't change E values below. Excessive value can damage the printer.
M907 E430 ; set extruder motor current
M107
G21 ; set units to millimeters
G90 ; use absolute coordinates
M83 ; use relative distances for extrusion
M900 K0.04 ; Filament gcode LA 1.5
M900 K20 ; Filament gcode LA 1.0
M107
;LAYER_CHANGE
;Z:0.2
;HEIGHT:0.2
;BEFORE_LAYER_CHANGE
G92 E0.0
;0.2


G1 E-0.8 F2100
G1 Z0.4 F10800
;AFTER_LAYER_CHANGE
;0.2
G1 Z0.6
M204 P1500
G1 X60.463 Y80.514
G1 Z0.2
G1 E0.8 F2100
;TYPE:Skirt
;WIDTH:0.42
G1 F1200
G1 X62.007 Y79.483 E0.05822
G1 X63.792 Y78.743 E0.06058
G1 X65.613 Y78.381 E0.05822
G1 X80.04 Y78.381 E0.45235
G1 X81.862 Y78.743 E0.05822
G1 X83.647 Y79.483 E0.06058
G1 X85.191 Y80.514 E0.05822
G1 X86.667 Y81.991 E0.06548
G1 X87.364 Y83.033 E0.0393
G1 X162.636 Y83.033 E2.36013
G1 X163.333 Y81.991 E0.0393
G1 X164.809 Y80.514 E0.06547
G1 X166.353 Y79.483 E0.05822
G1 X168.138 Y78.743 E0.06058
G1 X169.96 Y78.381 E0.05822
G1 X184.386 Y78.381 E0.45235
G1 X186.208 Y78.743 E0.05822
G1 X187.993 Y79.483 E0.06058
G1 X189.537 Y80.514 E0.05822
G1 X191.013 Y81.991 E0.06548
G1 X191.651 Y82.945 E0.03599
G1 X193.004 Y84.298 E0.05998
G1 X194.035 Y85.842 E0.05822
G1 X194.775 Y87.627 E0.06058
G1 X195.137 Y89.448 E0.05822
G1 X195.137 Y121.623 E1.00883
G1 X193.702 Y125.088 E0.11759
G1 X190.939 Y127.85 E0.12248
G1 X190.812 Y127.903 E0.00432
G1 X190.741 Y128.009 E0.004
G1 X189.265 Y129.486 E0.06548
G1 X187.721 Y130.518 E0.05822
G1 X185.936 Y131.257 E0.06058
G1 X184.114 Y131.619 E0.05822
G1 X176.747 Y131.619 E0.231
G1 X174.485 Y131.619 E0.07094
G1 X168.451 Y131.619 E0.18917
G1 X168.318 Y131.593 E0.00426
G1 X166.599 Y131.593 E0.05389
G1 X163.135 Y130.157 E0.11759
G1 X160.372 Y127.395 E0.12248
G1 X160.198 Y126.974 E0.01428
G1 X140.395 Y126.974 E0.62092
G1 X139.607 Y126.908 E0.02479
G1 X137.669 Y126.58 E0.0616
G1 X136.387 Y126.169 E0.04224
G1 X134.338 Y125.172 E0.07145
G1 X133.296 Y124.481 E0.0392
G1 X131.578 Y122.981 E0.0715
G1 X130.696 Y121.954 E0.04246
G1 X129.627 Y120.272 E0.06248
G1 X129.25 Y119.546 E0.02563
G1 X125.436 Y110.343 E0.31235
G1 X125.356 Y110.238 E0.00414
G1 X125.252 Y110.159 E0.00412
G1 X125.13 Y110.108 E0.00412
G1 X125 Y110.091 E0.00412
G1 X124.87 Y110.108 E0.00412
G1 X124.748 Y110.159 E0.00412
G1 X124.644 Y110.238 E0.00412
G1 X124.564 Y110.343 E0.00412
G1 X120.763 Y119.519 E0.31142
G1 X120.401 Y120.221 E0.02479
G1 X119.356 Y121.886 E0.0616
G1 X118.486 Y122.913 E0.04224
G1 X116.78 Y124.425 E0.07145
G1 X115.743 Y125.123 E0.0392
G1 X113.7 Y126.136 E0.0715
G1 X112.413 Y126.558 E0.04246
G1 X110.45 Y126.902 E0.06249
G1 X109.636 Y126.973 E0.02564
G1 X87.54 Y126.974 E0.6928
G1 X87.365 Y127.395 E0.01428
G1 X84.603 Y130.157 E0.12248
G1 X81.138 Y131.593 E0.11759
G1 X79.419 Y131.593 E0.05389
G1 X79.286 Y131.619 E0.00426
G1 X65.886 Y131.619 E0.42017
G1 X64.064 Y131.257 E0.05822
G1 X62.279 Y130.517 E0.06057
G1 X60.736 Y129.486 E0.05822
G1 X59.259 Y128.009 E0.06548
G1 X59.188 Y127.903 E0.004
G1 X59.061 Y127.85 E0.00432
G1 X56.298 Y125.088 E0.12248
G1 X54.863 Y121.623 E0.11759
G1 X54.863 Y89.448 E1.00883
G1 X55.225 Y87.627 E0.05822
G1 X55.965 Y85.842 E0.06057
G1 X56.996 Y84.298 E0.05822
G1 X58.349 Y82.945 E0.05998
G1 X58.987 Y81.991 E0.03599
G1 X60.421 Y80.557 E0.06359
G1 X60.554 Y80.69 F10800
M204 P1000
G1 X60.688 Y80.823
G1 F1200
G1 X60.704 Y80.807 E0.00072
G1 X62.186 Y79.817 E0.05589
G1 X63.902 Y79.106 E0.05825
G1 X65.651 Y78.758 E0.0559
G1 X80.003 Y78.758 E0.45002
G1 X81.752 Y79.106 E0.05589
G1 X83.468 Y79.817 E0.05825
G1 X84.95 Y80.807 E0.0559
G1 X86.374 Y82.231 E0.06315
G1 X87.162 Y83.41 E0.04445
G1 X162.838 Y83.41 E2.37277
G1 X163.626 Y82.231 E0.04446
G1 X165.05 Y80.807 E0.06315
G1 X166.532 Y79.817 E0.05589
G1 X168.248 Y79.106 E0.05825
G1 X169.997 Y78.758 E0.0559
G1 X184.349 Y78.758 E0.45002
G1 X186.098 Y79.106 E0.05589
G1 X187.814 Y79.817 E0.05825
G1 X189.296 Y80.807 E0.0559
G1 X190.72 Y82.231 E0.06315
G1 X191.358 Y83.186 E0.03599
G1 X192.711 Y84.538 E0.05998
G1 X193.701 Y86.02 E0.05589
G1 X194.412 Y87.737 E0.05825
G1 X194.76 Y89.485 E0.0559
G1 X194.76 Y121.548 E1.00532
G1 X193.382 Y124.874 E0.11288
G1 X190.726 Y127.531 E0.11778
G1 X190.562 Y127.599 E0.00556
G1 X190.448 Y127.769 E0.00642
G1 X189.024 Y129.193 E0.06315
G1 X187.542 Y130.183 E0.0559
G1 X185.826 Y130.894 E0.05825
G1 X184.077 Y131.242 E0.05589
G1 X176.784 Y131.242 E0.22867
G1 X174.522 Y131.242 E0.07094
G1 X168.488 Y131.242 E0.18917
G1 X168.355 Y131.216 E0.00426
G1 X166.674 Y131.216 E0.0527
G1 X163.348 Y129.838 E0.11288
G1 X160.692 Y127.182 E0.11778
G1 X160.45 Y126.597 E0.01983
G1 X140.41 Y126.597 E0.62832
G1 X139.654 Y126.534 E0.0238
G1 X137.759 Y126.213 E0.06026
G1 X136.528 Y125.818 E0.04055
G1 X134.525 Y124.844 E0.06982
G1 X133.525 Y124.18 E0.03764
G1 X131.846 Y122.715 E0.06986
G1 X130.999 Y121.728 E0.04077
G1 X129.954 Y120.083 E0.06112
G1 X129.592 Y119.387 E0.0246
G1 X125.766 Y110.153 E0.3134
G1 X125.625 Y109.97 E0.00725
G1 X125.442 Y109.829 E0.00723
G1 X125.229 Y109.741 E0.00723
G1 X125 Y109.711 E0.00723
G1 X124.771 Y109.741 E0.00723
G1 X124.558 Y109.829 E0.00723
G1 X124.375 Y109.97 E0.00723
G1 X124.235 Y110.153 E0.00723
G1 X120.421 Y119.36 E0.31248
G1 X120.073 Y120.034 E0.0238
G1 X119.051 Y121.662 E0.06026
G1 X118.215 Y122.649 E0.04055
G1 X116.549 Y124.126 E0.06982
G1 X115.553 Y124.797 E0.03764
G1 X113.557 Y125.786 E0.06986
G1 X112.321 Y126.191 E0.04077
G1 X110.401 Y126.528 E0.06113
G1 X109.619 Y126.596 E0.02461
G1 X87.288 Y126.597 E0.70019
M73 Q0 S104
G1 X87.046 Y127.182 E0.01983
G1 X84.389 Y129.838 E0.11778
G1 X81.063 Y131.216 E0.11288
G1 X79.382 Y131.216 E0.0527
G1 X79.249 Y131.242 E0.00426
G1 X65.923 Y131.242 E0.41784
M73 P0 R102
G1 X64.174 Y130.894 E0.05589
G1 X62.458 Y130.183 E0.05825
G1 X60.976 Y129.193 E0.05589
G1 X59.552 Y127.769 E0.06315
G1 X59.438 Y127.599 E0.00642
G1 X59.274 Y127.531 E0.00556
G1 X56.618 Y124.874 E0.11778
G1 X55.24 Y121.548 E0.11288
G1 X55.24 Y89.485 E1.00532
G1 X55.588 Y87.737 E0.05589
G1 X56.299 Y86.02 E0.05825
G1 X57.289 Y84.538 E0.05589
G1 X58.642 Y83.186 E0.05998
G1 X59.28 Y82.231 E0.03599
G1 X60.645 Y80.866 E0.06055
M204 P1500
G1 X60.778 Y80.999 F10800
M204 P1000
G1 X60.912 Y81.132
G1 F1200
G1 X60.944 Y81.1 E0.00143
G1 X62.365 Y80.151 E0.05356
G1 X64.012 Y79.468 E0.05592
G1 X65.688 Y79.135 E0.05357
G1 X79.966 Y79.135 E0.44769
G1 X81.642 Y79.468 E0.05357
G1 X83.289 Y80.151 E0.05592
G1 X84.71 Y81.1 E0.05357
G1 X86.081 Y82.472 E0.06082
G1 X86.96 Y83.787 E0.04961
G1 X163.04 Y83.787 E2.38541
G1 X163.919 Y82.471 E0.04961
G1 X165.29 Y81.1 E0.06082
G1 X166.711 Y80.151 E0.05356
G1 X168.358 Y79.468 E0.05592
G1 X170.034 Y79.135 E0.05357
G1 X184.312 Y79.135 E0.44769
G1 X185.988 Y79.468 E0.05357
G1 X187.635 Y80.151 E0.05592
G1 X189.056 Y81.1 E0.05357
G1 X190.427 Y82.472 E0.06082
G1 X191.065 Y83.426 E0.03599
G1 X192.418 Y84.779 E0.05998
G1 X193.367 Y86.199 E0.05356
G1 X194.049 Y87.847 E0.05592
G1 X194.383 Y89.522 E0.05357
G1 X194.383 Y121.473 E1.0018
G1 X193.062 Y124.661 E0.10818
G1 X190.512 Y127.211 E0.11308
G1 X190.312 Y127.294 E0.00679
G1 X190.155 Y127.528 E0.00884
G1 X188.784 Y128.9 E0.06082
G1 X187.363 Y129.849 E0.05357
G1 X185.716 Y130.532 E0.05592
G1 X184.04 Y130.865 E0.05356
G1 X176.821 Y130.865 E0.22634
G1 X174.559 Y130.865 E0.07094
G1 X168.526 Y130.865 E0.18917
G1 X168.392 Y130.838 E0.00426
G1 X166.749 Y130.838 E0.05151
G1 X163.562 Y129.518 E0.10818
G1 X161.012 Y126.968 E0.11308
G1 X160.702 Y126.22 E0.02538
G1 X140.426 Y126.22 E0.63573
G1 X139.701 Y126.159 E0.02281
G1 X137.848 Y125.846 E0.05892
G1 X136.668 Y125.467 E0.03886
G1 X134.713 Y124.516 E0.06819
G1 X133.754 Y123.88 E0.03607
G1 X132.115 Y122.449 E0.06823
G1 X131.303 Y121.503 E0.03907
G1 X130.281 Y119.895 E0.05976
G1 X129.934 Y119.228 E0.02358
G1 X126.095 Y109.963 E0.31444
G1 X125.894 Y109.701 E0.01036
G1 X125.632 Y109.5 E0.01035
G1 X125.327 Y109.374 E0.01035
G1 X125 Y109.33 E0.01035
G1 X124.673 Y109.374 E0.01035
G1 X124.368 Y109.5 E0.01035
G1 X124.106 Y109.701 E0.01035
G1 X123.905 Y109.962 E0.01035
G1 X120.079 Y119.201 E0.31354
G1 X119.745 Y119.847 E0.02281
G1 X118.746 Y121.439 E0.05892
G1 X117.945 Y122.385 E0.03886
G1 X116.317 Y123.827 E0.06819
G1 X115.363 Y124.47 E0.03607
G1 X113.414 Y125.436 E0.06823
G1 X112.23 Y125.825 E0.03907
G1 X110.352 Y126.154 E0.05976
G1 X109.603 Y126.219 E0.02359
G1 X87.192 Y126.22 E0.70269
G1 X87.048 Y126.192 E0.0046
G1 X86.726 Y126.968 E0.02635
G1 X84.176 Y129.518 E0.11308
G1 X80.988 Y130.838 E0.10818
M73 P1 R102
G1 X79.345 Y130.838 E0.05152
G1 X79.212 Y130.865 E0.00426
G1 X65.96 Y130.865 E0.41551
G1 X64.284 Y130.532 E0.05357
G1 X62.637 Y129.849 E0.05592
M73 Q1 S104
G1 X61.216 Y128.9 E0.05356
G1 X59.845 Y127.529 E0.06082
G1 X59.688 Y127.294 E0.00885
G1 X59.488 Y127.211 E0.00679
G1 X56.938 Y124.661 E0.11308
G1 X55.617 Y121.473 E0.10818
G1 X55.617 Y89.522 E1.0018
G1 X55.951 Y87.847 E0.05357
G1 X56.633 Y86.199 E0.05592
G1 X57.582 Y84.779 E0.05356
G1 X58.935 Y83.426 E0.05998
G1 X59.573 Y82.471 E0.03599
G1 X60.869 Y81.175 E0.0575
M204 P1500
G1 X61.003 Y81.308 F10800
M204 P1000
G1 X61.136 Y81.441
G1 F1200
G1 X61.184 Y81.393 E0.00215
G1 X62.543 Y80.485 E0.05124
G1 X64.122 Y79.831 E0.05359
G1 X65.725 Y79.512 E0.05124
G1 X79.929 Y79.512 E0.44536
G1 X81.532 Y79.831 E0.05124
G1 X83.111 Y80.485 E0.05359
G1 X84.47 Y81.393 E0.05124
G1 X85.789 Y82.712 E0.05849
G1 X86.696 Y84.071 E0.05124
G1 X86.735 Y84.164 E0.00318
G1 X163.265 Y84.164 E2.39954
G1 X163.304 Y84.071 E0.00318
G1 X164.212 Y82.712 E0.05124
G1 X165.531 Y81.393 E0.05849
G1 X166.889 Y80.485 E0.05124
G1 X168.468 Y79.831 E0.05359
G1 X170.071 Y79.512 E0.05124
G1 X184.275 Y79.512 E0.44536
G1 X185.878 Y79.831 E0.05124
G1 X187.457 Y80.485 E0.05359
G1 X188.816 Y81.393 E0.05124
G1 X190.135 Y82.712 E0.05849
G1 X190.786 Y83.686 E0.03675
G1 X190.806 Y83.7 E0.00076
G1 X192.125 Y85.019 E0.05849
G1 X193.033 Y86.378 E0.05124
G1 X193.687 Y87.957 E0.05359
G1 X194.006 Y89.559 E0.05124
G1 X194.006 Y121.398 E0.99828
G1 X192.743 Y124.447 E0.10348
G1 X190.299 Y126.891 E0.10837
G1 X190.062 Y126.989 E0.00803
G1 X189.862 Y127.288 E0.01127
G1 X188.543 Y128.607 E0.05849
G1 X187.185 Y129.515 E0.05124
G1 X185.606 Y130.169 E0.05359
G1 X184.003 Y130.488 E0.05124
G1 X176.858 Y130.488 E0.22401
G1 X174.596 Y130.488 E0.07094
G1 X168.563 Y130.488 E0.18917
G1 X168.429 Y130.461 E0.00426
G1 X166.824 Y130.461 E0.05033
G1 X163.775 Y129.198 E0.10348
G1 X161.331 Y126.754 E0.10837
G1 X160.954 Y125.843 E0.03093
G1 X140.442 Y125.843 E0.64313
G1 X139.749 Y125.785 E0.02181
G1 X137.938 Y125.478 E0.05758
G1 X136.809 Y125.116 E0.03717
G1 X134.9 Y124.187 E0.06656
G1 X133.983 Y123.579 E0.0345
G1 X132.383 Y122.182 E0.0666
G1 X131.607 Y121.278 E0.03737
G1 X130.608 Y119.706 E0.0584
G1 X130.276 Y119.068 E0.02255
G1 X126.424 Y109.773 E0.31548
G1 X126.163 Y109.432 E0.01347
G1 X125.822 Y109.17 E0.01346
G1 X125.426 Y109.006 E0.01346
G1 X125 Y108.95 E0.01346
G1 X124.574 Y109.006 E0.01346
G1 X124.178 Y109.17 E0.01346
G1 X123.837 Y109.432 E0.01346
G1 X123.576 Y109.772 E0.01346
G1 X119.736 Y119.042 E0.3146
G1 X119.417 Y119.66 E0.02181
G1 X118.441 Y121.216 E0.05758
G1 X117.675 Y122.12 E0.03717
G1 X116.086 Y123.528 E0.06656
G1 X115.173 Y124.143 E0.0345
G1 X113.27 Y125.087 E0.0666
G1 X112.138 Y125.458 E0.03737
G1 X110.303 Y125.779 E0.0584
G1 X109.586 Y125.842 E0.02256
G1 X87.229 Y125.843 E0.70101
G1 X86.818 Y125.761 E0.01314
G1 X86.406 Y126.754 E0.0337
G1 X83.962 Y129.198 E0.10837
G1 X80.913 Y130.461 E0.10348
G1 X79.308 Y130.461 E0.05033
G1 X79.175 Y130.488 E0.00426
G1 X65.997 Y130.488 E0.41318
G1 X64.394 Y130.169 E0.05124
G1 X62.815 Y129.515 E0.05359
G1 X61.457 Y128.607 E0.05124
G1 X60.138 Y127.288 E0.05849
G1 X59.938 Y126.989 E0.01127
G1 X59.701 Y126.891 E0.00803
G1 X57.257 Y124.447 E0.10837
G1 X55.994 Y121.398 E0.10348
G1 X55.994 Y89.559 E0.99828
G1 X56.313 Y87.957 E0.05124
G1 X56.967 Y86.378 E0.05359
G1 X57.875 Y85.019 E0.05124
G1 X59.194 Y83.7 E0.05849
G1 X59.214 Y83.687 E0.00076
G1 X59.865 Y82.712 E0.03675
G1 X61.094 Y81.484 E0.05446
M204 P1500
G1 X61.227 Y81.617 F10800
M204 P1000
G1 X61.36 Y81.75
G1 F1200
G1 X61.425 Y81.686 E0.00287
G1 X62.722 Y80.819 E0.04891
G1 X64.232 Y80.194 E0.05126
G1 X65.762 Y79.889 E0.04891
G1 X79.892 Y79.889 E0.44303
G1 X81.422 Y80.194 E0.04891
G1 X82.932 Y80.819 E0.05126
G1 X84.229 Y81.686 E0.04891
G1 X85.496 Y82.952 E0.05616
G1 X86.362 Y84.249 E0.04891
G1 X86.483 Y84.541 E0.00991
G1 X163.517 Y84.541 E2.41534
G1 X163.638 Y84.249 E0.00991
G1 X164.504 Y82.952 E0.04891
G1 X165.771 Y81.686 E0.05616
G1 X167.068 Y80.819 E0.04891
G1 X168.578 Y80.194 E0.05126
G1 X170.108 Y79.889 E0.04891
G1 X184.238 Y79.889 E0.44303
G1 X185.768 Y80.194 E0.04891
G1 X187.278 Y80.819 E0.05126
G1 X188.575 Y81.686 E0.04891
G1 X189.842 Y82.952 E0.05616
G1 X190.514 Y83.958 E0.03794
G1 X190.566 Y83.993 E0.00195
G1 X191.832 Y85.259 E0.05616
G1 X192.699 Y86.556 E0.04891
G1 X193.324 Y88.067 E0.05126
G1 X193.629 Y89.597 E0.04891
G1 X193.629 Y121.323 E0.99477
G1 X192.423 Y124.234 E0.09877
G1 X190.085 Y126.572 E0.10367
G1 X189.812 Y126.685 E0.00926
G1 X189.57 Y127.048 E0.01369
G1 X188.303 Y128.314 E0.05616
G1 X187.006 Y129.181 E0.04891
G1 X185.496 Y129.806 E0.05126
G1 X183.966 Y130.111 E0.04891
G1 X176.896 Y130.111 E0.22168
G1 X174.633 Y130.111 E0.07094
G1 X168.6 Y130.111 E0.18917
G1 X168.467 Y130.084 E0.00426
G1 X166.899 Y130.084 E0.04914
G1 X163.989 Y128.879 E0.09877
G1 X161.651 Y126.541 E0.10367
G1 X161.206 Y125.466 E0.03648
G1 X140.458 Y125.466 E0.65054
G1 X139.796 Y125.41 E0.02082
G1 X138.027 Y125.111 E0.05624
G1 X136.95 Y124.766 E0.03548
G1 X135.088 Y123.859 E0.06494
G1 X134.212 Y123.279 E0.03293
G1 X132.652 Y121.916 E0.06496
G1 X131.91 Y121.053 E0.03567
G1 X130.935 Y119.518 E0.05704
G1 X130.618 Y118.909 E0.02153
G1 X126.754 Y109.582 E0.31653
G1 X126.432 Y109.163 E0.01659
G1 X126.012 Y108.841 E0.01657
G1 X125.524 Y108.639 E0.01657
G1 X125 Y108.57 E0.01657
G1 X124.476 Y108.639 E0.01657
G1 X123.988 Y108.841 E0.01657
G1 X123.568 Y109.163 E0.01657
G1 X123.247 Y109.582 E0.01657
G1 X119.394 Y118.883 E0.31566
G1 X119.089 Y119.473 E0.02082
G1 X118.136 Y120.993 E0.05624
G1 X117.405 Y121.856 E0.03548
G1 X115.855 Y123.23 E0.06494
G1 X114.983 Y123.816 E0.03293
G1 X113.127 Y124.737 E0.06496
G1 X112.046 Y125.091 E0.03567
G1 X110.254 Y125.405 E0.05704
G1 X109.57 Y125.465 E0.02154
G1 X87.266 Y125.466 E0.69933
G1 X86.588 Y125.331 E0.02168
G1 X86.087 Y126.541 E0.04105
G1 X83.749 Y128.879 E0.10367
G1 X80.838 Y130.084 E0.09877
G1 X79.271 Y130.084 E0.04914
G1 X79.138 Y130.111 E0.00426
G1 X66.034 Y130.111 E0.41085
G1 X64.504 Y129.806 E0.04891
G1 X62.994 Y129.181 E0.05126
G1 X61.697 Y128.314 E0.04891
G1 X60.43 Y127.048 E0.05616
G1 X60.188 Y126.685 E0.01369
G1 X59.915 Y126.572 E0.00926
G1 X57.577 Y124.234 E0.10367
G1 X56.371 Y121.323 E0.09877
G1 X56.371 Y89.597 E0.99477
M73 P1 R101
M73 Q1 S103
G1 X56.676 Y88.067 E0.04891
G1 X57.301 Y86.556 E0.05126
