; generated by SuperSlicer 2.3.57 on 2022-03-19 at 13:42:16 UTC

; 

; external perimeters extrusion width = 0.45mm
; perimeters extrusion width = 0.45mm
; infill extrusion width = 0.45mm
; solid infill extrusion width = 0.45mm
; top infill extrusion width = 0.40mm
; first layer extrusion width = 0.42mm

; object:{"name":"Black - Y End Stop Braquete","id":"Black - Y End Stop Braquete.stl id:0 copy 0","object_center":[125.000000,105.000000,0.000000],"boundingbox_center":[125.000000,105.000000,15.914215],"boundingbox_size":[6.000000,55.000000,31.828430]}
; Total objects to print: 1
M486 T1
; plater:{"center":[125.000000,105.000000,0.000000],"boundingbox_center":[125.000000,105.000000,15.914215],"boundingbox_size":[6.000000,55.000000,31.828430]}

M73 P0 R59
M73 Q0 S59
;TYPE:Custom
M862.3 P "MK3S" ; printer model check
M862.1 P0.4 ; nozzle diameter check
M115 U3.10.0 ; tell printer latest fw version
G90 ; use absolute coordinates
M83 ; extruder relative mode
M104 S255 ; set extruder temp
M140 S100 ; set bed temp
M190 S100 ; wait for bed temp
M109 S255 ; wait for extruder temp
G28 W ; home all without mesh bed level
G80 ; mesh bed leveling
G1 Y-3.0 F1000.0 ; go outside print area
G92 E0.0
G1 X60.0 E9.0 F1000.0 ; intro line
G1 X100.0 E12.5 F1000.0 ; intro line
G92 E0.0
M221 S95

; Don't change E values below. Excessive value can damage the printer.
M907 E430 ; set extruder motor current
M107
G21 ; set units to millimeters
G90 ; use absolute coordinates
M83 ; use relative distances for extrusion
M900 K0.04 ; Filament gcode LA 1.5
M900 K20 ; Filament gcode LA 1.0
;LAYER_CHANGE
;Z:0.2
;HEIGHT:0.2
;BEFORE_LAYER_CHANGE
G92 E0.0
;0.2


G1 E-0.8 F2100
G1 Z0.4 F10800
;AFTER_LAYER_CHANGE
;0.2
G1 Z0.6
M204 P1500
G1 X115.618 Y75.25
G1 Z0.2
G1 E0.8 F2100
;TYPE:Skirt
;WIDTH:0.42
G1 F1200
G1 X117.85 Y73.018 E0.09897
G1 X120.622 Y71.87 E0.09407
G1 X129.378 Y71.87 E0.27455
G1 X132.15 Y73.018 E0.09407
G1 X134.382 Y75.25 E0.09897
G1 X135.53 Y78.022 E0.09407
G1 X135.53 Y131.978 E1.69177
G1 X134.382 Y134.75 E0.09407
G1 X132.15 Y136.982 E0.09897
G1 X129.378 Y138.13 E0.09407
G1 X120.622 Y138.13 E0.27455
G1 X117.85 Y136.982 E0.09407
G1 X115.618 Y134.75 E0.09897
G1 X114.47 Y131.978 E0.09407
G1 X114.47 Y78.022 E1.69177
M73 P0 R58
G1 X115.595 Y75.305 E0.09219
G1 X115.766 Y75.384 F10800
M204 P1000
G1 X115.938 Y75.464
G1 F1200
G1 X118.064 Y73.338 E0.09426
G1 X120.697 Y72.247 E0.08937
G1 X129.303 Y72.247 E0.26985
G1 X131.936 Y73.338 E0.08937
G1 X134.062 Y75.464 E0.09426
G1 X135.153 Y78.097 E0.08937
G1 X135.153 Y131.903 E1.68706
G1 X134.062 Y134.536 E0.08937
G1 X131.936 Y136.662 E0.09426
G1 X129.303 Y137.753 E0.08937
G1 X120.697 Y137.753 E0.26985
G1 X118.064 Y136.662 E0.08937
G1 X115.938 Y134.536 E0.09426
G1 X114.847 Y131.903 E0.08937
G1 X114.847 Y78.097 E1.68706
G1 X115.915 Y75.519 E0.08749
M204 P1500
G1 X116.086 Y75.598 F10800
M204 P1000
G1 X116.257 Y75.677
G1 F1200
G1 X118.277 Y73.657 E0.08956
G1 X120.772 Y72.624 E0.08466
G1 X129.228 Y72.624 E0.26515
G1 X131.723 Y73.657 E0.08466
G1 X133.743 Y75.677 E0.08956
G1 X134.776 Y78.172 E0.08466
G1 X134.776 Y131.828 E1.68236
G1 X133.743 Y134.323 E0.08466
G1 X131.723 Y136.343 E0.08956
G1 X129.228 Y137.376 E0.08466
G1 X120.772 Y137.376 E0.26514
G1 X118.277 Y136.343 E0.08466
G1 X116.257 Y134.323 E0.08956
G1 X115.224 Y131.828 E0.08466
G1 X115.224 Y78.172 E1.68236
G1 X116.234 Y75.733 E0.08278
M204 P1500
G1 X116.406 Y75.812 F10800
M204 P1000
G1 X116.577 Y75.891
G1 F1200
G1 X118.491 Y73.977 E0.08486
G1 X120.847 Y73.001 E0.07996
G1 X129.153 Y73.001 E0.26044
G1 X131.509 Y73.977 E0.07996
G1 X133.423 Y75.891 E0.08486
G1 X134.399 Y78.247 E0.07996
G1 X134.399 Y131.753 E1.67766
G1 X133.423 Y134.109 E0.07996
G1 X131.509 Y136.023 E0.08486
G1 X129.153 Y136.999 E0.07996
M73 P1 R58
G1 X120.847 Y136.999 E0.26044
M73 Q1 S59
G1 X118.491 Y136.023 E0.07996
G1 X116.577 Y134.109 E0.08486
G1 X115.601 Y131.753 E0.07996
G1 X115.601 Y78.247 E1.67766
G1 X116.554 Y75.946 E0.07808
M204 P1500
G1 X116.725 Y76.025 F10800
M204 P1000
G1 X116.897 Y76.104
G1 F1200
G1 X118.704 Y74.297 E0.08015
G1 X120.922 Y73.378 E0.07526
G1 X129.078 Y73.378 E0.25574
G1 X131.296 Y74.297 E0.07526
G1 X133.103 Y76.104 E0.08015
G1 X134.022 Y78.322 E0.07526
G1 X134.022 Y131.678 E1.67295
G1 X133.103 Y133.896 E0.07526
G1 X131.296 Y135.703 E0.08015
G1 X129.078 Y136.622 E0.07526
G1 X120.922 Y136.622 E0.25574
G1 X118.704 Y135.703 E0.07526
G1 X116.897 Y133.896 E0.08015
G1 X115.978 Y131.678 E0.07526
G1 X115.978 Y78.322 E1.67295
G1 X116.874 Y76.16 E0.07337
M204 P1500
G1 X117.045 Y76.239 F10800
M204 P1000
G1 X117.216 Y76.318
G1 F1200
G1 X118.918 Y74.616 E0.07545
G1 X120.997 Y73.755 E0.07055
G1 X129.003 Y73.755 E0.25103
G1 X131.082 Y74.616 E0.07055
G1 X132.784 Y76.318 E0.07545
G1 X133.645 Y78.397 E0.07055
G1 X133.645 Y131.603 E1.66825
G1 X132.784 Y133.682 E0.07055
G1 X131.082 Y135.384 E0.07545
G1 X129.003 Y136.245 E0.07055
G1 X120.997 Y136.245 E0.25103
G1 X118.918 Y135.384 E0.07055
G1 X117.216 Y133.682 E0.07545
G1 X116.355 Y131.603 E0.07055
G1 X116.355 Y78.397 E1.66825
G1 X117.193 Y76.373 E0.06867
M204 P1500
G1 X117.365 Y76.452 F10800
M204 P1000
G1 X117.536 Y76.532
G1 F1200
G1 X119.132 Y74.936 E0.07075
G1 X121.072 Y74.132 E0.06585
G1 X128.928 Y74.132 E0.24633
G1 X130.868 Y74.936 E0.06585
G1 X132.464 Y76.532 E0.07075
G1 X133.268 Y78.472 E0.06585
G1 X133.268 Y131.528 E1.66355
M73 Q1 S58
G1 X132.464 Y133.468 E0.06585
G1 X130.868 Y135.064 E0.07075
G1 X128.928 Y135.868 E0.06585
G1 X121.072 Y135.868 E0.24633
G1 X119.132 Y135.064 E0.06585
G1 X117.536 Y133.468 E0.07075
G1 X116.732 Y131.528 E0.06585
G1 X116.732 Y78.472 E1.66355
G1 X117.513 Y76.587 E0.06397
M204 P1500
G1 X117.684 Y76.666 F10800
M204 P1000
G1 X117.856 Y76.745
G1 F1200
G1 X119.345 Y75.256 E0.06604
G1 X121.147 Y74.509 E0.06115
G1 X128.853 Y74.509 E0.24163
G1 X130.655 Y75.256 E0.06115
G1 X132.144 Y76.745 E0.06604
G1 X132.891 Y78.547 E0.06115
G1 X132.891 Y131.453 E1.65884
G1 X132.144 Y133.255 E0.06115
G1 X130.655 Y134.744 E0.06604
G1 X128.853 Y135.491 E0.06115
G1 X121.147 Y135.491 E0.24163
G1 X119.345 Y134.744 E0.06115
G1 X117.856 Y133.255 E0.06604
G1 X117.109 Y131.453 E0.06115
G1 X117.109 Y78.547 E1.65884
G1 X117.833 Y76.801 E0.05926
M204 P1500
G1 X118.004 Y76.88 F10800
M204 P1000
G1 X118.175 Y76.959
G1 F1200
G1 X119.559 Y75.575 E0.06134
G1 X121.222 Y74.887 E0.05644
G1 X128.778 Y74.887 E0.23692
G1 X130.441 Y75.575 E0.05644
G1 X131.825 Y76.959 E0.06134
G1 X132.513 Y78.622 E0.05644
G1 X132.513 Y131.378 E1.65414
M73 P2 R58
M73 Q2 S58
G1 X131.825 Y133.041 E0.05644
G1 X130.441 Y134.425 E0.06134
G1 X128.778 Y135.113 E0.05644
G1 X121.222 Y135.113 E0.23692
G1 X119.559 Y134.425 E0.05644
G1 X118.175 Y133.041 E0.06134
G1 X117.487 Y131.378 E0.05644
G1 X117.487 Y78.622 E1.65414
M73 P2 R57
G1 X118.152 Y77.014 E0.05456
M204 P1500
G1 X118.324 Y77.093 F10800
M204 P1000
G1 X118.495 Y77.172
G1 F1200
G1 X119.772 Y75.895 E0.05664
G1 X121.297 Y75.264 E0.05174
G1 X128.703 Y75.264 E0.23222
G1 X130.228 Y75.895 E0.05174
G1 X131.505 Y77.172 E0.05664
G1 X132.136 Y78.697 E0.05174
G1 X132.136 Y131.303 E1.64943
G1 X131.505 Y132.828 E0.05174
G1 X130.228 Y134.105 E0.05664
G1 X128.703 Y134.736 E0.05174
G1 X121.297 Y134.736 E0.23222
G1 X119.772 Y134.105 E0.05174
G1 X118.495 Y132.828 E0.05664
G1 X117.864 Y131.303 E0.05174
G1 X117.864 Y78.697 E1.64943
G1 X118.472 Y77.228 E0.04986
M204 P1500
G1 X118.643 Y77.307 F10800
M204 P1000
G1 X118.815 Y77.386
G1 F1200
G1 X119.986 Y76.215 E0.05193
G1 X121.372 Y75.641 E0.04704
G1 X128.628 Y75.641 E0.22752
G1 X130.014 Y76.215 E0.04704
G1 X131.185 Y77.386 E0.05193
G1 X131.759 Y78.772 E0.04703
G1 X131.759 Y131.228 E1.64473
G1 X131.185 Y132.614 E0.04704
G1 X130.014 Y133.785 E0.05193
G1 X128.628 Y134.359 E0.04704
G1 X121.372 Y134.359 E0.22752
G1 X119.986 Y133.785 E0.04703
G1 X118.815 Y132.614 E0.05193
G1 X118.241 Y131.228 E0.04704
G1 X118.241 Y78.772 E1.64473
G1 X118.792 Y77.441 E0.04515
M204 P1500
G1 X118.963 Y77.52 F10800
M204 P1000
G1 X119.134 Y77.6
G1 F1200
G1 X120.2 Y76.534 E0.04723
G1 X121.447 Y76.018 E0.04233
G1 X128.553 Y76.018 E0.22281
G1 X129.8 Y76.534 E0.04233
G1 X130.866 Y77.6 E0.04723
G1 X131.382 Y78.847 E0.04233
G1 X131.382 Y131.153 E1.64003
G1 X130.866 Y132.4 E0.04233
G1 X129.8 Y133.466 E0.04723
G1 X128.553 Y133.982 E0.04233
G1 X121.447 Y133.982 E0.22281
G1 X120.2 Y133.466 E0.04233
G1 X119.134 Y132.4 E0.04723
G1 X118.618 Y131.153 E0.04233
G1 X118.618 Y78.847 E1.64003
G1 X119.111 Y77.655 E0.04045
M204 P1500
G1 X119.283 Y77.734 F10800
M204 P1000
G1 X119.454 Y77.813
G1 F1200
G1 X120.413 Y76.854 E0.04253
G1 X121.522 Y76.395 E0.03763
G1 X128.478 Y76.395 E0.21811
G1 X129.587 Y76.854 E0.03763
G1 X130.546 Y77.813 E0.04253
G1 X131.005 Y78.922 E0.03763
G1 X131.005 Y131.078 E1.63532
G1 X130.546 Y132.187 E0.03763
G1 X129.587 Y133.146 E0.04253
G1 X128.478 Y133.605 E0.03763
G1 X121.522 Y133.605 E0.21811
G1 X120.413 Y133.146 E0.03763
G1 X119.454 Y132.187 E0.04253
G1 X118.995 Y131.078 E0.03763
G1 X118.995 Y78.922 E1.63532
G1 X119.431 Y77.869 E0.03575
M204 P1500
G1 X119.602 Y77.948 F10800
M204 P1000
G1 X119.774 Y78.027
G1 F1200
G1 X120.627 Y77.174 E0.03782
G1 X121.597 Y76.772 E0.03292
G1 X128.403 Y76.772 E0.21341
G1 X129.373 Y77.174 E0.03292
G1 X130.226 Y78.027 E0.03782
G1 X130.628 Y78.997 E0.03292
G1 X130.628 Y131.003 E1.63062
M73 P3 R57
G1 X130.226 Y131.973 E0.03292
G1 X129.373 Y132.826 E0.03782
M73 Q3 S58
G1 X128.403 Y133.228 E0.03292
G1 X121.597 Y133.228 E0.21341
G1 X120.627 Y132.826 E0.03292
G1 X119.774 Y131.973 E0.03782
G1 X119.372 Y131.003 E0.03292
G1 X119.372 Y78.997 E1.63062
G1 X119.751 Y78.082 E0.03104
M204 P1500
G1 X119.922 Y78.161 F10800
M204 P1000
G1 X120.093 Y78.24
G1 F1200
G1 X120.84 Y77.493 E0.03312
G1 X121.672 Y77.149 E0.02822
G1 X128.328 Y77.149 E0.2087
G1 X129.16 Y77.493 E0.02822
G1 X129.907 Y78.24 E0.03312
G1 X130.251 Y79.072 E0.02822
G1 X130.251 Y130.928 E1.62592
G1 X129.907 Y131.76 E0.02822
G1 X129.16 Y132.507 E0.03312
G1 X128.328 Y132.851 E0.02822
G1 X121.672 Y132.851 E0.2087
G1 X120.84 Y132.507 E0.02822
G1 X120.093 Y131.76 E0.03312
G1 X119.749 Y130.928 E0.02822
G1 X119.749 Y79.072 E1.62592
M73 Q3 S57
G1 X120.07 Y78.296 E0.02634
M204 P1500
G1 X120.242 Y78.375 F10800
M204 P1000
G1 X120.413 Y78.454
G1 F1200
G1 X121.054 Y77.813 E0.02841
G1 X121.747 Y77.526 E0.02352
G1 X128.253 Y77.526 E0.204
G1 X128.946 Y77.813 E0.02352
G1 X129.587 Y78.454 E0.02841
G1 X129.874 Y79.147 E0.02352
G1 X129.874 Y130.853 E1.62121
G1 X129.587 Y131.546 E0.02352
G1 X128.946 Y132.187 E0.02841
G1 X128.253 Y132.474 E0.02352
G1 X121.747 Y132.474 E0.204
G1 X121.054 Y132.187 E0.02352
G1 X120.413 Y131.546 E0.02841
G1 X120.126 Y130.853 E0.02352
G1 X120.126 Y79.147 E1.62121
G1 X120.39 Y78.509 E0.02164
M204 P1500
G1 X120.561 Y78.588 F10800
M204 P1000
G1 X120.733 Y78.668
G1 F1200
G1 X121.268 Y78.133 E0.02371
G1 X121.822 Y77.903 E0.01881
G1 X128.178 Y77.903 E0.1993
G1 X128.733 Y78.133 E0.01881
G1 X129.267 Y78.668 E0.02371
G1 X129.497 Y79.222 E0.01881
G1 X129.497 Y130.778 E1.61651
G1 X129.267 Y131.332 E0.01881
G1 X128.732 Y131.867 E0.02371
G1 X128.178 Y132.097 E0.01881
G1 X121.822 Y132.097 E0.1993
G1 X121.268 Y131.867 E0.01881
G1 X120.733 Y131.333 E0.02371
G1 X120.503 Y130.778 E0.01881
G1 X120.503 Y79.222 E1.61651
G1 X120.71 Y78.723 E0.01693
M204 P1500
G1 X120.881 Y78.802 F10800
M204 P1000
G1 X121.052 Y78.881
G1 F1200
G1 X121.481 Y78.452 E0.01901
G1 X121.897 Y78.28 E0.01411
G1 X128.103 Y78.28 E0.19459
G1 X128.519 Y78.452 E0.01411
G1 X128.948 Y78.881 E0.01901
G1 X129.12 Y79.297 E0.01411
G1 X129.12 Y130.703 E1.61181
G1 X128.948 Y131.119 E0.01411
G1 X128.519 Y131.548 E0.01901
G1 X128.103 Y131.72 E0.01411
G1 X121.897 Y131.72 E0.19459
G1 X121.481 Y131.548 E0.01411
G1 X121.052 Y131.119 E0.01901
G1 X120.88 Y130.703 E0.01411
G1 X120.88 Y79.297 E1.61181
M73 P3 R56
G1 X121.029 Y78.937 E0.01223
M204 P1500
G1 X121.201 Y79.016 F10800
M204 P1000
G1 X121.372 Y79.095
G1 F1200
G1 X121.695 Y78.772 E0.0143
G1 X121.972 Y78.657 E0.00941
G1 X128.028 Y78.657 E0.18989
G1 X128.305 Y78.772 E0.00941
G1 X128.628 Y79.095 E0.0143
G1 X128.743 Y79.372 E0.00941
G1 X128.743 Y130.628 E1.6071
G1 X128.628 Y130.905 E0.00941
G1 X128.305 Y131.228 E0.0143
G1 X128.028 Y131.343 E0.00941
G1 X121.972 Y131.343 E0.18989
G1 X121.695 Y131.228 E0.00941
G1 X121.372 Y130.905 E0.0143
G1 X121.257 Y130.628 E0.00941
G1 X121.257 Y79.372 E1.6071
M73 P4 R56
G1 X121.349 Y79.15 E0.00753
M204 P1500
G1 X121.52 Y79.229 F10800
M204 P1000
G1 X121.692 Y79.308
G1 F1200
G1 X121.908 Y79.092 E0.0096
G1 X122.047 Y79.034 E0.0047
G1 X127.953 Y79.034 E0.18519
G1 X128.092 Y79.092 E0.0047
G1 X128.308 Y79.308 E0.0096
G1 X128.366 Y79.447 E0.0047
G1 X128.366 Y130.553 E1.6024
M73 Q4 S57
G1 X128.308 Y130.692 E0.0047
G1 X128.092 Y130.908 E0.0096
G1 X127.953 Y130.966 E0.0047
G1 X122.047 Y130.966 E0.18519
G1 X121.908 Y130.908 E0.0047
G1 X121.692 Y130.692 E0.0096
G1 X121.634 Y130.553 E0.0047
G1 X121.634 Y79.447 E1.6024
G1 X121.669 Y79.364 E0.00282
M204 P1500
G1 X121.84 Y79.443 F10800
M204 P1000
G1 X122.011 Y79.522
G1 F1200
G1 X122.122 Y79.411 E0.0049
G1 X127.878 Y79.411 E0.18048
G1 X127.989 Y79.522 E0.0049
G1 X127.989 Y130.478 E1.5977
G1 X127.878 Y130.589 E0.0049
G1 X122.122 Y130.589 E0.18048
G1 X122.011 Y130.478 E0.0049
G1 X122.011 Y79.582 E1.59581
; INIT printing object Black - Y End Stop Braquete.stl id:0 copy 0
; printing object Black - Y End Stop Braquete.stl id:0 copy 0
M486 S0
M204 P1500
G1 X122.399 Y79.884 F10800
M204 P1000
G1 X122.787 Y80.187
;TYPE:Internal perimeter
G1 F1200
G1 X127.213 Y80.187 E0.13877
G1 X127.213 Y129.813 E1.55598
G1 X122.787 Y129.813 E0.13877
G1 X122.787 Y80.247 E1.5541
M204 P1500
G1 X122.599 Y80.247 F10800
M204 P1000
G1 X122.41 Y80.247
;TYPE:External perimeter
G1 F1200
G1 X122.41 Y79.81 E0.0137
G1 X127.59 Y79.81 E0.16242
G1 X127.59 Y130.19 E1.57963
G1 X122.41 Y130.19 E0.16242
G1 X122.41 Y80.307 E1.56404
G1 X122.756 Y80.047 F10800
;WIPE_START
G1 F8640
G1 X122.41 Y79.81 E-0.11478
G1 X125.204 Y79.81 E-0.64522
;WIPE_END
G1 E-0.04 F2100
G1 Z0.6 F10800
M204 P1500
G1 X124.374 Y80.304
M204 P1000
G1 X126.338 Y80.3
G1 Z0.2
G1 E0.8 F2100
;TYPE:Solid infill
;WIDTH:0.421545
G1 F1200
G1 X126.938 Y80.9 E0.02671
G1 X126.938 Y81.434 E0.01678
G1 X125.966 Y80.462 E0.04323
G1 X125.433 Y80.462 E0.01678
G1 X126.938 Y81.967 E0.06696
G1 X126.938 Y82.5 E0.01678
G1 X124.9 Y80.462 E0.09069
G1 X124.367 Y80.462 E0.01678
G1 X126.938 Y83.033 E0.11442
G1 X126.938 Y83.567 E0.01678
G1 X123.833 Y80.462 E0.13816
G1 X123.3 Y80.462 E0.01678
G1 X126.938 Y84.1 E0.16189
G1 X126.938 Y84.633 E0.01678
G1 X123.062 Y80.758 E0.17247
G1 X123.062 Y81.291 E0.01678
G1 X126.938 Y85.166 E0.17247
G1 X126.938 Y85.7 E0.01678
G1 X123.062 Y81.824 E0.17247
G1 X123.062 Y82.358 E0.01678
G1 X126.938 Y86.233 E0.17247
G1 X126.938 Y86.766 E0.01678
G1 X123.062 Y82.891 E0.17247
G1 X123.062 Y83.424 E0.01678
G1 X126.938 Y87.3 E0.17247
G1 X126.938 Y87.833 E0.01678
G1 X123.062 Y83.957 E0.17247
G1 X123.062 Y84.491 E0.01678
G1 X126.938 Y88.366 E0.17247
G1 X126.938 Y88.899 E0.01678
G1 X123.062 Y85.024 E0.17247
G1 X123.062 Y85.557 E0.01678
G1 X126.938 Y89.433 E0.17247
G1 X126.938 Y89.966 E0.01678
G1 X123.062 Y86.091 E0.17247
G1 X123.062 Y86.624 E0.01678
G1 X126.938 Y90.499 E0.17247
G1 X126.938 Y91.032 E0.01678
G1 X123.062 Y87.157 E0.17247
G1 X123.062 Y87.69 E0.01678
G1 X126.938 Y91.566 E0.17247
G1 X126.938 Y92.099 E0.01678
G1 X123.062 Y88.224 E0.17247
G1 X123.062 Y88.757 E0.01678
G1 X126.938 Y92.632 E0.17247
G1 X126.938 Y93.166 E0.01678
G1 X123.062 Y89.29 E0.17247
G1 X123.062 Y89.823 E0.01678
G1 X126.938 Y93.699 E0.17247
G1 X126.938 Y94.232 E0.01678
G1 X123.062 Y90.357 E0.17247
G1 X123.062 Y90.89 E0.01678
G1 X126.938 Y94.765 E0.17247
G1 X126.938 Y95.299 E0.01678
G1 X123.062 Y91.423 E0.17247
G1 X123.062 Y91.957 E0.01678
G1 X126.938 Y95.832 E0.17247
G1 X126.938 Y96.365 E0.01678
G1 X123.062 Y92.49 E0.17247
G1 X123.062 Y93.023 E0.01678
G1 X126.938 Y96.898 E0.17247
G1 X126.938 Y97.432 E0.01678
G1 X123.062 Y93.556 E0.17247
G1 X123.062 Y94.09 E0.01678
G1 X126.938 Y97.965 E0.17247
G1 X126.938 Y98.498 E0.01678
G1 X123.062 Y94.623 E0.17247
G1 X123.062 Y95.156 E0.01678
G1 X126.938 Y99.031 E0.17247
G1 X126.938 Y99.565 E0.01678
G1 X123.062 Y95.689 E0.17247
