; generated by SuperSlicer 2.3.57 on 2022-03-18 at 08:59:25 UTC

; 

; external perimeters extrusion width = 0.45mm
; perimeters extrusion width = 0.45mm
; infill extrusion width = 0.45mm
; solid infill extrusion width = 0.45mm
; top infill extrusion width = 0.40mm
; support material extrusion width = 0.35mm
; first layer extrusion width = 0.42mm

; object:{"name":"Black - PSU Lid","id":"Black - PSU Lid.stl id:0 copy 0","object_center":[125.000000,105.000000,0.000000],"boundingbox_center":[125.000000,105.000000,35.424999],"boundingbox_size":[120.000000,4.100006,70.849998]}
; Total objects to print: 1
M486 T1
; plater:{"center":[125.000000,105.000000,0.000000],"boundingbox_center":[125.000000,105.000000,35.424999],"boundingbox_size":[120.000000,4.100006,70.849998]}

M73 P0 R158
M73 Q0 S164
;TYPE:Custom
M862.3 P "MK3S" ; printer model check
M862.1 P0.4 ; nozzle diameter check
M115 U3.10.0 ; tell printer latest fw version
G90 ; use absolute coordinates
M83 ; extruder relative mode
M104 S255 ; set extruder temp
M140 S100 ; set bed temp
M190 S100 ; wait for bed temp
M109 S255 ; wait for extruder temp
G28 W ; home all without mesh bed level
G80 ; mesh bed leveling
G1 Y-3.0 F1000.0 ; go outside print area
G92 E0.0
G1 X60.0 E9.0 F1000.0 ; intro line
G1 X100.0 E12.5 F1000.0 ; intro line
G92 E0.0
M221 S95

; Don't change E values below. Excessive value can damage the printer.
M907 E430 ; set extruder motor current
M107
G21 ; set units to millimeters
G90 ; use absolute coordinates
M83 ; use relative distances for extrusion
M900 K0.04 ; Filament gcode LA 1.5
M900 K20 ; Filament gcode LA 1.0
M107
;LAYER_CHANGE
;Z:0.2
;HEIGHT:0.2
;BEFORE_LAYER_CHANGE
G92 E0.0
;0.2


G1 E-0.8 F2100
G1 Z0.4 F10800
;AFTER_LAYER_CHANGE
;0.2
G1 Z0.6
M204 P1500
G1 X61.511 Y94.636
G1 Z0.2
G1 E0.8 F2100
;TYPE:Skirt
;WIDTH:0.42
G1 F1200
G1 X63.296 Y93.897 E0.06058
G1 X65.117 Y93.534 E0.05822
G1 X98.383 Y93.534 E1.04303
G1 X100.539 Y91.378 E0.09562
G1 X104.004 Y89.943 E0.11759
G1 X105.723 Y89.943 E0.05389
G1 X105.856 Y89.916 E0.00426
G1 X108.698 Y89.916 E0.08912
G1 X111.889 Y89.916 E0.10005
G1 X119.257 Y89.916 E0.231
G1 X121.078 Y90.279 E0.05822
G1 X122.863 Y91.018 E0.06058
G1 X123.869 Y91.69 E0.03793
G1 X124.875 Y91.018 E0.03793
G1 X126.66 Y90.279 E0.06058
G1 X128.481 Y89.916 E0.05822
G1 X131.323 Y89.916 E0.08912
G1 X134.34 Y89.916 E0.09458
G1 X134.514 Y89.916 E0.00546
G1 X134.92 Y89.916 E0.01272
G1 X135.848 Y89.916 E0.02911
G1 X140.373 Y89.916 E0.14188
G1 X142.194 Y90.279 E0.05822
G1 X143.979 Y91.018 E0.06058
G1 X145.523 Y92.05 E0.05822
G1 X147.005 Y93.534 E0.06578
G1 X184.883 Y93.534 E1.18763
G1 X186.704 Y93.897 E0.05822
G1 X188.489 Y94.636 E0.06058
G1 X190.033 Y95.668 E0.05822
G1 X190.991 Y96.626 E0.04247
G1 X192.282 Y97.917 E0.05725
G1 X193.314 Y99.461 E0.05822
G1 X194.053 Y101.246 E0.06058
G1 X194.416 Y103.067 E0.05822
G1 X194.416 Y107.103 E0.12656
G1 X192.98 Y110.568 E0.11759
G1 X190.218 Y113.33 E0.12248
G1 X186.753 Y114.766 E0.11759
G1 X148.151 Y114.766 E1.21034
G1 X147.698 Y115.86 E0.03713
G1 X144.936 Y118.622 E0.12248
G1 X141.471 Y120.057 E0.11759
G1 X139.752 Y120.057 E0.05389
G1 X139.619 Y120.084 E0.00426
G1 X135.094 Y120.084 E0.14188
G1 X132.077 Y120.084 E0.09458
G1 X129.235 Y120.084 E0.08912
G1 X129.102 Y120.057 E0.00426
G1 X127.383 Y120.057 E0.05389
G1 X123.918 Y118.622 E0.11759
G1 X123.869 Y118.573 E0.0022
G1 X123.819 Y118.622 E0.00219
G1 X120.354 Y120.057 E0.11759
M73 P0 R157
G1 X118.636 Y120.057 E0.05389
G1 X118.503 Y120.084 E0.00426
G1 X113.049 Y120.084 E0.17099
G1 X111.135 Y120.084 E0.06001
G1 X109.453 Y120.084 E0.05276
G1 X107.539 Y120.084 E0.06001
G1 X105.102 Y120.084 E0.0764
G1 X103.281 Y119.721 E0.05822
G1 X101.496 Y118.982 E0.06057
G1 X99.952 Y117.95 E0.05822
G1 X98.475 Y116.474 E0.06548
G1 X97.443 Y114.93 E0.05822
G1 X97.375 Y114.766 E0.00558
G1 X63.247 Y114.766 E1.07008
G1 X59.782 Y113.33 E0.11759
G1 X57.02 Y110.568 E0.12248
G1 X55.584 Y107.103 E0.11759
G1 X55.584 Y103.067 E0.12656
G1 X55.947 Y101.246 E0.05822
G1 X56.686 Y99.461 E0.06058
G1 X57.718 Y97.917 E0.05822
G1 X59.967 Y95.668 E0.09972
G1 X61.461 Y94.669 E0.05634
G1 X61.566 Y94.826 F10800
M204 P1000
G1 X61.67 Y94.983
G1 F1200
G1 X61.689 Y94.97 E0.00072
G1 X63.406 Y94.259 E0.05825
G1 X65.154 Y93.912 E0.0559
G1 X98.539 Y93.912 E1.04676
G1 X100.753 Y91.698 E0.09817
G1 X104.079 Y90.32 E0.11288
G1 X105.76 Y90.32 E0.0527
G1 X105.893 Y90.293 E0.00426
G1 X108.661 Y90.293 E0.08679
G1 X111.926 Y90.293 E0.10238
G1 X119.22 Y90.293 E0.22867
G1 X120.968 Y90.641 E0.05589
G1 X122.684 Y91.352 E0.05825
G1 X123.869 Y92.144 E0.04467
G1 X125.053 Y91.352 E0.04467
G1 X126.769 Y90.641 E0.05825
G1 X128.518 Y90.293 E0.0559
G1 X131.286 Y90.293 E0.08679
G1 X134.303 Y90.293 E0.09458
G1 X134.551 Y90.293 E0.00779
G1 X134.92 Y90.293 E0.01155
G1 X135.811 Y90.293 E0.02795
G1 X140.336 Y90.293 E0.14188
G1 X142.084 Y90.641 E0.05589
G1 X143.801 Y91.352 E0.05825
G1 X145.283 Y92.342 E0.0559
G1 X146.707 Y93.767 E0.06315
G1 X146.804 Y93.912 E0.00547
G1 X184.846 Y93.912 E1.19278
G1 X186.594 Y94.259 E0.0559
G1 X188.311 Y94.97 E0.05825
G1 X189.793 Y95.961 E0.05589
G1 X190.724 Y96.892 E0.04131
G1 X191.989 Y98.157 E0.05609
G1 X192.98 Y99.639 E0.0559
G1 X193.691 Y101.356 E0.05825
G1 X194.038 Y103.104 E0.05589
G1 X194.038 Y107.028 E0.12304
G1 X192.661 Y110.354 E0.11288
G1 X190.004 Y113.011 E0.11778
G1 X186.678 Y114.388 E0.11288
G1 X147.899 Y114.388 E1.21589
G1 X147.378 Y115.646 E0.04268
G1 X144.722 Y118.302 E0.11778
G1 X141.396 Y119.68 E0.11288
G1 X139.715 Y119.68 E0.0527
G1 X139.582 Y119.707 E0.00426
G1 X135.057 Y119.707 E0.14188
G1 X132.04 Y119.707 E0.09458
G1 X129.272 Y119.707 E0.08679
G1 X129.139 Y119.68 E0.00426
G1 X127.458 Y119.68 E0.0527
G1 X124.132 Y118.302 E0.11288
G1 X123.869 Y118.039 E0.01167
G1 X123.606 Y118.302 E0.01167
G1 X120.279 Y119.68 E0.11288
G1 X118.599 Y119.68 E0.0527
G1 X118.465 Y119.707 E0.00426
G1 X113.049 Y119.707 E0.16982
G1 X111.172 Y119.707 E0.05885
G1 X109.415 Y119.707 E0.05508
G1 X107.539 Y119.707 E0.05885
G1 X105.139 Y119.707 E0.07524
G1 X103.391 Y119.359 E0.05589
G1 X101.674 Y118.648 E0.05825
G1 X100.192 Y117.658 E0.05589
G1 X98.768 Y116.233 E0.06315
G1 X97.778 Y114.751 E0.0559
G1 X97.627 Y114.388 E0.01231
G1 X63.322 Y114.388 E1.07563
G1 X59.996 Y113.011 E0.11288
G1 X57.339 Y110.354 E0.11778
G1 X55.962 Y107.028 E0.11288
G1 X55.962 Y103.104 E0.12304
G1 X56.309 Y101.356 E0.0559
G1 X57.02 Y99.639 E0.05825
G1 X58.011 Y98.157 E0.05589
G1 X60.207 Y95.961 E0.09739
G1 X61.62 Y95.016 E0.0533
M204 P1500
G1 X61.725 Y95.173 F10800
M204 P1000
G1 X61.83 Y95.33
G1 F1200
G1 X61.868 Y95.304 E0.00143
G1 X63.516 Y94.622 E0.05592
G1 X65.191 Y94.289 E0.05357
G1 X98.695 Y94.289 E1.0505
G1 X100.967 Y92.017 E0.10072
G1 X104.154 Y90.697 E0.10818
G1 X105.797 Y90.697 E0.05151
G1 X105.93 Y90.67 E0.00426
G1 X108.624 Y90.67 E0.08446
G1 X111.964 Y90.67 E0.1047
G1 X119.182 Y90.67 E0.22634
G1 X120.858 Y91.004 E0.05357
G1 X122.506 Y91.686 E0.05592
G1 X123.869 Y92.597 E0.0514
G1 X125.232 Y91.686 E0.0514
G1 X126.879 Y91.004 E0.05592
G1 X128.555 Y90.67 E0.05357
G1 X131.249 Y90.67 E0.08446
G1 X134.266 Y90.67 E0.09458
G1 X134.588 Y90.67 E0.01012
G1 X134.92 Y90.67 E0.01039
G1 X135.774 Y90.67 E0.02678
G1 X140.299 Y90.67 E0.14188
G1 X141.974 Y91.004 E0.05357
G1 X143.622 Y91.686 E0.05592
G1 X145.043 Y92.635 E0.05357
G1 X146.414 Y94.007 E0.06082
G1 X146.602 Y94.289 E0.01062
G1 X184.809 Y94.289 E1.19794
G1 X186.484 Y94.622 E0.05357
G1 X188.132 Y95.304 E0.05592
G1 X189.553 Y96.254 E0.05356
G1 X190.458 Y97.159 E0.04014
G1 X191.696 Y98.397 E0.05492
G1 X192.646 Y99.818 E0.05357
G1 X193.328 Y101.466 E0.05592
G1 X193.661 Y103.141 E0.05356
G1 X193.661 Y106.953 E0.11953
G1 X192.341 Y110.141 E0.10818
G1 X189.791 Y112.691 E0.11308
G1 X186.603 Y114.011 E0.10818
G1 X147.647 Y114.011 E1.22143
M73 Q0 S163
G1 X147.059 Y115.433 E0.04823
G1 X144.509 Y117.983 E0.11308
G1 X141.321 Y119.303 E0.10818
G1 X139.678 Y119.303 E0.05152
G1 X139.545 Y119.33 E0.00426
G1 X135.02 Y119.33 E0.14188
G1 X132.003 Y119.33 E0.09458
G1 X129.309 Y119.33 E0.08446
G1 X129.176 Y119.303 E0.00426
G1 X127.533 Y119.303 E0.05151
G1 X124.345 Y117.983 E0.10818
G1 X123.869 Y117.506 E0.02114
G1 X123.392 Y117.983 E0.02114
G1 X120.204 Y119.303 E0.10818
G1 X118.561 Y119.303 E0.05152
G1 X118.428 Y119.33 E0.00426
G1 X113.049 Y119.33 E0.16866
G1 X111.209 Y119.33 E0.05768
G1 X109.378 Y119.33 E0.05741
G1 X107.539 Y119.33 E0.05768
G1 X105.176 Y119.33 E0.07407
G1 X103.501 Y118.996 E0.05357
G1 X101.853 Y118.314 E0.05592
G1 X100.433 Y117.365 E0.05356
G1 X99.061 Y115.993 E0.06082
G1 X98.112 Y114.573 E0.05357
G1 X97.879 Y114.011 E0.01905
G1 X63.397 Y114.011 E1.08118
G1 X60.209 Y112.691 E0.10818
G1 X57.659 Y110.141 E0.11308
G1 X56.339 Y106.953 E0.10818
G1 X56.339 Y103.141 E0.11953
G1 X56.672 Y101.466 E0.05357
G1 X57.354 Y99.818 E0.05592
G1 X58.304 Y98.397 E0.05356
G1 X60.447 Y96.254 E0.09506
G1 X61.78 Y95.363 E0.05025
M204 P1500
G1 X61.885 Y95.52 F10800
M204 P1000
G1 X61.989 Y95.677
G1 F1200
G1 X62.046 Y95.639 E0.00215
G1 X63.626 Y94.985 E0.05359
G1 X65.228 Y94.666 E0.05124
G1 X98.851 Y94.666 E1.05423
G1 X101.18 Y92.337 E0.10326
G1 X104.229 Y91.074 E0.10348
G1 X105.834 Y91.074 E0.05033
G1 X105.967 Y91.048 E0.00426
G1 X108.587 Y91.048 E0.08214
G1 X112.001 Y91.048 E0.10703
G1 X119.145 Y91.048 E0.22401
G1 X120.748 Y91.366 E0.05124
G1 X122.327 Y92.02 E0.05359
G1 X123.686 Y92.928 E0.05124
G1 X123.869 Y93.111 E0.00811
G1 X124.052 Y92.928 E0.00812
G1 X125.41 Y92.02 E0.05124
G1 X126.989 Y91.366 E0.05359
G1 X128.592 Y91.048 E0.05124
G1 X131.212 Y91.048 E0.08214
G1 X134.228 Y91.048 E0.09458
G1 X134.626 Y91.048 E0.01245
G1 X134.92 Y91.048 E0.00922
G1 X135.737 Y91.048 E0.02562
G1 X140.262 Y91.048 E0.14188
G1 X141.864 Y91.366 E0.05124
G1 X143.444 Y92.02 E0.05359
G1 X144.802 Y92.928 E0.05124
G1 X146.121 Y94.247 E0.05849
G1 X146.401 Y94.666 E0.01578
G1 X184.772 Y94.666 E1.20309
G1 X186.374 Y94.985 E0.05124
G1 X187.954 Y95.639 E0.05359
G1 X189.312 Y96.546 E0.05124
G1 X190.191 Y97.425 E0.03898
G1 X191.404 Y98.638 E0.05376
G1 X192.311 Y99.997 E0.05124
G1 X192.965 Y101.576 E0.05359
G1 X193.284 Y103.178 E0.05124
G1 X193.284 Y106.878 E0.11601
G1 X192.021 Y109.927 E0.10348
G1 X189.577 Y112.371 E0.10837
G1 X186.528 Y113.634 E0.10348
G1 X147.395 Y113.634 E1.22698
G1 X146.739 Y115.219 E0.05378
G1 X144.295 Y117.663 E0.10837
G1 X141.246 Y118.926 E0.10348
G1 X139.641 Y118.926 E0.05033
G1 X139.508 Y118.952 E0.00426
G1 X134.983 Y118.952 E0.14188
G1 X131.966 Y118.952 E0.09458
G1 X129.346 Y118.952 E0.08213
G1 X129.213 Y118.926 E0.00426
G1 X127.608 Y118.926 E0.05033
G1 X124.559 Y117.663 E0.10348
G1 X123.869 Y116.973 E0.03061
G1 X123.178 Y117.663 E0.03061
G1 X120.129 Y118.926 E0.10348
G1 X118.524 Y118.926 E0.05033
G1 X118.391 Y118.952 E0.00426
G1 X113.049 Y118.952 E0.16749
G1 X111.247 Y118.952 E0.05652
G1 X109.341 Y118.952 E0.05974
G1 X107.539 Y118.952 E0.05652
G1 X105.213 Y118.952 E0.07291
G1 X103.611 Y118.634 E0.05124
G1 X102.032 Y117.98 E0.05359
G1 X100.673 Y117.072 E0.05124
G1 X99.354 Y115.753 E0.05849
G1 X98.446 Y114.394 E0.05124
G1 X98.131 Y113.634 E0.02578
G1 X63.472 Y113.634 E1.08672
G1 X60.423 Y112.371 E0.10348
G1 X57.979 Y109.927 E0.10837
G1 X56.716 Y106.878 E0.10348
G1 X56.716 Y103.178 E0.11601
G1 X57.035 Y101.576 E0.05124
G1 X57.689 Y99.996 E0.05359
G1 X58.596 Y98.638 E0.05124
G1 X60.688 Y96.546 E0.09273
G1 X61.94 Y95.71 E0.0472
M204 P1500
G1 X62.044 Y95.867 F10800
M204 P1000
G1 X62.149 Y96.024
G1 F1200
G1 X62.225 Y95.973 E0.00287
G1 X63.736 Y95.347 E0.05126
G1 X65.265 Y95.043 E0.04891
G1 X99.036 Y95.043 E1.05885
G1 X99.056 Y94.995 E0.00163
G1 X101.394 Y92.657 E0.10367
G1 X104.304 Y91.451 E0.09877
G1 X105.871 Y91.451 E0.04914
G1 X106.005 Y91.425 E0.00426
G1 X108.55 Y91.425 E0.07981
G1 X112.038 Y91.425 E0.10936
G1 X119.108 Y91.425 E0.22168
G1 X120.638 Y91.729 E0.04891
G1 X122.148 Y92.355 E0.05126
G1 X123.445 Y93.221 E0.04891
G1 X123.869 Y93.645 E0.01877
G1 X124.292 Y93.221 E0.01877
G1 X125.589 Y92.355 E0.04891
G1 X127.099 Y91.729 E0.05126
G1 X128.629 Y91.425 E0.04891
G1 X131.175 Y91.425 E0.07981
G1 X134.191 Y91.425 E0.09458
G1 X134.663 Y91.425 E0.01478
G1 X134.92 Y91.425 E0.00806
G1 X135.7 Y91.425 E0.02445
G1 X140.225 Y91.425 E0.14188
G1 X141.754 Y91.729 E0.04891
G1 X143.265 Y92.355 E0.05126
G1 X144.562 Y93.221 E0.04891
G1 X145.828 Y94.488 E0.05616
G1 X146.199 Y95.043 E0.02093
G1 X184.735 Y95.043 E1.20825
G1 X186.264 Y95.347 E0.04891
G1 X187.775 Y95.973 E0.05126
G1 X189.072 Y96.839 E0.04891
G1 X189.925 Y97.692 E0.03781
G1 X191.111 Y98.878 E0.05259
G1 X191.977 Y100.175 E0.04891
G1 X192.603 Y101.686 E0.05126
G1 X192.907 Y103.215 E0.04891
G1 X192.907 Y106.803 E0.11249
G1 X191.702 Y109.714 E0.09877
G1 X189.364 Y112.052 E0.10367
G1 X186.453 Y113.257 E0.09877
G1 X147.143 Y113.257 E1.23253
M73 P0 R156
G1 X146.419 Y115.005 E0.05933
G1 X144.081 Y117.343 E0.10367
G1 X141.171 Y118.549 E0.09877
G1 X139.604 Y118.549 E0.04914
G1 X139.47 Y118.575 E0.00426
G1 X134.945 Y118.575 E0.14188
G1 X131.929 Y118.575 E0.09458
G1 X129.384 Y118.575 E0.07981
G1 X129.25 Y118.549 E0.00426
G1 X127.683 Y118.549 E0.04914
G1 X124.773 Y117.343 E0.09877
G1 X123.869 Y116.439 E0.04008
G1 X122.965 Y117.343 E0.04008
G1 X120.054 Y118.549 E0.09877
G1 X118.487 Y118.549 E0.04914
G1 X118.354 Y118.575 E0.00426
G1 X113.049 Y118.575 E0.16633
G1 X111.284 Y118.575 E0.05535
G1 X109.304 Y118.575 E0.06207
G1 X107.539 Y118.575 E0.05535
G1 X105.25 Y118.575 E0.07175
G1 X103.721 Y118.271 E0.04891
G1 X102.21 Y117.645 E0.05126
G1 X100.913 Y116.779 E0.04891
G1 X99.647 Y115.512 E0.05616
G1 X98.78 Y114.215 E0.04891
G1 X98.383 Y113.257 E0.03252
G1 X63.547 Y113.257 E1.09227
G1 X60.636 Y112.052 E0.09877
G1 X58.298 Y109.714 E0.10367
G1 X57.093 Y106.803 E0.09877
G1 X57.093 Y103.215 E0.11249
G1 X57.397 Y101.685 E0.04891
G1 X58.023 Y100.175 E0.05126
G1 X58.889 Y98.878 E0.04891
G1 X60.928 Y96.839 E0.09041
G1 X62.099 Y96.057 E0.04416
M204 P1500
G1 X62.204 Y96.214 F10800
M204 P1000
G1 X62.309 Y96.37
G1 F1200
G1 X62.404 Y96.307 E0.00358
G1 X63.845 Y95.71 E0.04893
G1 X65.303 Y95.42 E0.04658
G1 X99.288 Y95.42 E1.06558
G1 X99.375 Y95.208 E0.00718
G1 X101.607 Y92.976 E0.09897
G1 X104.379 Y91.828 E0.09407
G1 X105.909 Y91.828 E0.04795
G1 X106.042 Y91.802 E0.00426
G1 X108.513 Y91.802 E0.07748
G1 X112.075 Y91.802 E0.11169
G1 X119.071 Y91.802 E0.21935
G1 X120.528 Y92.091 E0.04658
G1 X121.97 Y92.689 E0.04893
G1 X123.205 Y93.514 E0.04658
G1 X123.869 Y94.178 E0.02943
G1 X124.533 Y93.514 E0.02943
G1 X125.768 Y92.689 E0.04658
G1 X127.209 Y92.091 E0.04893
G1 X128.667 Y91.802 E0.04658
G1 X131.138 Y91.802 E0.07748
G1 X134.154 Y91.802 E0.09458
G1 X134.7 Y91.802 E0.01711
G1 X134.92 Y91.802 E0.0069
G1 X135.662 Y91.802 E0.02329
G1 X140.187 Y91.802 E0.14188
G1 X141.644 Y92.091 E0.04658
G1 X143.086 Y92.689 E0.04893
G1 X144.321 Y93.514 E0.04658
G1 X145.535 Y94.728 E0.05383
G1 X145.998 Y95.42 E0.02609
G1 X184.697 Y95.42 E1.2134
G1 X186.155 Y95.71 E0.04658
G1 X187.596 Y96.307 E0.04893
G1 X188.831 Y97.132 E0.04658
G1 X189.658 Y97.959 E0.03665
G1 X190.818 Y99.119 E0.05143
G1 X191.643 Y100.354 E0.04658
G1 X192.24 Y101.796 E0.04893
G1 X192.53 Y103.253 E0.04658
G1 X192.53 Y106.728 E0.10898
G1 X191.382 Y109.5 E0.09407
G1 X189.15 Y111.732 E0.09897
G1 X186.378 Y112.88 E0.09407
G1 X146.891 Y112.88 E1.23808
G1 X146.1 Y114.792 E0.06488
G1 X143.868 Y117.024 E0.09897
G1 X141.096 Y118.172 E0.09407
G1 X139.566 Y118.172 E0.04795
G1 X139.433 Y118.198 E0.00426
G1 X134.908 Y118.198 E0.14188
G1 X131.892 Y118.198 E0.09458
M73 P1 R156
G1 X129.421 Y118.198 E0.07748
G1 X129.287 Y118.172 E0.00426
G1 X127.758 Y118.172 E0.04795
G1 X124.986 Y117.024 E0.09407
G1 X123.869 Y115.906 E0.04955
G1 X122.751 Y117.024 E0.04955
G1 X119.979 Y118.172 E0.09407
G1 X118.45 Y118.172 E0.04795
G1 X118.317 Y118.198 E0.00426
G1 X113.049 Y118.198 E0.16517
G1 X111.321 Y118.198 E0.05419
G1 X109.267 Y118.198 E0.0644
G1 X107.539 Y118.198 E0.05419
G1 X105.288 Y118.198 E0.07058
G1 X103.831 Y117.908 E0.04658
G1 X102.389 Y117.311 E0.04893
G1 X101.154 Y116.486 E0.04658
G1 X99.94 Y115.272 E0.05383
G1 X99.114 Y114.037 E0.04658
G1 X98.635 Y112.88 E0.03925
G1 X63.622 Y112.88 E1.09782
M73 Q1 S163
G1 X60.85 Y111.732 E0.09407
G1 X58.618 Y109.5 E0.09897
