; generated by SuperSlicer 2.3.57 on 2022-03-18 at 20:59:27 UTC

; 

; external perimeters extrusion width = 0.45mm
; perimeters extrusion width = 0.45mm
; infill extrusion width = 0.45mm
; solid infill extrusion width = 0.45mm
; top infill extrusion width = 0.40mm
; support material extrusion width = 0.35mm
; first layer extrusion width = 0.42mm

; object:{"name":"Black - Y Cable Chain Braquete Back","id":"Black - Y Cable Chain Braquete Back.stl id:0 copy 0","object_center":[125.000000,105.000000,0.000000],"boundingbox_center":[125.000000,105.000000,17.175003],"boundingbox_size":[41.889320,77.339878,34.350006]}
; Total objects to print: 1
M486 T1
; plater:{"center":[125.000000,105.000000,0.000000],"boundingbox_center":[125.000000,105.000000,17.175003],"boundingbox_size":[41.889320,77.339878,34.350006]}

M73 P0 R112
M73 Q0 S113
;TYPE:Custom
M862.3 P "MK3S" ; printer model check
M862.1 P0.4 ; nozzle diameter check
M115 U3.10.0 ; tell printer latest fw version
G90 ; use absolute coordinates
M83 ; extruder relative mode
M104 S255 ; set extruder temp
M140 S100 ; set bed temp
M190 S100 ; wait for bed temp
M109 S255 ; wait for extruder temp
G28 W ; home all without mesh bed level
G80 ; mesh bed leveling
G1 Y-3.0 F1000.0 ; go outside print area
G92 E0.0
G1 X60.0 E9.0 F1000.0 ; intro line
G1 X100.0 E12.5 F1000.0 ; intro line
G92 E0.0
M221 S95

; Don't change E values below. Excessive value can damage the printer.
M907 E430 ; set extruder motor current
M107
G21 ; set units to millimeters
G90 ; use absolute coordinates
M83 ; use relative distances for extrusion
M900 K0.04 ; Filament gcode LA 1.5
M900 K20 ; Filament gcode LA 1.0
M107
;LAYER_CHANGE
;Z:0.2
;HEIGHT:0.2
;BEFORE_LAYER_CHANGE
G92 E0.0
;0.2


G1 E-0.8 F2100
G1 Z0.4 F10800
;AFTER_LAYER_CHANGE
;0.2
G1 Z0.6
M204 P1500
G1 X96.975 Y61.112
G1 Z0.2
G1 E0.8 F2100
;TYPE:Skirt
;WIDTH:0.42
G1 F1200
G1 X99.737 Y58.35 E0.12249
G1 X103.202 Y56.915 E0.11759
G1 X126.798 Y56.915 E0.73983
G1 X130.263 Y58.35 E0.11759
G1 X133.025 Y61.112 E0.12248
G1 X134.46 Y64.577 E0.11759
G1 X134.46 Y107.143 E1.33462
G1 X152.569 Y125.252 E0.80299
G1 X154.005 Y128.717 E0.11759
G1 X154.005 Y132.623 E0.12248
G1 X152.569 Y136.088 E0.11759
G1 X138.605 Y150.052 E0.6192
G1 X137.061 Y151.084 E0.05822
G1 X135.276 Y151.823 E0.06058
G1 X133.455 Y152.185 E0.05822
G1 X128.736 Y152.185 E0.14797
G1 X126.915 Y151.823 E0.05822
G1 X125.13 Y151.084 E0.06058
G1 X123.586 Y150.052 E0.05822
G1 X101.874 Y128.34 E0.96275
G1 X101.491 Y127.908 E0.01809
G1 X99.599 Y125.485 E0.09637
G1 X99.123 Y124.741 E0.02773
G1 X97.517 Y121.622 E0.11
G1 X97.219 Y120.905 E0.02433
G1 X96.146 Y117.567 E0.10994
G1 X95.956 Y116.703 E0.02774
G1 X95.576 Y113.644 E0.09664
G1 X95.541 Y113.063 E0.01824
G1 X95.54 Y64.577 E1.52025
G1 X96.952 Y61.167 E0.11571
G1 X97.123 Y61.247 F10800
M204 P1000
G1 X97.295 Y61.326
G1 F1200
G1 X99.951 Y58.669 E0.11778
G1 X103.277 Y57.292 E0.11288
G1 X126.723 Y57.292 E0.73513
G1 X130.049 Y58.669 E0.11288
G1 X132.705 Y61.326 E0.11778
G1 X134.083 Y64.652 E0.11288
G1 X134.083 Y107.299 E1.33717
G1 X152.25 Y125.465 E0.80554
G1 X153.627 Y128.792 E0.11288
G1 X153.627 Y132.548 E0.11778
G1 X152.25 Y135.874 E0.11288
G1 X138.365 Y149.759 E0.61568
G1 X136.883 Y150.75 E0.0559
G1 X135.166 Y151.461 E0.05825
G1 X133.418 Y151.808 E0.05589
G1 X128.773 Y151.808 E0.14564
G1 X127.025 Y151.461 E0.05589
G1 X125.308 Y150.75 E0.05825
G1 X123.826 Y149.759 E0.0559
G1 X102.148 Y128.082 E0.96122
G1 X101.781 Y127.667 E0.01737
G1 X99.908 Y125.267 E0.09546
G1 X99.45 Y124.552 E0.02662
G1 X97.859 Y121.463 E0.10896
G1 X97.574 Y120.775 E0.02336
G1 X96.511 Y117.468 E0.1089
G1 X96.328 Y116.639 E0.02663
M73 P0 R111
G1 X95.952 Y113.609 E0.09573
G1 X95.918 Y113.051 E0.01751
G1 X95.917 Y64.652 E1.51753
M73 Q0 S112
G1 X97.272 Y61.381 E0.11101
M204 P1500
G1 X97.443 Y61.46 F10800
M204 P1000
G1 X97.614 Y61.539
G1 F1200
G1 X100.164 Y58.989 E0.11308
G1 X103.352 Y57.669 E0.10818
G1 X126.648 Y57.669 E0.73042
G1 X129.836 Y58.989 E0.10818
G1 X132.386 Y61.539 E0.11308
G1 X133.706 Y64.727 E0.10818
G1 X133.706 Y107.455 E1.33971
G1 X151.93 Y125.679 E0.80808
G1 X153.25 Y128.867 E0.10818
G1 X153.25 Y132.473 E0.11308
G1 X151.93 Y135.661 E0.10818
G1 X138.124 Y149.466 E0.61216
G1 X136.704 Y150.416 E0.05357
G1 X135.056 Y151.098 E0.05592
G1 X133.381 Y151.431 E0.05356
G1 X128.81 Y151.431 E0.14331
G1 X127.135 Y151.098 E0.05356
G1 X125.487 Y150.416 E0.05592
G1 X124.066 Y149.466 E0.05357
G1 X102.423 Y127.823 E0.9597
G1 X102.071 Y127.426 E0.01665
G1 X100.216 Y125.049 E0.09454
G1 X99.777 Y124.364 E0.02551
G1 X98.201 Y121.304 E0.10792
G1 X97.928 Y120.644 E0.02239
G1 X96.875 Y117.369 E0.10785
G1 X96.7 Y116.575 E0.02552
G1 X96.328 Y113.574 E0.09481
G1 X96.295 Y113.04 E0.01678
G1 X96.294 Y64.727 E1.51481
G1 X97.591 Y61.595 E0.1063
M204 P1500
G1 X97.763 Y61.674 F10800
M204 P1000
G1 X97.934 Y61.753
G1 F1200
G1 X100.378 Y59.309 E0.10838
G1 X103.427 Y58.046 E0.10348
G1 X126.573 Y58.046 E0.72572
G1 X129.622 Y59.309 E0.10348
G1 X132.066 Y61.753 E0.10837
G1 X133.329 Y64.802 E0.10348
G1 X133.329 Y107.611 E1.34226
G1 X151.61 Y125.893 E0.81063
G1 X152.873 Y128.942 E0.10348
G1 X152.873 Y132.398 E0.10837
G1 X151.61 Y135.447 E0.10348
G1 X137.884 Y149.174 E0.60865
G1 X136.525 Y150.081 E0.05124
G1 X134.946 Y150.735 E0.05359
G1 X133.344 Y151.054 E0.05124
G1 X128.847 Y151.054 E0.14098
G1 X127.245 Y150.735 E0.05124
G1 X125.666 Y150.081 E0.05359
G1 X124.307 Y149.174 E0.05124
G1 X102.698 Y127.565 E0.95817
G1 X102.362 Y127.184 E0.01592
G1 X100.524 Y124.831 E0.09362
G1 X100.104 Y124.175 E0.0244
G1 X98.544 Y121.145 E0.10687
G1 X98.282 Y120.514 E0.02141
G1 X97.24 Y117.271 E0.10681
G1 X97.072 Y116.511 E0.02441
G1 X96.703 Y113.539 E0.09389
G1 X96.672 Y113.028 E0.01605
G1 X96.671 Y64.802 E1.5121
G1 X97.911 Y61.808 E0.1016
M204 P1500
G1 X98.082 Y61.887 F10800
M204 P1000
G1 X98.254 Y61.966
G1 F1200
G1 X100.592 Y59.628 E0.10367
G1 X103.502 Y58.423 E0.09877
G1 X126.498 Y58.423 E0.72102
G1 X129.408 Y59.628 E0.09877
G1 X131.746 Y61.966 E0.10367
G1 X132.952 Y64.877 E0.09877
G1 X132.952 Y107.767 E1.34481
G1 X151.291 Y126.106 E0.81317
G1 X152.496 Y129.017 E0.09877
G1 X152.496 Y132.323 E0.10367
G1 X151.291 Y135.234 E0.09877
G1 X137.644 Y148.881 E0.60513
G1 X136.347 Y149.747 E0.04891
G1 X134.836 Y150.373 E0.05126
G1 X133.306 Y150.677 E0.04891
G1 X128.884 Y150.677 E0.13865
G1 X127.355 Y150.373 E0.04891
G1 X125.844 Y149.747 E0.05126
G1 X124.547 Y148.881 E0.04891
G1 X102.973 Y127.306 E0.95664
G1 X102.652 Y126.943 E0.0152
G1 X100.832 Y124.613 E0.09271
M73 P1 R111
G1 X100.431 Y123.987 E0.02329
G1 X98.886 Y120.986 E0.10583
G1 X98.636 Y120.384 E0.02044
G1 X97.604 Y117.172 E0.10577
M73 Q1 S112
G1 X97.444 Y116.447 E0.0233
G1 X97.079 Y113.504 E0.09297
G1 X97.049 Y113.016 E0.01532
G1 X97.048 Y64.877 E1.50938
G1 X98.231 Y62.022 E0.09689
M204 P1500
G1 X98.402 Y62.101 F10800
M204 P1000
G1 X98.573 Y62.18
G1 F1200
G1 X100.805 Y59.948 E0.09897
G1 X103.577 Y58.8 E0.09407
G1 X126.423 Y58.8 E0.71631
G1 X129.195 Y59.948 E0.09407
G1 X131.427 Y62.18 E0.09897
G1 X132.575 Y64.952 E0.09407
G1 X132.575 Y107.924 E1.34735
G1 X150.971 Y126.32 E0.81572
G1 X152.119 Y129.092 E0.09407
G1 X152.119 Y132.248 E0.09897
G1 X150.971 Y135.02 E0.09407
G1 X137.403 Y148.588 E0.60161
G1 X136.168 Y149.413 E0.04658
G1 X134.726 Y150.01 E0.04893
G1 X133.269 Y150.3 E0.04658
G1 X128.922 Y150.3 E0.13632
G1 X127.465 Y150.01 E0.04658
G1 X126.023 Y149.413 E0.04893
G1 X124.788 Y148.588 E0.04658
G1 X103.248 Y127.048 E0.95512
G1 X102.942 Y126.702 E0.01447
G1 X101.14 Y124.395 E0.09179
G1 X100.759 Y123.799 E0.02218
G1 X99.228 Y120.827 E0.10479
G1 X98.991 Y120.254 E0.01947
G1 X97.968 Y117.074 E0.10473
G1 X97.816 Y116.383 E0.02219
G1 X97.455 Y113.469 E0.09205
G1 X97.426 Y113.005 E0.01459
G1 X97.425 Y64.952 E1.50666
G1 X98.55 Y62.235 E0.09219
M204 P1500
G1 X98.722 Y62.315 F10800
M204 P1000
G1 X98.893 Y62.394
G1 F1200
G1 X101.019 Y60.268 E0.09426
G1 X103.652 Y59.177 E0.08937
G1 X126.348 Y59.177 E0.71161
G1 X128.981 Y60.268 E0.08937
G1 X131.107 Y62.394 E0.09426
G1 X132.198 Y65.027 E0.08937
G1 X132.198 Y108.08 E1.3499
G1 X150.651 Y126.533 E0.81827
G1 X151.742 Y129.167 E0.08937
G1 X151.742 Y132.173 E0.09426
G1 X150.651 Y134.806 E0.08937
G1 X137.163 Y148.295 E0.5981
G1 X135.989 Y149.079 E0.04425
G1 X134.616 Y149.648 E0.0466
G1 X133.232 Y149.923 E0.04425
G1 X128.959 Y149.923 E0.13399
G1 X127.575 Y149.648 E0.04425
M73 P1 R110
G1 X126.201 Y149.079 E0.0466
G1 X125.028 Y148.295 E0.04425
G1 X103.522 Y126.789 E0.95359
M73 Q1 S111
G1 X103.232 Y126.461 E0.01375
G1 X101.448 Y124.177 E0.09088
G1 X101.086 Y123.61 E0.02107
G1 X99.571 Y120.669 E0.10375
G1 X99.345 Y120.124 E0.01849
G1 X98.333 Y116.975 E0.10369
G1 X98.188 Y116.319 E0.02108
G1 X97.83 Y113.434 E0.09113
G1 X97.803 Y112.993 E0.01386
G1 X97.802 Y65.027 E1.50395
G1 X98.87 Y62.449 E0.08749
M204 P1500
G1 X99.041 Y62.528 F10800
M204 P1000
G1 X99.213 Y62.607
G1 F1200
G1 X101.232 Y60.587 E0.08956
G1 X103.727 Y59.554 E0.08466
G1 X126.273 Y59.554 E0.70691
G1 X128.768 Y60.587 E0.08466
G1 X130.787 Y62.607 E0.08956
G1 X131.821 Y65.102 E0.08466
G1 X131.821 Y108.236 E1.35244
G1 X150.332 Y126.747 E0.82081
G1 X151.365 Y129.242 E0.08466
G1 X151.365 Y132.098 E0.08956
G1 X150.332 Y134.593 E0.08466
G1 X136.923 Y148.002 E0.59458
G1 X135.811 Y148.745 E0.04192
G1 X134.506 Y149.285 E0.04427
G1 X133.195 Y149.546 E0.04192
G1 X128.996 Y149.546 E0.13166
G1 X127.685 Y149.285 E0.04192
G1 X126.38 Y148.745 E0.04427
G1 X125.268 Y148.002 E0.04192
G1 X103.797 Y126.531 E0.95206
G1 X103.522 Y126.22 E0.01303
G1 X101.756 Y123.958 E0.08996
G1 X101.413 Y123.422 E0.01996
G1 X99.913 Y120.51 E0.10271
G1 X99.699 Y119.994 E0.01752
G1 X98.697 Y116.877 E0.10265
G1 X98.56 Y116.255 E0.01997
G1 X98.206 Y113.4 E0.09021
G1 X98.18 Y112.982 E0.01313
G1 X98.179 Y65.102 E1.50123
G1 X99.19 Y62.663 E0.08278
M204 P1500
G1 X99.361 Y62.742 F10800
M204 P1000
G1 X99.532 Y62.821
G1 F1200
G1 X101.446 Y60.907 E0.08486
G1 X103.802 Y59.931 E0.07996
G1 X126.198 Y59.931 E0.7022
G1 X128.554 Y60.907 E0.07996
G1 X130.468 Y62.821 E0.08486
G1 X131.444 Y65.177 E0.07996
G1 X131.444 Y108.392 E1.35499
G1 X150.012 Y126.961 E0.82336
G1 X150.988 Y129.317 E0.07996
G1 X150.988 Y132.023 E0.08486
G1 X150.012 Y134.379 E0.07996
G1 X136.682 Y147.709 E0.59107
G1 X135.632 Y148.411 E0.03959
G1 X134.396 Y148.922 E0.04194
G1 X133.158 Y149.169 E0.03959
G1 X129.033 Y149.169 E0.12933
G1 X127.794 Y148.922 E0.03959
G1 X126.559 Y148.411 E0.04194
G1 X125.509 Y147.709 E0.03959
G1 X104.072 Y126.272 E0.95054
G1 X103.812 Y125.978 E0.0123
G1 X102.064 Y123.74 E0.08904
G1 X101.74 Y123.234 E0.01886
G1 X100.255 Y120.351 E0.10167
G1 X100.053 Y119.863 E0.01655
G1 X99.062 Y116.778 E0.1016
G1 X98.932 Y116.191 E0.01886
G1 X98.582 Y113.365 E0.08929
G1 X98.557 Y112.97 E0.0124
G1 X98.556 Y65.177 E1.49852
G1 X99.509 Y62.876 E0.07808
M204 P1500
G1 X99.681 Y62.955 F10800
M204 P1000
G1 X99.852 Y63.034
G1 F1200
G1 X101.66 Y61.227 E0.08015
G1 X103.877 Y60.308 E0.07526
G1 X126.123 Y60.308 E0.6975
G1 X128.34 Y61.227 E0.07526
G1 X130.148 Y63.034 E0.08015
G1 X131.066 Y65.252 E0.07526
G1 X131.066 Y108.548 E1.35753
G1 X149.692 Y127.174 E0.8259
G1 X150.611 Y129.392 E0.07526
G1 X150.611 Y131.948 E0.08015
G1 X149.692 Y134.166 E0.07526
G1 X136.442 Y147.416 E0.58755
G1 X135.454 Y148.076 E0.03726
G1 X134.286 Y148.56 E0.03961
G1 X133.121 Y148.792 E0.03726
G1 X129.07 Y148.792 E0.12701
G1 X127.904 Y148.56 E0.03726
G1 X126.737 Y148.076 E0.03961
G1 X125.749 Y147.416 E0.03726
G1 X104.347 Y126.014 E0.94901
G1 X104.102 Y125.737 E0.01158
G1 X102.372 Y123.522 E0.08813
G1 X102.067 Y123.045 E0.01775
G1 X100.598 Y120.192 E0.10063
G1 X100.407 Y119.733 E0.01557
G1 X99.426 Y116.68 E0.10056
G1 X99.304 Y116.127 E0.01775
G1 X98.957 Y113.33 E0.08837
G1 X98.934 Y112.958 E0.01167
G1 X98.934 Y65.252 E1.4958
G1 X99.829 Y63.09 E0.07338
M204 P1500
G1 X100. Y63.169 F10800
M204 P1000
G1 X100.172 Y63.248
G1 F1200
G1 X101.873 Y61.546 E0.07545
G1 X103.952 Y60.685 E0.07055
G1 X126.048 Y60.685 E0.6928
G1 X128.127 Y61.546 E0.07055
G1 X129.828 Y63.248 E0.07545
G1 X130.689 Y65.327 E0.07055
G1 X130.689 Y108.705 E1.36008
M73 P2 R110
G1 X149.373 Y127.388 E0.82845
M73 Q2 S111
G1 X150.234 Y129.467 E0.07055
G1 X150.234 Y131.873 E0.07545
G1 X149.373 Y133.952 E0.07055
G1 X136.201 Y147.123 E0.58403
G1 X135.275 Y147.742 E0.03493
G1 X134.176 Y148.197 E0.03729
G1 X133.084 Y148.415 E0.03493
G1 X129.107 Y148.415 E0.12468
G1 X128.014 Y148.197 E0.03493
G1 X126.916 Y147.742 E0.03729
G1 X125.989 Y147.123 E0.03493
G1 X104.622 Y125.755 E0.94748
G1 X104.392 Y125.496 E0.01086
G1 X102.68 Y123.304 E0.08721
G1 X102.394 Y122.857 E0.01664
G1 X100.94 Y120.033 E0.09959
G1 X100.762 Y119.603 E0.0146
G1 X99.791 Y116.581 E0.09952
G1 X99.676 Y116.063 E0.01664
G1 X99.333 Y113.295 E0.08745
G1 X99.311 Y112.947 E0.01094
G1 X99.311 Y65.327 E1.49308
G1 X100.149 Y63.303 E0.06867
M204 P1500
G1 X100.32 Y63.383 F10800
M204 P1000
G1 X100.491 Y63.462
G1 F1200
G1 X102.087 Y61.866 E0.07075
G1 X104.027 Y61.062 E0.06585
G1 X125.973 Y61.062 E0.68809
G1 X127.913 Y61.866 E0.06585
G1 X129.509 Y63.462 E0.07075
G1 X130.312 Y65.402 E0.06585
G1 X130.312 Y108.861 E1.36262
G1 X149.053 Y127.601 E0.83099
G1 X149.857 Y129.542 E0.06585
G1 X149.857 Y131.798 E0.07075
G1 X149.053 Y133.738 E0.06585
G1 X135.961 Y146.83 E0.58052
G1 X135.096 Y147.408 E0.03261
G1 X134.066 Y147.835 E0.03496
G1 X133.046 Y148.038 E0.0326
G1 X129.144 Y148.038 E0.12235
G1 X128.124 Y147.835 E0.0326
G1 X127.094 Y147.408 E0.03496
G1 X126.23 Y146.83 E0.03261
G1 X104.896 Y125.497 E0.94596
M73 P2 R109
M73 Q2 S110
G1 X104.682 Y125.255 E0.01013
G1 X102.988 Y123.086 E0.08629
G1 X102.721 Y122.669 E0.01553
G1 X101.283 Y119.874 E0.09855
G1 X101.116 Y119.473 E0.01363
G1 X100.155 Y116.483 E0.09848
G1 X100.048 Y115.999 E0.01554
G1 X99.708 Y113.26 E0.08653
G1 X99.688 Y112.935 E0.01021
G1 X99.688 Y65.402 E1.49037
G1 X100.468 Y63.517 E0.06397
M204 P1500
G1 X100.64 Y63.596 F10800
M204 P1000
G1 X100.811 Y63.675
G1 F1200
G1 X102.3 Y62.186 E0.06604
G1 X104.102 Y61.439 E0.06115
G1 X125.898 Y61.439 E0.68339
G1 X127.7 Y62.186 E0.06115
G1 X129.189 Y63.675 E0.06604
G1 X129.935 Y65.477 E0.06115
G1 X129.935 Y109.017 E1.36517
G1 X148.733 Y127.815 E0.83354
G1 X149.48 Y129.617 E0.06115
G1 X149.48 Y131.723 E0.06604
G1 X148.733 Y133.525 E0.06115
G1 X135.721 Y146.537 E0.577
G1 X134.918 Y147.074 E0.03028
G1 X133.956 Y147.472 E0.03263
G1 X133.009 Y147.661 E0.03028
G1 X129.182 Y147.661 E0.12002
G1 X128.234 Y147.472 E0.03028
G1 X127.273 Y147.074 E0.03263
G1 X126.47 Y146.537 E0.03028
G1 X105.171 Y125.238 E0.94443
G1 X104.972 Y125.014 E0.00941
G1 X103.296 Y122.868 E0.08538
G1 X103.049 Y122.48 E0.01442
G1 X101.625 Y119.716 E0.0975
G1 X101.47 Y119.343 E0.01265
G1 X100.519 Y116.384 E0.09744
G1 X100.42 Y115.935 E0.01443
G1 X100.084 Y113.225 E0.08561
G1 X100.065 Y112.923 E0.00948
G1 X100.065 Y65.477 E1.48765
G1 X100.788 Y63.731 E0.05927
M204 P1500
G1 X100.959 Y63.81 F10800
M204 P1000
G1 X101.131 Y63.889
G1 F1200
G1 X102.514 Y62.505 E0.06134
G1 X104.177 Y61.817 E0.05644
G1 X125.823 Y61.817 E0.67868
G1 X127.486 Y62.505 E0.05644
G1 X128.869 Y63.889 E0.06134
G1 X129.558 Y65.552 E0.05644
G1 X129.558 Y109.173 E1.36771
G1 X148.414 Y128.029 E0.83608
G1 X149.103 Y129.692 E0.05644
G1 X149.103 Y131.648 E0.06134
G1 X148.414 Y133.311 E0.05644
G1 X135.48 Y146.245 E0.57349
G1 X134.739 Y146.74 E0.02795
G1 X133.846 Y147.11 E0.0303
G1 X132.972 Y147.283 E0.02795
G1 X129.219 Y147.283 E0.11769
G1 X128.344 Y147.11 E0.02795
G1 X127.452 Y146.74 E0.0303
G1 X126.711 Y146.245 E0.02795
G1 X105.446 Y124.98 E0.94291
G1 X105.262 Y124.773 E0.00868
G1 X103.604 Y122.649 E0.08446
G1 X103.376 Y122.292 E0.01331
G1 X101.967 Y119.557 E0.09646
G1 X101.824 Y119.213 E0.01168
G1 X100.884 Y116.286 E0.0964
G1 X100.792 Y115.871 E0.01332
G1 X100.46 Y113.19 E0.08469
G1 X100.443 Y112.912 E0.00876
G1 X100.442 Y65.552 E1.48493
G1 X101.108 Y63.944 E0.05456
M204 P1500
G1 X101.279 Y64.023 F10800
M204 P1000
G1 X101.45 Y64.102
G1 F1200
G1 X102.728 Y62.825 E0.05664
G1 X104.252 Y62.194 E0.05174
G1 X125.748 Y62.194 E0.67398
G1 X127.272 Y62.825 E0.05174
G1 X128.55 Y64.102 E0.05664
G1 X129.181 Y65.627 E0.05174
G1 X129.181 Y109.329 E1.37026
G1 X148.094 Y128.242 E0.83863
