; generated by SuperSlicer 2.3.57 on 2022-03-18 at 20:41:02 UTC

; 

; external perimeters extrusion width = 0.45mm
; perimeters extrusion width = 0.45mm
; infill extrusion width = 0.45mm
; solid infill extrusion width = 0.45mm
; top infill extrusion width = 0.40mm
; support material extrusion width = 0.35mm
; first layer extrusion width = 0.42mm

; object:{"name":"Black - End Stop Cover","id":"Black - End Stop Cover.stl id:0 copy 0","object_center":[123.131340,121.009995,0.000000],"boundingbox_center":[123.131340,121.009995,4.700001],"boundingbox_size":[60.000000,29.000004,9.400002]}
; object:{"name":"Black - End Stop Cover","id":"Black - End Stop Cover.stl id:1 copy 0","object_center":[126.868661,88.990006,0.000000],"boundingbox_center":[126.868661,88.990006,4.700001],"boundingbox_size":[60.000000,29.000004,9.400002]}
; Total objects to print: 2
M486 T2
; plater:{"center":[125.000000,105.000000,0.000000],"boundingbox_center":[125.000000,105.000000,4.700001],"boundingbox_size":[63.737321,61.019993,9.400002]}

M73 P0 R93
M73 Q0 S94
;TYPE:Custom
M862.3 P "MK3S" ; printer model check
M862.1 P0.4 ; nozzle diameter check
M115 U3.10.0 ; tell printer latest fw version
G90 ; use absolute coordinates
M83 ; extruder relative mode
M104 S255 ; set extruder temp
M140 S100 ; set bed temp
M190 S100 ; wait for bed temp
M109 S255 ; wait for extruder temp
G28 W ; home all without mesh bed level
G80 ; mesh bed leveling
G1 Y-3.0 F1000.0 ; go outside print area
G92 E0.0
G1 X60.0 E9.0 F1000.0 ; intro line
G1 X100.0 E12.5 F1000.0 ; intro line
G92 E0.0
M221 S95

; Don't change E values below. Excessive value can damage the printer.
M907 E430 ; set extruder motor current
M107
G21 ; set units to millimeters
G90 ; use absolute coordinates
M83 ; use relative distances for extrusion
M900 K0.04 ; Filament gcode LA 1.5
M900 K20 ; Filament gcode LA 1.0
M107
;LAYER_CHANGE
;Z:0.2
;HEIGHT:0.2
;BEFORE_LAYER_CHANGE
G92 E0.0
;0.2


M73 P0 R92
G1 E-0.8 F2100
G1 Z0.4 F10800
;AFTER_LAYER_CHANGE
;0.2
G1 Z0.6
M204 P1500
G1 X89.913 Y75.009
G1 Z0.2
G1 E0.8 F2100
;TYPE:Skirt
;WIDTH:0.42
G1 F1200
G1 X92.41 Y72.519 E0.11058
G1 X95.491 Y71.111 E0.1062
G1 X97.085 Y70.994 E0.05012
G1 X97.21 Y70.969 E0.004
G1 X97.598 Y70.91 E0.01229
G1 X98.563 Y70.804 E0.03044
G1 X99.08 Y70.775 E0.01624
G1 X102.517 Y70.774 E0.10778
G1 X102.886 Y70.789 E0.01158
G1 X103.88 Y70.867 E0.03126
G1 X104.47 Y70.951 E0.01868
G1 X104.581 Y70.973 E0.00353
G1 X129.341 Y70.974 E0.77636
G1 X130.007 Y70.309 E0.02951
G1 X130.438 Y69.928 E0.01804
G1 X131.878 Y68.802 E0.05732
G1 X132.622 Y68.326 E0.02768
G1 X134.478 Y67.368 E0.06549
G1 X135.195 Y67.07 E0.02436
G1 X137.182 Y66.43 E0.06544
G1 X138.045 Y66.239 E0.0277
G1 X139.868 Y66.012 E0.0576
G1 X140.447 Y65.975 E0.01821
G1 X145.217 Y65.971 E0.14956
G1 X145.842 Y65.878 E0.01979
G1 X146.237 Y65.837 E0.01246
G1 X147.082 Y65.784 E0.02656
G1 X147.379 Y65.775 E0.0093
G1 X149.294 Y65.775 E0.06006
G1 X149.87 Y65.811 E0.01809
G1 X150.527 Y65.892 E0.02076
G1 X151.154 Y65.969 E0.0198
G1 X151.662 Y66.06 E0.0162
G1 X152.725 Y66.312 E0.03423
G1 X153.57 Y66.598 E0.02798
G1 X155.279 Y67.365 E0.05875
G1 X155.566 Y67.505 E0.01001
G1 X157.177 Y68.362 E0.05722
G1 X157.859 Y68.804 E0.02547
G1 X159.28 Y69.911 E0.05647
G1 X159.717 Y70.297 E0.0183
G1 X163.25 Y73.828 E0.15662
G1 X164.282 Y75.373 E0.05825
G1 X165.022 Y77.158 E0.06059
G1 X165.384 Y78.98 E0.05822
G1 X165.384 Y99. E0.62773
G1 X165.022 Y100.822 E0.05822
G1 X164.283 Y102.606 E0.06058
G1 X163.251 Y104.151 E0.05822
G1 X160.176 Y107.225 E0.13633
G1 X161.502 Y110.106 E0.09945
G1 X161.625 Y111.725 E0.0509
G1 X161.644 Y111.828 E0.00327
G1 X161.692 Y112.128 E0.00953
G1 X161.81 Y113.076 E0.02997
G1 X161.847 Y113.674 E0.01877
G1 X161.836 Y117.913 E0.13291
G1 X161.723 Y118.929 E0.03206
G1 X161.656 Y119.233 E0.00977
G1 X161.647 Y119.859 E0.01963
G1 X161.649 Y122.744 E0.09048
G1 X161.716 Y123.037 E0.00943
G1 X161.834 Y124.07 E0.03258
G1 X161.848 Y128.324 E0.13337
G1 X161.812 Y128.917 E0.01862
G1 X161.695 Y129.872 E0.03019
G1 X161.646 Y130.179 E0.00974
G1 X161.629 Y130.271 E0.00292
G1 X161.515 Y131.868 E0.05019
G1 X160.114 Y134.951 E0.1062
G1 X157.629 Y137.454 E0.11059
G1 X154.554 Y138.876 E0.1062
G1 X152.936 Y139.002 E0.05089
G1 X152.79 Y139.031 E0.00469
G1 X152.402 Y139.09 E0.01229
G1 X151.437 Y139.196 E0.03044
G1 X150.92 Y139.225 E0.01624
G1 X147.483 Y139.226 E0.10778
G1 X147.114 Y139.211 E0.01158
G1 X146.12 Y139.133 E0.03126
G1 X145.53 Y139.049 E0.01868
G1 X145.419 Y139.027 E0.00353
G1 X120.659 Y139.026 E0.77636
G1 X119.993 Y139.691 E0.02951
G1 X119.562 Y140.072 E0.01804
G1 X118.122 Y141.198 E0.05732
G1 X117.378 Y141.674 E0.02768
G1 X115.522 Y142.632 E0.06549
G1 X114.805 Y142.93 E0.02436
G1 X112.818 Y143.57 E0.06544
G1 X111.955 Y143.761 E0.0277
G1 X110.132 Y143.988 E0.0576
G1 X109.553 Y144.025 E0.01821
G1 X104.783 Y144.029 E0.14956
G1 X104.158 Y144.122 E0.01979
G1 X103.763 Y144.163 E0.01246
G1 X102.919 Y144.216 E0.02652
G1 X102.625 Y144.225 E0.00923
G1 X100.723 Y144.226 E0.05963
G1 X100.149 Y144.191 E0.01802
G1 X98.853 Y144.032 E0.04096
G1 X98.34 Y143.94 E0.01634
G1 X97.322 Y143.699 E0.03281
G1 X96.562 Y143.45 E0.02506
G1 X95.717 Y143.091 E0.02879
G1 X95.587 Y143.033 E0.00447
G1 X94.652 Y142.603 E0.03226
G1 X94.41 Y142.483 E0.00846
G1 X92.823 Y141.637 E0.05639
G1 X92.141 Y141.195 E0.02547
G1 X90.72 Y140.089 E0.05647
G1 X90.283 Y139.703 E0.0183
G1 X86.75 Y136.172 E0.15662
G1 X85.718 Y134.627 E0.05825
G1 X84.978 Y132.842 E0.06059
G1 X84.616 Y131.02 E0.05822
G1 X84.616 Y111. E0.62774
G1 X84.978 Y109.178 E0.05822
G1 X85.717 Y107.393 E0.06058
G1 X86.749 Y105.849 E0.05822
G1 X89.818 Y102.781 E0.13606
G1 X88.485 Y99.848 E0.10103
G1 X88.371 Y98.253 E0.05013
G1 X88.356 Y98.172 E0.00256
G1 X88.308 Y97.872 E0.00953
G1 X88.19 Y96.924 E0.02997
G1 X88.153 Y96.326 E0.01877
G1 X88.164 Y92.087 E0.13291
G1 X88.277 Y91.071 E0.03206
G1 X88.344 Y90.767 E0.00977
G1 X88.353 Y90.141 E0.01963
G1 X88.351 Y87.256 E0.09048
G1 X88.284 Y86.963 E0.00943
G1 X88.166 Y85.93 E0.03258
G1 X88.152 Y81.676 E0.13337
G1 X88.188 Y81.083 E0.01862
G1 X88.305 Y80.128 E0.03019
G1 X88.354 Y79.821 E0.00974
G1 X88.375 Y79.707 E0.00363
G1 X88.498 Y78.086 E0.05096
G1 X89.888 Y75.064 E0.10431
G1 X90.058 Y75.146 F10800
M204 P1000
G1 X90.228 Y75.229
G1 F1200
G1 X92.629 Y72.833 E0.10634
G1 X95.586 Y71.482 E0.10195
G1 X97.135 Y71.368 E0.04871
G1 X97.275 Y71.341 E0.00446
G1 X97.647 Y71.284 E0.0118
G1 X98.594 Y71.18 E0.02987
G1 X99.09 Y71.152 E0.01559
G1 X102.51 Y71.152 E0.10723
G1 X102.864 Y71.165 E0.01112
G1 X103.839 Y71.242 E0.03066
G1 X104.405 Y71.322 E0.01793
G1 X104.542 Y71.351 E0.00437
G1 X129.498 Y71.352 E0.78247
G1 X130.266 Y70.584 E0.03405
G1 X130.679 Y70.218 E0.01732
G1 X132.097 Y69.11 E0.0564
G1 X132.81 Y68.653 E0.02657
G1 X134.637 Y67.71 E0.06445
G1 X135.326 Y67.424 E0.02338
G1 X137.281 Y66.795 E0.0644
G1 X138.109 Y66.611 E0.02659
G1 X139.903 Y66.387 E0.05669
G1 X140.459 Y66.353 E0.01748
G1 X145.245 Y66.348 E0.15006
G1 X145.889 Y66.252 E0.0204
G1 X146.268 Y66.213 E0.01196
G1 X147.1 Y66.161 E0.02612
G1 X147.384 Y66.152 E0.00893
G1 X149.282 Y66.152 E0.05951
G1 X149.835 Y66.186 E0.01736
G1 X150.481 Y66.266 E0.0204
G1 X151.097 Y66.342 E0.01948
G1 X151.586 Y66.43 E0.01555
G1 X152.62 Y66.674 E0.03334
G1 X153.432 Y66.949 E0.02686
G1 X155.119 Y67.706 E0.05799
G1 X155.395 Y67.841 E0.00961
G1 X156.985 Y68.688 E0.05651
G1 X157.64 Y69.112 E0.02445
G1 X159.039 Y70.201 E0.0556
G1 X159.459 Y70.572 E0.01757
G1 X162.957 Y74.069 E0.15508
G1 X163.948 Y75.552 E0.05592
G1 X164.659 Y77.268 E0.05826
G1 X165.007 Y79.017 E0.05589
G1 X165.007 Y98.963 E0.62541
G1 X164.659 Y100.712 E0.05589
G1 X163.948 Y102.428 E0.05825
G1 X162.958 Y103.91 E0.0559
G1 X159.696 Y107.172 E0.14465
G1 X159.772 Y107.249 E0.00338
G1 X161.131 Y110.202 E0.10195
G1 X161.25 Y111.775 E0.04945
G1 X161.273 Y111.892 E0.00375
G1 X161.318 Y112.18 E0.00914
G1 X161.435 Y113.111 E0.0294
G1 X161.47 Y113.685 E0.01802
G1 X161.459 Y117.891 E0.13189
G1 X161.351 Y118.867 E0.03078
G1 X161.279 Y119.189 E0.01034
G1 X161.27 Y119.856 E0.02093
G1 X161.272 Y122.787 E0.09189
G1 X161.344 Y123.101 E0.0101
G1 X161.457 Y124.092 E0.03128
G1 X161.471 Y128.313 E0.13235
G1 X161.437 Y128.882 E0.01788
G1 X161.321 Y129.82 E0.02962
G1 X161.275 Y130.115 E0.00935
G1 X161.254 Y130.222 E0.00342
G1 X161.144 Y131.773 E0.04876
G1 X159.799 Y134.734 E0.10196
G1 X157.409 Y137.14 E0.10635
G1 X154.457 Y138.505 E0.10196
G1 X152.885 Y138.628 E0.04944
G1 X152.725 Y138.659 E0.00512
G1 X152.353 Y138.716 E0.0118
G1 X151.406 Y138.82 E0.02987
G1 X150.91 Y138.848 E0.01559
G1 X147.49 Y138.848 E0.10723
G1 X147.136 Y138.835 E0.01112
G1 X146.161 Y138.758 E0.03066
G1 X145.595 Y138.678 E0.01793
G1 X145.458 Y138.649 E0.00437
G1 X120.502 Y138.648 E0.78247
G1 X119.734 Y139.416 E0.03405
G1 X119.321 Y139.782 E0.01732
G1 X117.903 Y140.89 E0.0564
G1 X117.19 Y141.347 E0.02657
G1 X115.363 Y142.29 E0.06445
G1 X114.674 Y142.576 E0.02338
G1 X112.719 Y143.205 E0.0644
G1 X111.891 Y143.389 E0.02659
G1 X110.097 Y143.613 E0.05669
G1 X109.541 Y143.647 E0.01748
G1 X104.755 Y143.652 E0.15006
G1 X104.111 Y143.748 E0.0204
G1 X103.732 Y143.787 E0.01196
G1 X102.901 Y143.839 E0.02609
G1 X102.619 Y143.848 E0.00886
G1 X100.735 Y143.848 E0.05908
G1 X100.184 Y143.815 E0.0173
G1 X98.909 Y143.659 E0.04027
G1 X98.417 Y143.571 E0.01568
G1 X97.424 Y143.336 E0.03198
G1 X96.695 Y143.097 E0.02406
G1 X95.867 Y142.745 E0.0282
G1 X95.742 Y142.69 E0.00429
G1 X94.815 Y142.262 E0.03201
G1 X94.583 Y142.147 E0.00812
G1 X93.014 Y141.312 E0.05572
G1 X92.36 Y140.888 E0.02445
G1 X90.961 Y139.799 E0.05559
G1 X90.541 Y139.428 E0.01757
G1 X87.043 Y135.931 E0.15508
G1 X86.052 Y134.448 E0.05592
G1 X85.341 Y132.732 E0.05826
G1 X84.993 Y130.983 E0.0559
G1 X84.993 Y111.037 E0.62541
G1 X85.341 Y109.288 E0.0559
G1 X86.052 Y107.572 E0.05825
G1 X87.042 Y106.09 E0.05589
G1 X90.309 Y102.823 E0.14488
G1 X90.201 Y102.714 E0.00481
G1 X88.856 Y99.753 E0.10196
G1 X88.746 Y98.204 E0.04871
G1 X88.727 Y98.108 E0.00307
G1 X88.682 Y97.82 E0.00915
G1 X88.565 Y96.889 E0.0294
G1 X88.53 Y96.315 E0.01802
G1 X88.541 Y92.109 E0.13189
G1 X88.649 Y91.133 E0.03078
G1 X88.721 Y90.811 E0.01034
G1 X88.73 Y90.144 E0.02093
G1 X88.728 Y87.213 E0.09189
G1 X88.656 Y86.899 E0.0101
G1 X88.543 Y85.908 E0.03128
G1 X88.529 Y81.687 E0.13235
G1 X88.563 Y81.118 E0.01788
G1 X88.679 Y80.18 E0.02962
G1 X88.725 Y79.885 E0.00935
G1 X88.75 Y79.757 E0.0041
G1 X88.869 Y78.183 E0.0495
G1 X90.203 Y75.283 E0.10007
M204 P1500
G1 X90.372 Y75.365 F10800
M204 P1000
G1 X90.542 Y75.448
G1 F1200
G1 X92.847 Y73.148 E0.10209
G1 X95.681 Y71.853 E0.0977
G1 X97.186 Y71.743 E0.0473
G1 X97.34 Y71.713 E0.00493
G1 X97.696 Y71.658 E0.01131
G1 X98.625 Y71.555 E0.0293
G1 X99.101 Y71.529 E0.01494
M73 Q0 S93
G1 X102.503 Y71.529 E0.10667
G1 X102.842 Y71.542 E0.01065
G1 X103.798 Y71.617 E0.03005
G1 X104.34 Y71.694 E0.01719
G1 X104.503 Y71.728 E0.00521
G1 X129.564 Y71.729 E0.78576
G1 X129.6 Y71.724 E0.00113
G1 X129.646 Y71.709 E0.00152
G1 X129.689 Y71.687 E0.00152
G1 X129.718 Y71.665 E0.00114
G1 X130.524 Y70.858 E0.03576
G1 X130.921 Y70.508 E0.0166
G1 X132.315 Y69.418 E0.05549
G1 X132.999 Y68.98 E0.02546
G1 X134.796 Y68.053 E0.06341
G1 X135.456 Y67.778 E0.02241
G1 X137.379 Y67.159 E0.06336
G1 X138.173 Y66.983 E0.02549
G1 X139.938 Y66.763 E0.05577
G1 X140.471 Y66.73 E0.01675
G1 X145.273 Y66.725 E0.15056
G1 X145.936 Y66.627 E0.02102
G1 X146.3 Y66.588 E0.01146
G1 X147.117 Y66.537 E0.02569
G1 X147.39 Y66.529 E0.00855
G1 X149.271 Y66.529 E0.05897
G1 X149.8 Y66.562 E0.01664
G1 X150.435 Y66.64 E0.02004
G1 X151.041 Y66.715 E0.01915
G1 X151.509 Y66.799 E0.0149
G1 X152.516 Y67.037 E0.03246
G1 X153.294 Y67.301 E0.02574
G1 X154.959 Y68.047 E0.05723
G1 X155.223 Y68.177 E0.00921
G1 X156.794 Y69.013 E0.0558
G1 X157.421 Y69.42 E0.02343
G1 X158.798 Y70.492 E0.05472
G1 X159.201 Y70.847 E0.01684
G1 X162.664 Y74.309 E0.15355
G1 X163.614 Y75.73 E0.05359
G1 X164.297 Y77.378 E0.05593
G1 X164.63 Y79.054 E0.05356
G1 X164.63 Y98.926 E0.62308
G1 X164.297 Y100.602 E0.05356
G1 X163.614 Y102.249 E0.05592
G1 X162.665 Y103.67 E0.05357
G1 X159.213 Y107.122 E0.15306
G1 X159.159 Y107.17 E0.00227
G1 X159.458 Y107.468 E0.01324
G1 X160.76 Y110.299 E0.0977
G1 X160.876 Y111.825 E0.048
G1 X160.901 Y111.957 E0.00423
G1 X160.945 Y112.233 E0.00876
G1 X161.059 Y113.146 E0.02884
G1 X161.093 Y113.696 E0.01727
G1 X161.082 Y117.87 E0.13088
G1 X160.978 Y118.805 E0.02949
G1 X160.903 Y119.145 E0.01092
G1 X160.893 Y119.854 E0.02224
G1 X160.895 Y122.829 E0.0933
G1 X160.971 Y123.164 E0.01077
G1 X161.08 Y124.114 E0.02998
G1 X161.094 Y128.302 E0.13132
G1 X161.061 Y128.848 E0.01713
G1 X160.948 Y129.768 E0.02905
G1 X160.903 Y130.05 E0.00896
G1 X160.88 Y130.173 E0.00392
G1 X160.773 Y131.679 E0.04733
G1 X159.484 Y134.516 E0.09771
G1 X157.189 Y136.826 E0.1021
G1 X154.361 Y138.134 E0.09771
G1 X152.834 Y138.253 E0.048
G1 X152.66 Y138.287 E0.00556
G1 X152.304 Y138.342 E0.01131
G1 X151.375 Y138.445 E0.0293
G1 X150.899 Y138.471 E0.01494
G1 X147.497 Y138.471 E0.10667
G1 X147.158 Y138.458 E0.01065
G1 X146.202 Y138.383 E0.03005
G1 X145.66 Y138.306 E0.01719
G1 X145.497 Y138.272 E0.00521
G1 X120.436 Y138.271 E0.78576
G1 X120.4 Y138.276 E0.00113
G1 X120.354 Y138.291 E0.00152
G1 X120.311 Y138.313 E0.00152
G1 X120.282 Y138.335 E0.00114
G1 X119.476 Y139.142 E0.03576
G1 X119.079 Y139.492 E0.0166
G1 X117.685 Y140.582 E0.05549
G1 X117.001 Y141.02 E0.02546
G1 X115.204 Y141.947 E0.06341
G1 X114.544 Y142.222 E0.02241
G1 X112.621 Y142.841 E0.06336
G1 X111.827 Y143.017 E0.02549
G1 X110.062 Y143.237 E0.05577
G1 X109.529 Y143.27 E0.01675
G1 X104.727 Y143.275 E0.15056
G1 X104.064 Y143.373 E0.02102
G1 X103.7 Y143.412 E0.01146
G1 X102.884 Y143.463 E0.02566
G1 X102.613 Y143.471 E0.00849
G1 X100.746 Y143.471 E0.05854
G1 X100.218 Y143.439 E0.01658
G1 X98.965 Y143.286 E0.03959
G1 X98.493 Y143.202 E0.01503
G1 X97.526 Y142.973 E0.03116
G1 X96.828 Y142.744 E0.02305
G1 X96.017 Y142.399 E0.02761
G1 X95.897 Y142.346 E0.00411
G1 X94.978 Y141.922 E0.03175
G1 X94.755 Y141.812 E0.00778
G1 X93.206 Y140.987 E0.05504
G1 X92.579 Y140.58 E0.02343
G1 X91.202 Y139.508 E0.05472
G1 X90.799 Y139.153 E0.01684
G1 X87.336 Y135.691 E0.15355
G1 X86.386 Y134.27 E0.05359
G1 X85.703 Y132.622 E0.05593
G1 X85.37 Y130.946 E0.05357
G1 X85.37 Y111.074 E0.62308
G1 X85.703 Y109.398 E0.05357
G1 X86.386 Y107.751 E0.05592
G1 X87.335 Y106.33 E0.05356
G1 X90.787 Y102.878 E0.15306
G1 X90.845 Y102.827 E0.00244
G1 X90.516 Y102.496 E0.01462
G1 X89.227 Y99.659 E0.09771
G1 X89.12 Y98.155 E0.04728
G1 X89.099 Y98.043 E0.00358
G1 X89.055 Y97.767 E0.00876
G1 X88.941 Y96.854 E0.02884
G1 X88.907 Y96.304 E0.01727
G1 X88.918 Y92.13 E0.13088
G1 X89.022 Y91.195 E0.02949
G1 X89.097 Y90.855 E0.01092
G1 X89.107 Y90.146 E0.02224
G1 X89.105 Y87.171 E0.0933
G1 X89.029 Y86.836 E0.01077
G1 X88.92 Y85.886 E0.02998
G1 X88.906 Y81.698 E0.13132
G1 X88.939 Y81.152 E0.01713
G1 X89.052 Y80.232 E0.02905
G1 X89.097 Y79.95 E0.00896
G1 X89.124 Y79.807 E0.00457
G1 X89.24 Y78.279 E0.04805
G1 X90.517 Y75.502 E0.09582
M204 P1500
G1 X90.687 Y75.585 F10800
M204 P1000
G1 X90.856 Y75.667
G1 F1200
G1 X93.065 Y73.463 E0.09784
G1 X95.776 Y72.224 E0.09345
G1 X97.236 Y72.117 E0.04588
G1 X97.405 Y72.084 E0.00539
G1 X97.745 Y72.032 E0.01081
G1 X98.656 Y71.931 E0.02872
G1 X99.111 Y71.906 E0.01429
G1 X102.495 Y71.906 E0.10611
G1 X102.82 Y71.918 E0.01019
G1 X103.756 Y71.992 E0.02944
G1 X104.276 Y72.066 E0.01644
G1 X104.464 Y72.105 E0.00605
G1 X129.587 Y72.106 E0.78769
G1 X129.681 Y72.094 E0.00297
G1 X129.791 Y72.059 E0.00361
G1 X129.893 Y72.006 E0.00361
G1 X129.968 Y71.948 E0.00298
G1 X130.783 Y71.133 E0.03612
G1 X131.162 Y70.798 E0.01588
G1 X132.533 Y69.726 E0.05457
G1 X133.187 Y69.307 E0.02435
G1 X134.955 Y68.395 E0.06237
G1 X135.586 Y68.133 E0.02143
G1 X137.478 Y67.523 E0.06231
G1 X138.237 Y67.355 E0.02438
G1 X139.973 Y67.139 E0.05485
G1 X140.483 Y67.107 E0.01602
G1 X145.301 Y67.102 E0.15106
G1 X145.983 Y67.001 E0.02163
G1 X146.331 Y66.964 E0.01096
G1 X147.135 Y66.914 E0.02525
G1 X147.396 Y66.906 E0.00818
G1 X149.259 Y66.907 E0.05842
G1 X149.766 Y66.938 E0.01592
G1 X150.389 Y67.015 E0.01968
G1 X150.985 Y67.088 E0.01883
G1 X151.432 Y67.168 E0.01426
