; generated by SuperSlicer 2.3.57 on 2022-03-19 at 13:48:57 UTC

; 

; external perimeters extrusion width = 0.45mm
; perimeters extrusion width = 0.45mm
; infill extrusion width = 0.45mm
; solid infill extrusion width = 0.45mm
; top infill extrusion width = 0.40mm
; first layer extrusion width = 0.42mm

; object:{"name":"Gray - Clamp","id":"Gray - Clamp.stl id:0 copy 0","object_center":[125.000000,121.000000,0.000000],"boundingbox_center":[125.000000,121.000000,2.500000],"boundingbox_size":[20.000000,26.000000,5.000000]}
; object:{"name":"Gray - Clamp","id":"Gray - Clamp.stl id:0 copy 1","object_center":[99.000000,121.000000,0.000000],"boundingbox_center":[99.000000,121.000000,2.500000],"boundingbox_size":[20.000000,26.000000,5.000000]}
; object:{"name":"Gray - Clamp","id":"Gray - Clamp.stl id:0 copy 2","object_center":[125.000000,89.000000,0.000000],"boundingbox_center":[125.000000,89.000000,2.500000],"boundingbox_size":[20.000000,26.000000,5.000000]}
; object:{"name":"Gray - Clamp","id":"Gray - Clamp.stl id:0 copy 3","object_center":[99.000000,89.000000,0.000000],"boundingbox_center":[99.000000,89.000000,2.500000],"boundingbox_size":[20.000000,26.000000,5.000000]}
; object:{"name":"Gray - Clamp","id":"Gray - Clamp.stl id:0 copy 4","object_center":[151.000000,121.000000,0.000000],"boundingbox_center":[151.000000,121.000000,2.500000],"boundingbox_size":[20.000000,26.000000,5.000000]}
; object:{"name":"Gray - Clamp","id":"Gray - Clamp.stl id:0 copy 5","object_center":[151.000000,89.000000,0.000000],"boundingbox_center":[151.000000,89.000000,2.500000],"boundingbox_size":[20.000000,26.000000,5.000000]}
; Total objects to print: 6
M486 T6
; plater:{"center":[125.000000,105.000000,0.000000],"boundingbox_center":[125.000000,105.000000,2.500000],"boundingbox_size":[72.000000,58.000000,5.000000]}

M73 P0 R56
M73 Q0 S56
;TYPE:Custom
M862.3 P "MK3S" ; printer model check
M862.1 P0.4 ; nozzle diameter check
M115 U3.10.0 ; tell printer latest fw version
G90 ; use absolute coordinates
M83 ; extruder relative mode
M104 S215 ; set extruder temp
M140 S60 ; set bed temp
M190 S60 ; wait for bed temp
M109 S215 ; wait for extruder temp
G28 W ; home all without mesh bed level
G80 ; mesh bed leveling
G1 Y-3.0 F1000.0 ; go outside print area
G92 E0.0
G1 X60.0 E9.0 F1000.0 ; intro line
G1 X100.0 E12.5 F1000.0 ; intro line
G92 E0.0
M221 S95

; Don't change E values below. Excessive value can damage the printer.
M907 E430 ; set extruder motor current
M107
G21 ; set units to millimeters
G90 ; use absolute coordinates
M83 ; use relative distances for extrusion
M900 K0.05 ; Filament gcode LA 1.5
M900 K30 ; Filament gcode LA 1.0
;LAYER_CHANGE
;Z:0.2
;HEIGHT:0.2
;BEFORE_LAYER_CHANGE
G92 E0.0
;0.2


G1 E-0.8 F2100
G1 Z0.4 F10800
;AFTER_LAYER_CHANGE
;0.2
G1 Z0.6
M204 P1500
G1 X86.976 Y75.851
G1 Z0.2
G1 E0.8 F2100
;TYPE:Skirt
;WIDTH:0.45
G1 F1200
G1 X86.659 Y76.344 E0.01982
G1 X86.46 Y76.899 E0.01995
G1 X86.389 Y77.48 E0.01982
G1 X86.39 Y131.027 E1.81249
G1 X86.535 Y131.86 E0.02865
G1 X86.94 Y132.604 E0.02865
G1 X90.355 Y136.027 E0.16365
G1 X91.067 Y136.438 E0.02785
G1 X91.876 Y136.608 E0.02799
G1 X158.023 Y136.611 E2.23897
M73 P0 R55
G1 X158.86 Y136.465 E0.02879
G1 X159.604 Y136.06 E0.02865
G1 X163.037 Y132.633 E0.16419
G1 X163.452 Y131.896 E0.02865
G1 X163.61 Y131.06 E0.02879
G1 X163.608 Y77.379 E1.81703
G1 X163.537 Y76.886 E0.01686
G1 X163.376 Y76.419 E0.01673
G1 X163.13 Y75.99 E0.01673
G1 X162.804 Y75.613 E0.01686
G1 X162.413 Y75.305 E0.01686
G1 X161.974 Y75.078 E0.01673
G1 X161.5 Y74.938 E0.01673
G1 X161.004 Y74.889 E0.01686
G1 X88.979 Y74.889 E2.43797
G1 X88.141 Y75.035 E0.02879
G1 X87.394 Y75.442 E0.02879
G1 X87.019 Y75.809 E0.01779
G1 X87.16 Y75.954 F10800
M204 P1000
G1 X87.3 Y76.099
G1 F1200
G1 X87.025 Y76.523 E0.01712
G1 X86.856 Y76.991 E0.01685
G1 X86.797 Y77.485 E0.01685
G1 X86.797 Y131.018 E1.81202
G1 X86.917 Y131.72 E0.0241
G1 X87.258 Y132.349 E0.02422
G1 X90.593 Y135.696 E0.15995
G1 X91.204 Y136.055 E0.02398
G1 X91.897 Y136.201 E0.02398
G1 X158.014 Y136.203 E2.23798
G1 X158.72 Y136.083 E0.02422
G1 X159.349 Y135.742 E0.02422
G1 X162.701 Y132.401 E0.1602
G1 X163.064 Y131.772 E0.02459
G1 X163.203 Y131.059 E0.02459
G1 X163.202 Y77.413 E1.81585
G1 X163.01 Y76.597 E0.02838
G1 X162.527 Y75.911 E0.02838
G1 X161.826 Y75.457 E0.02826
G1 X161.004 Y75.296 E0.02838
G1 X88.986 Y75.297 E2.43771
M73 P1 R55
M73 Q1 S55
G1 X88.281 Y75.417 E0.02422
G1 X87.651 Y75.758 E0.02422
G1 X87.343 Y76.057 E0.01453
; INIT printing object Gray - Clamp.stl id:0 copy 0
;WIPE_START
G1 F8640
G1 X87.294 Y76.105 E-0.01577
G1 X87.025 Y76.523 E-0.11492
G1 X86.856 Y76.991 E-0.11492
G1 X86.797 Y77.485 E-0.11492
G1 X86.797 Y79.215 E-0.39947
;WIPE_END
G1 E-0.04 F2100
G1 Z0.6 F10800
; printing object Gray - Clamp.stl id:0 copy 0
M486 S0
M204 P1500
G1 X104.936 Y95.143
M204 P1000
G1 X122.529 Y114.229
G1 Z0.2
G1 E0.8 F2100
;TYPE:Internal perimeter
;WIDTH:0.42
G1 F1200
G1 X121.974 Y114.953 E0.0286
G1 X121.625 Y115.796 E0.0286
G1 X121.513 Y116.648 E0.02697
G1 X121.513 Y128.052 E0.35754
G1 X121.625 Y128.904 E0.02697
G1 X121.974 Y129.747 E0.0286
G1 X122.529 Y130.471 E0.0286
G1 X123.253 Y131.026 E0.0286
G1 X124.096 Y131.375 E0.0286
G1 X125 Y131.494 E0.0286
G1 X125.904 Y131.375 E0.0286
G1 X126.747 Y131.026 E0.0286
G1 X127.471 Y130.471 E0.0286
G1 X128.026 Y129.747 E0.0286
G1 X128.375 Y128.904 E0.0286
G1 X128.487 Y128.052 E0.02697
G1 X128.487 Y116.648 E0.35754
G1 X128.375 Y115.796 E0.02697
G1 X128.026 Y114.953 E0.0286
G1 X127.471 Y114.229 E0.0286
G1 X126.747 Y113.674 E0.0286
G1 X125.904 Y113.325 E0.0286
G1 X125. Y113.206 E0.0286
G1 X124.548 Y113.266 E0.0143
G1 X124.096 Y113.325 E0.0143
G1 X123.253 Y113.674 E0.0286
G1 X122.577 Y114.193 E0.02672
M204 P1500
G1 X122.692 Y114.343 F10800
M204 P1000
G1 X122.807 Y114.492
;TYPE:External perimeter
G1 F1200
G1 X122.304 Y115.143 E0.0258
G1 X121.993 Y115.894 E0.02548
G1 X121.89 Y116.673 E0.02463
G1 X121.89 Y128.027 E0.35599
G1 X121.993 Y128.806 E0.02463
G1 X122.304 Y129.557 E0.02548
G1 X122.798 Y130.202 E0.02548
G1 X123.443 Y130.696 E0.02548
G1 X124.194 Y131.007 E0.02548
G1 X125 Y131.114 E0.02548
G1 X125.806 Y131.007 E0.02548
G1 X126.557 Y130.696 E0.02548
G1 X127.202 Y130.202 E0.02548
G1 X127.696 Y129.557 E0.02548
G1 X128.007 Y128.806 E0.02548
G1 X128.11 Y128.027 E0.02463
G1 X128.11 Y116.673 E0.35599
G1 X128.007 Y115.894 E0.02463
G1 X127.696 Y115.143 E0.02548
G1 X127.202 Y114.498 E0.02548
G1 X126.557 Y114.004 E0.02548
G1 X125.806 Y113.693 E0.02548
G1 X125 Y113.586 E0.02548
G1 X124.597 Y113.64 E0.01274
G1 X124.194 Y113.693 E0.01274
G1 X123.443 Y114.004 E0.02548
G1 X122.854 Y114.456 E0.02328
G1 X122.797 Y114.488 F10800
;WIPE_START
G1 F8640
G1 X122.798 Y114.498 E-0.01625
G1 X122.304 Y115.143 E-0.18768
G1 X121.993 Y115.894 E-0.18768
G1 X121.89 Y116.673 E-0.18142
G1 X121.89 Y117.483 E-0.18698
;WIPE_END
G1 E-0.04 F2100
G1 Z0.6 F10800
M204 P1500
G1 X122.854 Y112.371
M204 P1000
G1 X122.854 Y110.287
G1 Z0.2
G1 E0.8 F2100
;TYPE:Internal perimeter
G1 F1200
G1 X134.213 Y110.287 E0.35614
G1 X134.213 Y130.674 E0.63922
G1 X131.674 Y133.213 E0.11258
G1 X118.326 Y133.213 E0.41852
G1 X115.787 Y130.674 E0.11258
G1 X115.787 Y110.287 E0.63922
G1 X122.794 Y110.287 E0.2197
M204 P1500
G1 X122.794 Y110.099 F10800
M204 P1000
G1 X122.794 Y109.91
;TYPE:External perimeter
G1 F1200
G1 X134.59 Y109.91 E0.36985
G1 X134.59 Y130.83 E0.65594
G1 X131.83 Y133.59 E0.12238
G1 X118.17 Y133.59 E0.42831
G1 X115.41 Y130.83 E0.12238
G1 X115.41 Y109.91 E0.65594
G1 X122.734 Y109.91 E0.22965
G1 X122.994 Y110.256 F10800
;WIPE_START
G1 F8640
G1 X126.026 Y109.91 E-0.76
;WIPE_END
G1 E-0.04 F2100
G1 Z0.6 F10800
M204 P1500
G1 X128.036 Y110.155
M204 P1000
G1 X133.338 Y110.4
G1 Z0.2
G1 E0.8 F2100
;TYPE:Solid infill
;WIDTH:0.422122
G1 F1200
G1 X133.938 Y111. E0.02674
G1 X133.938 Y111.534 E0.0168
G1 X132.966 Y110.562 E0.04328
G1 X132.433 Y110.562 E0.0168
G1 X133.938 Y112.067 E0.06705
G1 X133.938 Y112.6 E0.0168
G1 X131.9 Y110.562 E0.09082
G1 X131.367 Y110.562 E0.0168
G1 X133.938 Y113.133 E0.11458
G1 X133.938 Y113.667 E0.0168
G1 X130.833 Y110.562 E0.13835
G1 X130.3 Y110.562 E0.0168
G1 X133.938 Y114.2 E0.16211
G1 X133.938 Y114.733 E0.0168
G1 X129.767 Y110.562 E0.18588
G1 X129.234 Y110.562 E0.0168
G1 X133.938 Y115.266 E0.20964
G1 X133.938 Y115.8 E0.0168
G1 X128.7 Y110.562 E0.23341
G1 X128.167 Y110.562 E0.0168
G1 X133.938 Y116.333 E0.25717
G1 X133.938 Y116.866 E0.0168
G1 X127.634 Y110.562 E0.28094
G1 X127.1 Y110.562 E0.0168
G1 X133.938 Y117.4 E0.30471
G1 X133.938 Y117.933 E0.0168
G1 X126.567 Y110.562 E0.32847
G1 X126.034 Y110.562 E0.0168
G1 X133.938 Y118.466 E0.35224
G1 X133.938 Y118.999 E0.0168
G1 X125.501 Y110.562 E0.376
G1 X124.967 Y110.562 E0.0168
G1 X133.938 Y119.533 E0.39977
G1 X133.938 Y120.066 E0.0168
G1 X124.434 Y110.562 E0.42353
G1 X123.901 Y110.562 E0.0168
G1 X126.692 Y113.354 E0.12439
G1 X125.976 Y113.057 E0.02442
G1 X125.845 Y113.04 E0.00417
G1 X123.368 Y110.562 E0.11041
G1 X122.834 Y110.562 E0.0168
G1 X125.231 Y112.959 E0.10681
G1 X125. Y112.929 E0.00734
G1 X124.706 Y112.967 E0.00935
G1 X122.301 Y110.562 E0.10718
G1 X121.768 Y110.562 E0.0168
G1 X124.235 Y113.029 E0.10994
G1 X124.024 Y113.057 E0.0067
G1 X123.815 Y113.143 E0.00711
G1 X121.234 Y110.562 E0.11502
G1 X120.701 Y110.562 E0.0168
G1 X123.438 Y113.3 E0.12199
G1 X123.114 Y113.434 E0.01106
G1 X123.072 Y113.466 E0.00168
G1 X120.168 Y110.562 E0.12942
G1 X119.635 Y110.562 E0.0168
G1 X122.77 Y113.698 E0.13974
G1 X122.468 Y113.929 E0.01199
G1 X119.101 Y110.562 E0.15005
G1 X118.568 Y110.562 E0.0168
G1 X122.205 Y114.2 E0.1621
G1 X121.974 Y114.501 E0.01199
G1 X118.035 Y110.562 E0.17555
G1 X117.502 Y110.562 E0.0168
G1 X121.742 Y114.803 E0.18899
G1 X121.734 Y114.814 E0.00044
G1 X121.583 Y115.177 E0.01239
G1 X116.968 Y110.562 E0.20567
G1 X116.435 Y110.562 E0.0168
G1 X121.427 Y115.554 E0.22248
G1 X121.357 Y115.724 E0.00578
G1 X121.323 Y115.983 E0.00825
G1 X116.062 Y110.723 E0.23444
G1 X116.062 Y111.256 E0.0168
G1 X121.261 Y116.455 E0.23167
G1 X121.238 Y116.63 E0.00559
G1 X121.238 Y116.965 E0.01054
G1 X116.062 Y111.789 E0.23064
G1 X116.062 Y112.323 E0.0168
G1 X121.238 Y117.498 E0.23064
G1 X121.238 Y118.031 E0.0168
G1 X116.062 Y112.856 E0.23064
G1 X116.062 Y113.389 E0.0168
G1 X121.238 Y118.565 E0.23064
G1 X121.238 Y119.098 E0.0168
G1 X116.062 Y113.922 E0.23064
G1 X116.062 Y114.456 E0.0168
G1 X121.238 Y119.631 E0.23064
G1 X121.238 Y120.164 E0.0168
G1 X116.062 Y114.989 E0.23064
G1 X116.062 Y115.522 E0.0168
G1 X121.238 Y120.698 E0.23064
G1 X121.238 Y121.231 E0.0168
G1 X116.062 Y116.056 E0.23064
G1 X116.062 Y116.589 E0.0168
G1 X121.238 Y121.764 E0.23064
G1 X121.238 Y122.297 E0.0168
G1 X116.062 Y117.122 E0.23064
G1 X116.062 Y117.655 E0.0168
G1 X121.238 Y122.831 E0.23064
G1 X121.238 Y123.364 E0.0168
G1 X116.062 Y118.189 E0.23064
G1 X116.062 Y118.722 E0.0168
G1 X121.238 Y123.897 E0.23064
G1 X121.238 Y124.431 E0.0168
G1 X116.062 Y119.255 E0.23064
G1 X116.062 Y119.788 E0.0168
G1 X121.238 Y124.964 E0.23064
G1 X121.238 Y125.497 E0.0168
G1 X116.062 Y120.322 E0.23064
M73 P2 R55
M73 Q2 S55
G1 X116.062 Y120.855 E0.0168
G1 X121.238 Y126.03 E0.23064
G1 X121.238 Y126.564 E0.0168
G1 X116.062 Y121.388 E0.23064
G1 X116.062 Y121.922 E0.0168
G1 X121.238 Y127.097 E0.23064
G1 X121.238 Y127.63 E0.0168
G1 X116.062 Y122.455 E0.23064
G1 X116.062 Y122.988 E0.0168
G1 X121.252 Y128.178 E0.23128
G1 X121.333 Y128.792 E0.01952
G1 X116.062 Y123.521 E0.23488
G1 X116.062 Y124.055 E0.0168
G1 X122.086 Y130.078 E0.26844
;WIPE_START
G1 F8640
G1 X119.758 Y127.751 E-0.76
;WIPE_END
G1 E-0.04 F2100
G1 Z0.6 F10800
M204 P1500
G1 X124.924 Y122.251
M204 P1000
G1 X127.762 Y114.423
G1 Z0.2
G1 E0.8 F2100
G1 F1200
G1 X133.938 Y120.599 E0.27523
G1 X133.938 Y121.132 E0.0168
G1 X128.66 Y115.855 E0.23519
G1 X128.741 Y116.469 E0.01952
G1 X133.938 Y121.666 E0.23159
G1 X133.938 Y122.199 E0.0168
G1 X128.762 Y117.024 E0.23064
M73 P2 R54
G1 X128.762 Y117.557 E0.0168
G1 X133.938 Y122.732 E0.23064
G1 X133.938 Y123.266 E0.0168
G1 X128.762 Y118.09 E0.23064
G1 X128.762 Y118.623 E0.0168
G1 X133.938 Y123.799 E0.23064
G1 X133.938 Y124.332 E0.0168
G1 X128.762 Y119.157 E0.23064
G1 X128.762 Y119.69 E0.0168
G1 X133.938 Y124.865 E0.23064
G1 X133.938 Y125.399 E0.0168
G1 X128.762 Y120.223 E0.23064
G1 X128.762 Y120.757 E0.0168
G1 X133.938 Y125.932 E0.23064
G1 X133.938 Y126.465 E0.0168
G1 X128.762 Y121.29 E0.23064
G1 X128.762 Y121.823 E0.0168
G1 X133.938 Y126.998 E0.23064
G1 X133.938 Y127.532 E0.0168
G1 X128.762 Y122.356 E0.23064
G1 X128.762 Y122.89 E0.0168
G1 X133.938 Y128.065 E0.23064
G1 X133.938 Y128.598 E0.0168
G1 X128.762 Y123.423 E0.23064
G1 X128.762 Y123.956 E0.0168
G1 X133.938 Y129.131 E0.23064
G1 X133.938 Y129.665 E0.0168
G1 X128.762 Y124.489 E0.23064
G1 X128.762 Y125.023 E0.0168
G1 X133.938 Y130.198 E0.23064
G1 X133.938 Y130.56 E0.01141
G1 X133.852 Y130.646 E0.00382
G1 X128.762 Y125.556 E0.22682
G1 X128.762 Y126.089 E0.0168
G1 X133.585 Y130.912 E0.21494
G1 X133.319 Y131.179 E0.01188
G1 X128.762 Y126.623 E0.20306
G1 X128.762 Y127.156 E0.0168
G1 X133.052 Y131.446 E0.19118
G1 X132.785 Y131.712 E0.01188
G1 X128.762 Y127.689 E0.17929
G1 X128.762 Y128.07 E0.01199
G1 X128.745 Y128.205 E0.00429
G1 X132.519 Y131.979 E0.1682
G1 X132.252 Y132.245 E0.01188
G1 X128.683 Y128.676 E0.15908
G1 X128.643 Y128.976 E0.00955
G1 X128.586 Y129.113 E0.00466
G1 X131.986 Y132.512 E0.15149
G1 X131.719 Y132.779 E0.01188
G1 X128.43 Y129.49 E0.14657
G1 X128.274 Y129.867 E0.01286
G1 X131.345 Y132.938 E0.13685
G1 X130.811 Y132.938 E0.0168
G1 X128.046 Y130.173 E0.12323
G1 X127.815 Y130.474 E0.01199
G1 X130.278 Y132.938 E0.10978
G1 X129.745 Y132.938 E0.0168
G1 X127.558 Y130.751 E0.09747
G1 X127.256 Y130.982 E0.01199
G1 X129.212 Y132.938 E0.08715
G1 X128.678 Y132.938 E0.0168
G1 X126.954 Y131.214 E0.07683
G1 X126.886 Y131.266 E0.00272
G1 X126.594 Y131.387 E0.00994
G1 X128.145 Y132.938 E0.06911
G1 X127.612 Y132.938 E0.0168
G1 X126.217 Y131.543 E0.06215
G1 X125.976 Y131.643 E0.00822
G1 X125.806 Y131.665 E0.0054
G1 X127.078 Y132.938 E0.0567
G1 X126.545 Y132.938 E0.0168
G1 X125.335 Y131.727 E0.05394
G1 X125 Y131.771 E0.01064
G1 X124.822 Y131.748 E0.00565
G1 X126.012 Y132.938 E0.05301
G1 X125.479 Y132.938 E0.0168
G1 X124.208 Y131.667 E0.05662
G1 X124.024 Y131.643 E0.00586
G1 X123.387 Y131.379 E0.02173
G1 X124.945 Y132.938 E0.06946
G1 X124.412 Y132.938 E0.0168
G1 X116.062 Y124.588 E0.37211
G1 X116.062 Y125.121 E0.0168
G1 X123.879 Y132.938 E0.34835
G1 X123.346 Y132.938 E0.0168
G1 X116.062 Y125.654 E0.32458
G1 X116.062 Y126.188 E0.0168
G1 X122.812 Y132.938 E0.30082
G1 X122.279 Y132.938 E0.0168
G1 X116.062 Y126.721 E0.27705
G1 X116.062 Y127.254 E0.0168
G1 X121.746 Y132.938 E0.25329
G1 X121.212 Y132.938 E0.0168
G1 X116.062 Y127.788 E0.22952
G1 X116.062 Y128.321 E0.0168
G1 X120.679 Y132.938 E0.20575
G1 X120.146 Y132.938 E0.0168
G1 X116.062 Y128.854 E0.18199
G1 X116.062 Y129.387 E0.0168
G1 X119.613 Y132.938 E0.15822
G1 X119.079 Y132.938 E0.0168
G1 X116.062 Y129.921 E0.13446
G1 X116.062 Y130.454 E0.0168
G1 X118.708 Y133.1 E0.11792
; INIT stop printing object Gray - Clamp.stl id:0 copy 0
; INIT printing object Gray - Clamp.stl id:0 copy 1
;WIPE_START
G1 F8640
G1 X116.381 Y130.772 E-0.76
;WIPE_END
G1 E-0.04 F2100
G1 Z0.6 F10800
; stop printing object Gray - Clamp.stl id:0 copy 0
M486 S-1
; printing object Gray - Clamp.stl id:0 copy 1
M486 S1
M204 P1500
G1 X110.542 Y131.002
M204 P1000
G1 X102.375 Y128.904
G1 Z0.2
G1 E0.8 F2100
;TYPE:Internal perimeter
;WIDTH:0.42
G1 F1200
G1 X102.487 Y128.052 E0.02697
G1 X102.487 Y116.648 E0.35754
G1 X102.375 Y115.796 E0.02697
G1 X102.026 Y114.953 E0.0286
G1 X101.471 Y114.229 E0.0286
G1 X100.747 Y113.674 E0.0286
G1 X99.904 Y113.325 E0.0286
G1 X99. Y113.206 E0.0286
G1 X98.548 Y113.266 E0.0143
G1 X98.096 Y113.325 E0.0143
G1 X97.253 Y113.674 E0.0286
G1 X96.529 Y114.229 E0.0286
G1 X95.974 Y114.953 E0.0286
G1 X95.625 Y115.796 E0.0286
G1 X95.513 Y116.648 E0.02697
G1 X95.513 Y128.052 E0.35754
G1 X95.625 Y128.904 E0.02697
G1 X95.974 Y129.747 E0.0286
G1 X96.529 Y130.471 E0.0286
G1 X97.253 Y131.026 E0.0286
G1 X98.096 Y131.375 E0.0286
G1 X99 Y131.494 E0.0286
G1 X99.904 Y131.375 E0.0286
G1 X100.747 Y131.026 E0.0286
