; generated by SuperSlicer 2.3.57 on 2022-03-19 at 13:49:43 UTC

; 

; external perimeters extrusion width = 0.45mm
; perimeters extrusion width = 0.45mm
; infill extrusion width = 0.45mm
; solid infill extrusion width = 0.45mm
; top infill extrusion width = 0.40mm
; first layer extrusion width = 0.42mm

; object:{"name":"Gray - Table Corner","id":"Gray - Table Corner.stl id:0 copy 0","object_center":[131.121320,98.878680,0.000000],"boundingbox_center":[131.121320,98.878680,10.000000],"boundingbox_size":[69.500000,69.500000,20.000000]}
; object:{"name":"Gray - Table Corner","id":"Gray - Table Corner.stl id:1 copy 0","object_center":[118.878680,111.121321,0.000000],"boundingbox_center":[118.878680,111.121321,10.000000],"boundingbox_size":[69.500000,69.500000,20.000000]}
; Total objects to print: 2
M486 T2
; plater:{"center":[125.000000,105.000000,0.000000],"boundingbox_center":[125.000000,105.000000,10.000000],"boundingbox_size":[81.742640,81.742641,20.000000]}

M73 P0 R118
M73 Q0 S119
;TYPE:Custom
M862.3 P "MK3S" ; printer model check
M862.1 P0.4 ; nozzle diameter check
M115 U3.10.0 ; tell printer latest fw version
G90 ; use absolute coordinates
M83 ; extruder relative mode
M104 S215 ; set extruder temp
M140 S60 ; set bed temp
M190 S60 ; wait for bed temp
M109 S215 ; wait for extruder temp
G28 W ; home all without mesh bed level
G80 ; mesh bed leveling
G1 Y-3.0 F1000.0 ; go outside print area
G92 E0.0
G1 X60.0 E9.0 F1000.0 ; intro line
G1 X100.0 E12.5 F1000.0 ; intro line
G92 E0.0
M221 S95

; Don't change E values below. Excessive value can damage the printer.
M907 E430 ; set extruder motor current
M107
G21 ; set units to millimeters
G90 ; use absolute coordinates
M83 ; use relative distances for extrusion
M900 K0.05 ; Filament gcode LA 1.5
M900 K30 ; Filament gcode LA 1.0
;LAYER_CHANGE
;Z:0.2
;HEIGHT:0.2
;BEFORE_LAYER_CHANGE
G92 E0.0
;0.2


G1 E-0.8 F2100
G1 Z0.4 F10800
;AFTER_LAYER_CHANGE
;0.2
G1 Z0.6
M204 P1500
G1 X84.592 Y77.238
G1 Z0.2
G1 E0.8 F2100
;TYPE:Skirt
;WIDTH:0.45
G1 F1200
G1 X84.17 Y77.995 E0.02932
G1 X84.018 Y78.847 E0.02932
G1 X84.032 Y137.101 E1.97183
G1 X84.243 Y137.897 E0.02785
G1 X84.692 Y138.586 E0.02785
G1 X91.531 Y145.408 E0.32697
G1 X92.287 Y145.83 E0.02932
G1 X93.14 Y145.982 E0.02932
G1 X151.568 Y145.945 E1.97772
G1 X152.301 Y145.704 E0.02612
G1 X152.929 Y145.262 E0.02598
G1 X165.408 Y132.762 E0.59787
G1 X165.83 Y132.005 E0.02932
G1 X165.982 Y131.153 E0.02932
G1 X165.962 Y72.843 E1.97371
M73 P0 R117
G1 X165.745 Y72.078 E0.02692
G1 X165.308 Y71.414 E0.02692
G1 X158.651 Y64.753 E0.31875
G1 X158.262 Y64.442 E0.01686
G1 X157.817 Y64.209 E0.017
G1 X157.336 Y64.066 E0.017
G1 X156.84 Y64.018 E0.01686
G1 X98.4 Y64.061 E1.97811
G1 X97.684 Y64.303 E0.02558
G1 X97.068 Y64.741 E0.02558
G1 X84.634 Y77.196 E0.59571
G1 X84.777 Y77.338 F10800
M204 P1000
G1 X84.92 Y77.481
G1 F1200
G1 X84.553 Y78.131 E0.02524
G1 X84.425 Y78.853 E0.02483
G1 X84.436 Y137.059 E1.9702
G1 X84.617 Y137.736 E0.02373
G1 X85.002 Y138.322 E0.02373
G1 X91.78 Y145.086 E0.32412
G1 X92.423 Y145.447 E0.02496
G1 X93.146 Y145.575 E0.02483
G1 X151.501 Y145.543 E1.97524
G1 X152.118 Y145.34 E0.02202
G1 X152.653 Y144.963 E0.02214
G1 X165.086 Y132.513 E0.59558
G1 X165.447 Y131.869 E0.02496
G1 X165.575 Y131.147 E0.02483
G1 X165.559 Y72.901 E1.97155
G1 X165.375 Y72.247 E0.023
G1 X164.998 Y71.678 E0.02312
G1 X158.373 Y65.05 E0.31718
G1 X157.666 Y64.587 E0.02862
G1 X156.839 Y64.425 E0.0285
G1 X98.478 Y64.461 E1.97548
G1 X97.868 Y64.667 E0.02177
G1 X97.345 Y65.04 E0.02177
G1 X84.963 Y77.439 E0.59313
; INIT printing object Gray - Table Corner.stl id:0 copy 0
;WIPE_START
G1 F8640
G1 X84.914 Y77.487 E-0.01588
G1 X84.553 Y78.131 E-0.17025
G1 X84.425 Y78.853 E-0.16941
G1 X84.426 Y80.605 E-0.40446
;WIPE_END
G1 E-0.04 F2100
G1 Z0.6 F10800
; printing object Gray - Table Corner.stl id:0 copy 0
M486 S0
M204 P1500
G1 X91.06 Y74.621
M204 P1000
G1 X97.158 Y71.803
G1 Z0.2
G1 E0.8 F2100
;TYPE:Internal perimeter
;WIDTH:0.42
G1 F1200
G1 X97.158 Y69.455 E0.07362
G1 X98.797 Y67.816 E0.07267
G1 X156.344 Y67.816 E1.80434
M73 Q0 S118
G1 X156.464 Y67.935 E0.0053
G1 X162.184 Y73.656 E0.25366
G1 X162.184 Y131.203 E1.80434
G1 X160.545 Y132.842 E0.07267
G1 X158.197 Y132.842 E0.07362
G1 X157.158 Y131.803 E0.04607
G1 X157.158 Y72.842 E1.84868
G1 X98.197 Y72.842 E1.84868
G1 X97.201 Y71.845 E0.04419
M204 P1500
G1 X97.068 Y71.978 F10800
M204 P1000
G1 X96.934 Y72.112
;TYPE:External perimeter
G1 F1200
G1 X96.781 Y71.959 E0.00678
G1 X96.781 Y69.299 E0.08341
G1 X98.641 Y67.439 E0.08247
G1 X156.5 Y67.439 E1.81413
G1 X156.73 Y67.669 E0.0102
G1 X162.561 Y73.5 E0.25856
G1 X162.561 Y131.359 E1.81413
G1 X160.701 Y133.219 E0.08247
G1 X158.041 Y133.219 E0.08341
G1 X156.781 Y131.959 E0.05586
G1 X156.781 Y73.219 E1.84176
G1 X98.041 Y73.219 E1.84176
G1 X96.977 Y72.154 E0.0472
G1 X96.99 Y71.903 F10800
;WIPE_START
G1 F8640
G1 X96.781 Y71.959 E-0.06377
G1 X96.781 Y69.299 E-0.61428
G1 X97.032 Y69.048 E-0.08194
;WIPE_END
G1 E-0.04 F2100
G1 Z0.6 F10800
M204 P1500
G1 X129.524 Y73.048
M204 P1000
G1 X162.071 Y73.943
G1 Z0.2
G1 E0.8 F2100
;TYPE:Solid infill
;WIDTH:0.421839
G1 F1200
G1 X156.219 Y68.091 E0.26061
G1 X155.686 Y68.091 E0.01679
G1 X161.909 Y74.314 E0.27714
G1 X161.909 Y74.847 E0.01679
G1 X155.153 Y68.091 E0.30089
G1 X154.62 Y68.091 E0.01679
G1 X161.909 Y75.38 E0.32464
G1 X161.909 Y75.914 E0.01679
G1 X154.086 Y68.091 E0.34839
G1 X153.553 Y68.091 E0.01679
G1 X161.909 Y76.447 E0.37214
G1 X161.909 Y76.98 E0.01679
G1 X153.02 Y68.091 E0.39589
G1 X152.486 Y68.091 E0.01679
G1 X156.962 Y72.566 E0.19931
G1 X157.434 Y72.566 E0.01486
G1 X157.434 Y73.038 E0.01486
G1 X161.909 Y77.514 E0.19931
G1 X161.909 Y78.047 E0.01679
G1 X157.434 Y73.571 E0.19931
G1 X157.434 Y74.105 E0.01679
G1 X161.909 Y78.58 E0.19931
G1 X161.909 Y79.113 E0.01679
G1 X157.434 Y74.638 E0.19931
G1 X157.434 Y75.171 E0.01679
G1 X161.909 Y79.647 E0.19931
G1 X161.909 Y80.18 E0.01679
G1 X157.434 Y75.705 E0.19931
G1 X157.434 Y76.238 E0.01679
G1 X161.909 Y80.713 E0.19931
M73 P1 R117
G1 X161.909 Y81.246 E0.01679
M73 Q1 S118
G1 X157.434 Y76.771 E0.19931
G1 X157.434 Y77.304 E0.01679
G1 X161.909 Y81.78 E0.19931
G1 X161.909 Y82.313 E0.01679
G1 X157.434 Y77.838 E0.19931
G1 X157.434 Y78.371 E0.01679
G1 X161.909 Y82.846 E0.19931
G1 X161.909 Y83.38 E0.01679
G1 X157.434 Y78.904 E0.19931
G1 X157.434 Y79.437 E0.01679
G1 X161.909 Y83.913 E0.19931
G1 X161.909 Y84.446 E0.01679
G1 X157.434 Y79.971 E0.19931
G1 X157.434 Y80.504 E0.01679
G1 X161.909 Y84.979 E0.19931
G1 X161.909 Y85.513 E0.01679
G1 X157.434 Y81.037 E0.19931
G1 X157.434 Y81.571 E0.01679
G1 X161.909 Y86.046 E0.19931
G1 X161.909 Y86.579 E0.01679
G1 X157.434 Y82.104 E0.19931
G1 X157.434 Y82.637 E0.01679
G1 X161.909 Y87.112 E0.19931
G1 X161.909 Y87.646 E0.01679
G1 X157.434 Y83.17 E0.19931
G1 X157.434 Y83.704 E0.01679
G1 X161.909 Y88.179 E0.19931
G1 X161.909 Y88.712 E0.01679
G1 X157.434 Y84.237 E0.19931
G1 X157.434 Y84.77 E0.01679
G1 X161.909 Y89.245 E0.19931
G1 X161.909 Y89.779 E0.01679
G1 X157.434 Y85.303 E0.19931
G1 X157.434 Y85.837 E0.01679
G1 X161.909 Y90.312 E0.19931
M73 P1 R116
G1 X161.909 Y90.845 E0.01679
G1 X157.434 Y86.37 E0.19931
G1 X157.434 Y86.903 E0.01679
G1 X161.909 Y91.379 E0.19931
G1 X161.909 Y91.912 E0.01679
G1 X157.434 Y87.437 E0.19931
G1 X157.434 Y87.97 E0.01679
G1 X161.909 Y92.445 E0.19931
G1 X161.909 Y92.978 E0.01679
G1 X157.434 Y88.503 E0.19931
G1 X157.434 Y89.036 E0.01679
G1 X161.909 Y93.512 E0.19931
G1 X161.909 Y94.045 E0.01679
G1 X157.434 Y89.57 E0.19931
G1 X157.434 Y90.103 E0.01679
G1 X161.909 Y94.578 E0.19931
G1 X161.909 Y95.111 E0.01679
G1 X157.434 Y90.636 E0.19931
G1 X157.434 Y91.169 E0.01679
G1 X161.909 Y95.645 E0.19931
G1 X161.909 Y96.178 E0.01679
G1 X157.434 Y91.703 E0.19931
G1 X157.434 Y92.236 E0.01679
G1 X161.909 Y96.711 E0.19931
G1 X161.909 Y97.245 E0.01679
G1 X157.434 Y92.769 E0.19931
G1 X157.434 Y93.302 E0.01679
G1 X161.909 Y97.778 E0.19931
G1 X161.909 Y98.311 E0.01679
G1 X157.434 Y93.836 E0.19931
G1 X157.434 Y94.369 E0.01679
G1 X161.909 Y98.844 E0.19931
G1 X161.909 Y99.378 E0.01679
G1 X157.434 Y94.902 E0.19931
G1 X157.434 Y95.436 E0.01679
G1 X161.909 Y99.911 E0.19931
G1 X161.909 Y100.444 E0.01679
G1 X157.434 Y95.969 E0.19931
G1 X157.434 Y96.502 E0.01679
G1 X161.909 Y100.977 E0.19931
G1 X161.909 Y101.511 E0.01679
G1 X157.434 Y97.035 E0.19931
G1 X157.434 Y97.569 E0.01679
G1 X161.909 Y102.044 E0.19931
G1 X161.909 Y102.577 E0.01679
G1 X157.434 Y98.102 E0.19931
G1 X157.434 Y98.635 E0.01679
G1 X161.909 Y103.111 E0.19931
G1 X161.909 Y103.644 E0.01679
G1 X157.434 Y99.168 E0.19931
G1 X157.434 Y99.702 E0.01679
G1 X161.909 Y104.177 E0.19931
G1 X161.909 Y104.71 E0.01679
G1 X157.434 Y100.235 E0.19931
G1 X157.434 Y100.768 E0.01679
G1 X161.909 Y105.244 E0.19931
G1 X161.909 Y105.777 E0.01679
G1 X157.434 Y101.302 E0.19931
G1 X157.434 Y101.835 E0.01679
G1 X161.909 Y106.31 E0.19931
G1 X161.909 Y106.843 E0.01679
G1 X157.434 Y102.368 E0.19931
G1 X157.434 Y102.901 E0.01679
G1 X161.909 Y107.377 E0.19931
G1 X161.909 Y107.91 E0.01679
G1 X157.434 Y103.435 E0.19931
G1 X157.434 Y103.968 E0.01679
G1 X161.909 Y108.443 E0.19931
G1 X161.909 Y108.976 E0.01679
G1 X157.434 Y104.501 E0.19931
G1 X157.434 Y105.034 E0.01679
G1 X161.909 Y109.51 E0.19931
G1 X161.909 Y110.043 E0.01679
G1 X157.434 Y105.568 E0.19931
G1 X157.434 Y106.101 E0.01679
G1 X161.909 Y110.576 E0.19931
G1 X161.909 Y111.11 E0.01679
G1 X157.434 Y106.634 E0.19931
G1 X157.434 Y107.168 E0.01679
G1 X161.909 Y111.643 E0.19931
G1 X161.909 Y112.176 E0.01679
G1 X157.434 Y107.701 E0.19931
G1 X157.434 Y108.234 E0.01679
G1 X161.909 Y112.709 E0.19931
G1 X161.909 Y113.243 E0.01679
G1 X157.434 Y108.767 E0.19931
G1 X157.434 Y109.301 E0.01679
G1 X161.909 Y113.776 E0.19931
G1 X161.909 Y114.309 E0.01679
G1 X157.434 Y109.834 E0.19931
G1 X157.434 Y110.367 E0.01679
G1 X161.909 Y114.842 E0.19931
G1 X161.909 Y115.376 E0.01679
G1 X157.434 Y110.9 E0.19931
G1 X157.434 Y111.434 E0.01679
G1 X161.909 Y115.909 E0.19931
G1 X161.909 Y116.442 E0.01679
G1 X157.434 Y111.967 E0.19931
G1 X157.434 Y112.5 E0.01679
G1 X161.909 Y116.976 E0.19931
G1 X161.909 Y117.509 E0.01679
G1 X157.434 Y113.033 E0.19931
G1 X157.434 Y113.567 E0.01679
G1 X161.909 Y118.042 E0.19931
G1 X161.909 Y118.575 E0.01679
G1 X157.434 Y114.1 E0.19931
G1 X157.434 Y114.633 E0.01679
G1 X161.909 Y119.109 E0.19931
G1 X161.909 Y119.642 E0.01679
G1 X157.434 Y115.167 E0.19931
G1 X157.434 Y115.7 E0.01679
G1 X161.909 Y120.175 E0.19931
G1 X161.909 Y120.708 E0.01679
G1 X157.434 Y116.233 E0.19931
G1 X157.434 Y116.766 E0.01679
G1 X161.909 Y121.242 E0.19931
G1 X161.909 Y121.775 E0.01679
G1 X157.434 Y117.3 E0.19931
G1 X157.434 Y117.833 E0.01679
G1 X161.909 Y122.308 E0.19931
G1 X161.909 Y122.842 E0.01679
G1 X157.434 Y118.366 E0.19931
G1 X157.434 Y118.899 E0.01679
G1 X161.909 Y123.375 E0.19931
M73 Q1 S117
G1 X161.909 Y123.908 E0.01679
G1 X157.434 Y119.433 E0.19931
G1 X157.434 Y119.966 E0.01679
G1 X161.909 Y124.441 E0.19931
G1 X161.909 Y124.975 E0.01679
G1 X157.434 Y120.499 E0.19931
G1 X157.434 Y121.033 E0.01679
G1 X161.909 Y125.508 E0.19931
G1 X161.909 Y126.041 E0.01679
G1 X157.434 Y121.566 E0.19931
G1 X157.434 Y122.099 E0.01679
G1 X161.909 Y126.574 E0.19931
G1 X161.909 Y127.108 E0.01679
G1 X157.434 Y122.632 E0.19931
G1 X157.434 Y123.166 E0.01679
G1 X161.909 Y127.641 E0.19931
G1 X161.909 Y128.174 E0.01679
G1 X157.434 Y123.699 E0.19931
G1 X157.434 Y124.232 E0.01679
G1 X161.909 Y128.707 E0.19931
G1 X161.909 Y129.241 E0.01679
G1 X157.434 Y124.765 E0.19931
G1 X157.434 Y125.299 E0.01679
G1 X161.909 Y129.774 E0.19931
G1 X161.909 Y130.307 E0.01679
G1 X157.434 Y125.832 E0.19931
G1 X157.434 Y126.365 E0.01679
G1 X161.909 Y130.841 E0.19931
G1 X161.909 Y131.089 E0.00781
G1 X161.766 Y131.231 E0.00635
G1 X157.434 Y126.898 E0.19296
G1 X157.434 Y127.432 E0.01679
G1 X161.5 Y131.498 E0.18109
G1 X161.233 Y131.765 E0.01187
G1 X157.434 Y127.965 E0.16921
G1 X157.434 Y128.498 E0.01679
G1 X160.966 Y132.031 E0.15734
G1 X160.7 Y132.298 E0.01187
G1 X157.434 Y129.032 E0.14546
G1 X157.434 Y129.565 E0.01679
G1 X160.433 Y132.564 E0.13359
G1 X159.902 Y132.566 E0.01673
G1 X157.434 Y130.098 E0.10992
G1 X157.434 Y130.631 E0.01679
G1 X159.369 Y132.566 E0.08618
G1 X158.835 Y132.566 E0.01679
G1 X157.272 Y131.003 E0.06965
;WIPE_START
G1 F8640
G1 X158.835 Y132.566 E-0.51066
G1 X159.369 Y132.566 E-0.12313
G1 X158.982 Y132.18 E-0.1262
;WIPE_END
G1 E-0.04 F2100
G1 Z0.6 F10800
M204 P1500
G1 X156.931 Y101.866
M204 P1000
G1 X156.591 Y72.728
G1 Z0.2
G1 E0.8 F2100
G1 F1200
G1 X151.953 Y68.091 E0.20653
G1 X151.42 Y68.091 E0.01679
G1 X155.895 Y72.566 E0.19931
G1 X155.362 Y72.566 E0.01679
G1 X150.887 Y68.091 E0.19931
G1 X150.353 Y68.091 E0.01679
G1 X154.829 Y72.566 E0.19931
G1 X154.295 Y72.566 E0.01679
G1 X149.82 Y68.091 E0.19931
G1 X149.287 Y68.091 E0.01679
G1 X153.762 Y72.566 E0.19931
G1 X153.229 Y72.566 E0.01679
G1 X148.754 Y68.091 E0.19931
G1 X148.22 Y68.091 E0.01679
G1 X152.696 Y72.566 E0.19931
G1 X152.162 Y72.566 E0.01679
G1 X147.687 Y68.091 E0.19931
G1 X147.154 Y68.091 E0.01679
G1 X151.629 Y72.566 E0.19931
G1 X151.096 Y72.566 E0.01679
G1 X146.62 Y68.091 E0.19931
G1 X146.087 Y68.091 E0.01679
G1 X150.563 Y72.566 E0.19931
G1 X150.029 Y72.566 E0.01679
G1 X145.554 Y68.091 E0.19931
G1 X145.021 Y68.091 E0.01679
G1 X149.496 Y72.566 E0.19931
G1 X148.963 Y72.566 E0.01679
G1 X144.487 Y68.091 E0.19931
G1 X143.954 Y68.091 E0.01679
G1 X148.429 Y72.566 E0.19931
G1 X147.896 Y72.566 E0.01679
G1 X143.421 Y68.091 E0.19931
G1 X142.888 Y68.091 E0.01679
G1 X147.363 Y72.566 E0.19931
G1 X146.83 Y72.566 E0.01679
G1 X142.354 Y68.091 E0.19931
G1 X141.821 Y68.091 E0.01679
G1 X146.296 Y72.566 E0.19931
G1 X145.763 Y72.566 E0.01679
G1 X141.288 Y68.091 E0.19931
G1 X140.755 Y68.091 E0.01679
G1 X145.23 Y72.566 E0.19931
G1 X144.697 Y72.566 E0.01679
G1 X140.221 Y68.091 E0.19931
G1 X139.688 Y68.091 E0.01679
G1 X144.163 Y72.566 E0.19931
G1 X143.63 Y72.566 E0.01679
G1 X139.155 Y68.091 E0.19931
G1 X138.621 Y68.091 E0.01679
G1 X143.097 Y72.566 E0.19931
G1 X142.563 Y72.566 E0.01679
G1 X138.088 Y68.091 E0.19931
G1 X137.555 Y68.091 E0.01679
G1 X142.03 Y72.566 E0.19931
G1 X141.497 Y72.566 E0.01679
G1 X137.022 Y68.091 E0.19931
G1 X136.488 Y68.091 E0.01679
G1 X140.964 Y72.566 E0.19931
G1 X140.43 Y72.566 E0.01679
G1 X135.955 Y68.091 E0.19931
G1 X135.422 Y68.091 E0.01679
G1 X139.897 Y72.566 E0.19931
G1 X139.364 Y72.566 E0.01679
G1 X134.889 Y68.091 E0.19931
G1 X134.355 Y68.091 E0.01679
G1 X138.831 Y72.566 E0.19931
G1 X138.297 Y72.566 E0.01679
G1 X133.822 Y68.091 E0.19931
G1 X133.289 Y68.091 E0.01679
G1 X137.764 Y72.566 E0.19931
G1 X137.231 Y72.566 E0.01679
G1 X132.755 Y68.091 E0.19931
G1 X132.222 Y68.091 E0.01679
G1 X136.698 Y72.566 E0.19931
G1 X136.164 Y72.566 E0.01679
G1 X131.689 Y68.091 E0.19931
G1 X131.156 Y68.091 E0.01679
G1 X135.631 Y72.566 E0.19931
G1 X135.098 Y72.566 E0.01679
G1 X130.622 Y68.091 E0.19931
G1 X130.089 Y68.091 E0.01679
G1 X134.564 Y72.566 E0.19931
G1 X134.031 Y72.566 E0.01679
G1 X129.556 Y68.091 E0.19931
G1 X129.023 Y68.091 E0.01679
G1 X133.498 Y72.566 E0.19931
G1 X132.965 Y72.566 E0.01679
G1 X128.489 Y68.091 E0.19931
G1 X127.956 Y68.091 E0.01679
G1 X132.431 Y72.566 E0.19931
G1 X131.898 Y72.566 E0.01679
G1 X127.423 Y68.091 E0.19931
G1 X126.889 Y68.091 E0.01679
G1 X131.365 Y72.566 E0.19931
G1 X130.832 Y72.566 E0.01679
G1 X126.356 Y68.091 E0.19931
G1 X125.823 Y68.091 E0.01679
G1 X130.298 Y72.566 E0.19931
G1 X129.765 Y72.566 E0.01679
G1 X125.29 Y68.091 E0.19931
G1 X124.756 Y68.091 E0.01679
G1 X129.232 Y72.566 E0.19931
G1 X128.698 Y72.566 E0.01679
G1 X124.223 Y68.091 E0.19931
G1 X123.69 Y68.091 E0.01679
G1 X128.165 Y72.566 E0.19931
G1 X127.632 Y72.566 E0.01679
G1 X123.157 Y68.091 E0.19931
G1 X122.623 Y68.091 E0.01679
G1 X127.099 Y72.566 E0.19931
G1 X126.565 Y72.566 E0.01679
G1 X122.09 Y68.091 E0.19931
G1 X121.557 Y68.091 E0.01679
G1 X126.032 Y72.566 E0.19931
G1 X125.499 Y72.566 E0.01679
G1 X121.024 Y68.091 E0.19931
G1 X120.49 Y68.091 E0.01679
G1 X124.966 Y72.566 E0.19931
G1 X124.432 Y72.566 E0.01679
G1 X119.957 Y68.091 E0.19931
G1 X119.424 Y68.091 E0.01679
G1 X123.899 Y72.566 E0.19931
G1 X123.366 Y72.566 E0.01679
G1 X118.89 Y68.091 E0.19931
G1 X118.357 Y68.091 E0.01679
